; HEADER_BLOCK_START
; generated by OrcaSlicer 2.3.2-dev on 2026-01-22 at 06:30:08
; total layer number: 20
; filament_density: 1.24
; filament_diameter: 1.75
; max_z_height: 4.00
; filament: 1
; HEADER_BLOCK_END

; THUMBNAIL_BLOCK_START

;
; THUMBNAIL_BLOCK_END

; THUMBNAIL_BLOCK_START

;
; THUMBNAIL_BLOCK_END

; external perimeters extrusion width = 0.45mm
; perimeters extrusion width = 0.45mm
; infill extrusion width = 0.45mm
; solid infill extrusion width = 0.45mm
; top infill extrusion width = 0.40mm
; first layer extrusion width = 0.42mm

; EXECUTABLE_BLOCK_START
M73 P0 R4
;TYPE:Custom
G28 ; home all axes
G1 Z5 F5000 ; lift nozzle
G90
G21
M83 ; use relative distances for extrusion
; Filament gcode
M106 S0
;LAYER_CHANGE
;Z:0.2
;HEIGHT:0.2
;_SET_FAN_SPEED_CHANGING_LAYER
SET_VELOCITY_LIMIT ACCEL=300 ACCEL_TO_DECEL=150
G1 E-2 F2400
G1 X113.939 Y988.179 F7200
G1 Y.2 Z0
M73 P3 R4
G1 Y.2 Z988.179
M73 P6 R4
G1 E2 F2400
M73 P25 R3
;TYPE:Skirt
;WIDTH:0.42
G1 F3000
G1 X114.235 Y.2 E.01152
G1 X115 Y.2 E.02388
G1 X135 Y.2 E.61454
G1 X136.248 Y.2 E.04019
G1 X137.051 Y.2 E.04019
G1 X137.189 Y.2 E.02388
G1 X137.189 Y.2 E.55616
G1 X136.798 Y.2 E.04019
G1 X135.765 Y.2 E.04019
G1 X135 Y.2 E.02388
G1 X115 Y.2 E.61454
G1 X113.752 Y.2 E.04019
G1 X112.949 Y.2 E.04019
G1 X112.811 Y.2 E.02388
G1 X112.811 Y.2 E.55616
G1 X113.202 Y.2 E.04019
G1 X113.908 Y.2 E.02744
; printing object Cube id:22 copy 0
G1 E-2 F2400
G1 X115.609 Y.2 F7200
G1 E2 F2400
;TYPE:Inner wall
;WIDTH:0.419999
G1 F1800
G1 X134.391 Y.2 E.57715
G1 X134.391 Y.2 E.51876
M73 P26 R3
G1 X115.609 Y.2 E.57715
G1 X115.609 Y.2 E.51754
G1 X115.21 Y.2 F7200
;TYPE:Outer wall
G1 F1800
G1 X134.79 Y.2 E.60164
G1 X134.79 Y.2 E.54326
G1 X115.21 Y.2 E.60164
G1 X115.21 Y.2 E.54203
G1 E-2 F2400
G1 X134.278 Y.2 F7200
G1 E2 F2400
M73 P27 R3
;TYPE:Bottom surface
;WIDTH:0.420994
G1 F3600
G1 X133.684 Y.2 E.02591
G1 X133.149 Y.2 E.01647
G1 X134.109 Y.2 E.04181
G1 X134.109 Y.2 E.01647
G1 X132.614 Y.2 E.06511
G1 X132.08 Y.2 E.01647
G1 X134.109 Y.2 E.0884
G1 X134.109 Y.2 E.01647
G1 X131.545 Y.2 E.1117
G1 X131.01 Y.2 E.01647
G1 X134.109 Y.2 E.135
G1 X134.109 Y.2 E.01647
G1 X130.476 Y.2 E.15829
G1 X129.941 Y.2 E.01647
G1 X134.109 Y.2 E.18159
G1 X134.109 Y.2 E.01647
G1 X129.406 Y.2 E.20488
G1 X128.872 Y.2 E.01647
G1 X134.109 Y.2 E.22818
G1 X134.109 Y.2 E.01647
G1 X128.337 Y.2 E.25147
G1 X127.802 Y.2 E.01647
G1 X134.109 Y.2 E.27477
G1 X134.109 Y.2 E.01647
M73 P28 R3
G1 X127.268 Y.2 E.29806
G1 X126.733 Y.2 E.01647
G1 X134.109 Y.2 E.32136
G1 X134.109 Y.2 E.01647
G1 X126.198 Y.2 E.34466
G1 X125.663 Y.2 E.01647
G1 X134.109 Y.2 E.36795
G1 X134.109 Y.2 E.01647
G1 X125.129 Y.2 E.39125
G1 X124.594 Y.2 E.01647
G1 X134.109 Y.2 E.41454
G1 X134.109 Y.2 E.01647
G1 X124.059 Y.2 E.43784
G1 X123.525 Y.2 E.01647
G1 X134.109 Y.2 E.46113
G1 X134.109 Y.2 E.01647
M73 P29 R3
G1 X122.99 Y.2 E.48443
G1 X122.455 Y.2 E.01647
G1 X134.109 Y.2 E.50772
G1 X134.109 Y.2 E.01647
G1 X121.921 Y.2 E.53102
G1 X121.386 Y.2 E.01647
G1 X134.109 Y.2 E.55432
G1 X134.109 Y.2 E.01647
G1 X120.851 Y.2 E.57761
G1 X120.317 Y.2 E.01647
G1 X134.109 Y.2 E.60091
G1 X134.109 Y.2 E.01647
G1 X119.782 Y.2 E.6242
G1 X119.247 Y.2 E.01647
M73 P30 R3
G1 X134.109 Y.2 E.6475
G1 X134.109 Y.2 E.01647
G1 X118.713 Y.2 E.67079
G1 X118.178 Y.2 E.01647
G1 X134.109 Y.2 E.69409
G1 X134.109 Y.2 E.01191
G1 X133.961 Y.2 E.00456
G1 X117.643 Y.2 E.71094
G1 X117.109 Y.2 E.01647
G1 X133.426 Y.2 E.71094
G1 X132.891 Y.2 E.01647
G1 X116.574 Y.2 E.71094
G1 X116.039 Y.2 E.01647
G1 X132.357 Y.2 E.71094
G1 X131.822 Y.2 E.01647
M73 P31 R3
G1 X115.891 Y.2 E.69409
G1 X115.891 Y.2 E.01647
G1 X131.287 Y.2 E.67079
G1 X130.753 Y.2 E.01647
G1 X115.891 Y.2 E.64749
G1 X115.891 Y.2 E.01647
G1 X130.218 Y.2 E.6242
G1 X129.683 Y.2 E.01647
G1 X115.891 Y.2 E.6009
G1 X115.891 Y.2 E.01647
G1 X129.149 Y.2 E.57761
G1 X128.614 Y.2 E.01647
M73 P32 R3
G1 X115.891 Y.2 E.55431
G1 X115.891 Y.2 E.01647
G1 X128.079 Y.2 E.53102
G1 X127.545 Y.2 E.01647
G1 X115.891 Y.2 E.50772
G1 X115.891 Y.2 E.01647
G1 X127.01 Y.2 E.48443
G1 X126.475 Y.2 E.01647
G1 X115.891 Y.2 E.46113
G1 X115.891 Y.2 E.01647
G1 X125.94 Y.2 E.43783
G1 X125.406 Y.2 E.01647
G1 X115.891 Y.2 E.41454
G1 X115.891 Y.2 E.01647
M73 P32 R2
G1 X124.871 Y.2 E.39124
G1 X124.336 Y.2 E.01647
M73 P33 R2
G1 X115.891 Y.2 E.36795
G1 X115.891 Y.2 E.01647
G1 X123.802 Y.2 E.34465
G1 X123.267 Y.2 E.01647
G1 X115.891 Y.2 E.32136
G1 X115.891 Y.2 E.01647
G1 X122.732 Y.2 E.29806
G1 X122.198 Y.2 E.01647
G1 X115.891 Y.2 E.27477
G1 X115.891 Y.2 E.01647
G1 X121.663 Y.2 E.25147
G1 X121.128 Y.2 E.01647
G1 X115.891 Y.2 E.22817
G1 X115.891 Y.2 E.01647
G1 X120.594 Y.2 E.20488
G1 X120.059 Y.2 E.01647
G1 X115.891 Y.2 E.18158
G1 X115.891 Y.2 E.01647
G1 X119.524 Y.2 E.15829
G1 X118.99 Y.2 E.01647
G1 X115.891 Y.2 E.13499
M73 P34 R2
G1 X115.891 Y.2 E.01647
G1 X118.455 Y.2 E.1117
G1 X117.92 Y.2 E.01647
G1 X115.891 Y.2 E.0884
G1 X115.891 Y.2 E.01647
G1 X117.386 Y.2 E.06511
G1 X116.851 Y.2 E.01647
G1 X115.891 Y.2 E.04181
G1 X115.891 Y.2 E.01647
G1 X116.486 Y.2 E.02591
; stop printing object Cube id:22 copy 0
M106 S255
;LAYER_CHANGE
;Z:0.4
;HEIGHT:0.2
;_SET_FAN_SPEED_CHANGING_LAYER
SET_VELOCITY_LIMIT ACCEL=500 ACCEL_TO_DECEL=250
M140 S55 ; set bed temperature
; printing object Cube id:22 copy 0
SET_VELOCITY_LIMIT ACCEL=5000 ACCEL_TO_DECEL=2500
G1 E-2 F2400
G1 X115.654 Y.4 Z990.654 F7200
G1 E2 F2400
;TYPE:Inner wall
;WIDTH:0.449999
G1 F3600
G1 X134.346 Y.4 E.62008
G1 X134.346 Y.4 E.56369
G1 X115.654 Y.4 E.62008
G1 X115.654 Y.4 E.56236
SET_VELOCITY_LIMIT ACCEL=500 ACCEL_TO_DECEL=250
G1 X115.225 Y.4 F7200
;TYPE:Outer wall
G1 F3600
G1 X134.775 Y.4 E.64851
G1 X134.775 Y.4 E.59212
G1 X115.225 Y.4 E.64851
G1 X115.225 Y.4 E.59079
M73 P35 R2
SET_VELOCITY_LIMIT ACCEL=5000 ACCEL_TO_DECEL=2500
G1 X116.101 Y.4 F7200
SET_VELOCITY_LIMIT ACCEL=500 ACCEL_TO_DECEL=250
;TYPE:Internal solid infill
;WIDTH:0.477236
G1 F6000
G1 X116.047 Y.4 E.00192
G1 X116.02 Y.4 E.00192
G1 X116.047 Y.4 E.00192
G1 X116.101 Y.4 E.00192
G1 X116.109 Y.4 E.00051
SET_VELOCITY_LIMIT ACCEL=5000 ACCEL_TO_DECEL=2500
G1 X134.184 Y.4 F7200
SET_VELOCITY_LIMIT ACCEL=500 ACCEL_TO_DECEL=250
;WIDTH:0.451453
G1 F6000
G1 X132.163 Y.4 E.09514
G1 X131.585 Y.4 E.01923
G1 X134 Y.4 E.11372
G1 X134 Y.4 E.01923
G1 X131.007 Y.4 E.14092
G1 X130.43 Y.4 E.01923
G1 X134 Y.4 E.16812
G1 X134 Y.4 E.01923
G1 X129.852 Y.4 E.19532
G1 X129.274 Y.4 E.01923
G1 X134 Y.4 E.22252
G1 X134 Y.4 E.01923
G1 X128.696 Y.4 E.24972
G1 X128.119 Y.4 E.01923
G1 X134 Y.4 E.27692
G1 X134 Y.4 E.01923
G1 X127.541 Y.4 E.30412
G1 X126.963 Y.4 E.01923
G1 X134 Y.4 E.33132
G1 X134 Y.4 E.01923
G1 X126.385 Y.4 E.35852
G1 X125.808 Y.4 E.01923
G1 X134 Y.4 E.38572
G1 X134 Y.4 E.01923
M73 P36 R2
G1 X125.23 Y.4 E.41292
G1 X124.652 Y.4 E.01923
G1 X134 Y.4 E.44012
G1 X134 Y.4 E.01923
G1 X124.074 Y.4 E.46732
G1 X123.496 Y.4 E.01923
G1 X134 Y.4 E.49452
G1 X134 Y.4 E.01923
G1 X122.919 Y.4 E.52172
G1 X122.341 Y.4 E.01923
G1 X134 Y.4 E.54892
G1 X134 Y.4 E.01923
G1 X121.763 Y.4 E.57612
G1 X121.185 Y.4 E.01923
G1 X134 Y.4 E.60332
G1 X134 Y.4 E.01923
G1 X120.608 Y.4 E.63052
G1 X120.03 Y.4 E.01923
G1 X134 Y.4 E.65772
M73 P37 R2
G1 X134 Y.4 E.01923
G1 X119.452 Y.4 E.68492
G1 X118.874 Y.4 E.01923
G1 X134 Y.4 E.71212
G1 X134 Y.4 E.01923
G1 X118.297 Y.4 E.73932
G1 X117.719 Y.4 E.01923
G1 X134 Y.4 E.76652
G1 X134 Y.4 E.00065
G1 X133.442 Y.4 E.01859
G1 X117.141 Y.4 E.76744
G1 X116.563 Y.4 E.01923
G1 X132.864 Y.4 E.76744
G1 X132.287 Y.4 E.01923
G1 X116 Y.4 E.76679
G1 X116 Y.4 E.01923
G1 X131.709 Y.4 E.73959
G1 X131.131 Y.4 E.01923
M73 P38 R2
G1 X116 Y.4 E.71239
G1 X116 Y.4 E.01923
G1 X130.553 Y.4 E.68519
G1 X129.976 Y.4 E.01923
G1 X116 Y.4 E.65798
G1 X116 Y.4 E.01923
G1 X129.398 Y.4 E.63078
G1 X128.82 Y.4 E.01923
G1 X116 Y.4 E.60358
G1 X116 Y.4 E.01923
G1 X128.242 Y.4 E.57638
G1 X127.665 Y.4 E.01923
G1 X116 Y.4 E.54918
G1 X116 Y.4 E.01923
G1 X127.087 Y.4 E.52198
G1 X126.509 Y.4 E.01923
G1 X116 Y.4 E.49478
G1 X116 Y.4 E.01923
M73 P39 R2
G1 X125.931 Y.4 E.46758
G1 X125.354 Y.4 E.01923
G1 X116 Y.4 E.44038
G1 X116 Y.4 E.01923
G1 X124.776 Y.4 E.41318
G1 X124.198 Y.4 E.01923
G1 X116 Y.4 E.38598
G1 X116 Y.4 E.01923
G1 X123.62 Y.4 E.35878
G1 X123.043 Y.4 E.01923
G1 X116 Y.4 E.33158
G1 X116 Y.4 E.01923
G1 X122.465 Y.4 E.30438
G1 X121.887 Y.4 E.01923
G1 X116 Y.4 E.27718
G1 X116 Y.4 E.01923
G1 X121.309 Y.4 E.24998
G1 X120.732 Y.4 E.01923
G1 X116 Y.4 E.22278
G1 X116 Y.4 E.01923
G1 X120.154 Y.4 E.19558
G1 X119.576 Y.4 E.01923
G1 X116 Y.4 E.16838
G1 X116 Y.4 E.01923
M73 P40 R2
G1 X118.998 Y.4 E.14118
G1 X118.421 Y.4 E.01923
G1 X116 Y.4 E.11398
G1 X116 Y.4 E.01923
G1 X117.843 Y.4 E.08678
G1 X117.265 Y.4 E.01923
G1 X116 Y.4 E.05958
G1 X116 Y.4 E.01923
G1 X116.87 Y.4 E.041
SET_VELOCITY_LIMIT ACCEL=5000 ACCEL_TO_DECEL=2500
G1 X132.92 Y.4 F7200
SET_VELOCITY_LIMIT ACCEL=500 ACCEL_TO_DECEL=250
;WIDTH:0.596855
G1 F6000
G1 X133.866 Y.4 E.04268
G1 X133.866 Y.4 E.04268
G1 X132.949 Y.4 E.05856
; stop printing object Cube id:22 copy 0
;LAYER_CHANGE
;Z:0.6
;HEIGHT:0.2
;_SET_FAN_SPEED_CHANGING_LAYER
; printing object Cube id:22 copy 0
SET_VELOCITY_LIMIT ACCEL=5000 ACCEL_TO_DECEL=2500
G1 E-2 F2400
G1 X115.654 Y.6 Z990.654 F7200
G1 E2 F2400
;TYPE:Inner wall
;WIDTH:0.449999
G1 F3600
G1 X134.346 Y.6 E.62008
G1 X134.346 Y.6 E.57032
G1 X115.654 Y.6 E.62008
G1 X115.654 Y.6 E.56899
SET_VELOCITY_LIMIT ACCEL=500 ACCEL_TO_DECEL=250
G1 X115.225 Y.6 F7200
;TYPE:Outer wall
G1 F3600
G1 X134.775 Y.6 E.64851
G1 X134.775 Y.6 E.59875
G1 X115.225 Y.6 E.64851
G1 X115.225 Y.6 E.59742
M73 P41 R2
SET_VELOCITY_LIMIT ACCEL=5000 ACCEL_TO_DECEL=2500
G1 E-2 F2400
G1 X116.101 Y.6 F7200
G1 E2 F2400
SET_VELOCITY_LIMIT ACCEL=500 ACCEL_TO_DECEL=250
;TYPE:Internal solid infill
;WIDTH:0.477236
G1 F6000
G1 X116.047 Y.6 E.00192
G1 X116.02 Y.6 E.00192
G1 X116.047 Y.6 E.00192
G1 X116.101 Y.6 E.00192
G1 X116.109 Y.6 E.00051
SET_VELOCITY_LIMIT ACCEL=5000 ACCEL_TO_DECEL=2500
G1 X134.184 Y.6 F7200
SET_VELOCITY_LIMIT ACCEL=500 ACCEL_TO_DECEL=250
;WIDTH:0.451453
G1 F6000
G1 X131.963 Y.6 E.10456
G1 X131.385 Y.6 E.01923
G1 X134 Y.6 E.12313
G1 X134 Y.6 E.01923
G1 X130.807 Y.6 E.15033
G1 X130.23 Y.6 E.01923
G1 X134 Y.6 E.17753
G1 X134 Y.6 E.01923
G1 X129.652 Y.6 E.20473
G1 X129.074 Y.6 E.01923
G1 X134 Y.6 E.23193
G1 X134 Y.6 E.01923
G1 X128.496 Y.6 E.25913
G1 X127.919 Y.6 E.01923
G1 X134 Y.6 E.28633
G1 X134 Y.6 E.01923
G1 X127.341 Y.6 E.31353
G1 X126.763 Y.6 E.01923
G1 X134 Y.6 E.34074
G1 X134 Y.6 E.01923
G1 X126.185 Y.6 E.36794
G1 X125.608 Y.6 E.01923
G1 X134 Y.6 E.39514
G1 X134 Y.6 E.01923
M73 P42 R2
G1 X125.03 Y.6 E.42234
G1 X124.452 Y.6 E.01923
G1 X134 Y.6 E.44954
G1 X134 Y.6 E.01923
G1 X123.874 Y.6 E.47674
G1 X123.296 Y.6 E.01923
G1 X134 Y.6 E.50394
G1 X134 Y.6 E.01923
G1 X122.719 Y.6 E.53114
G1 X122.141 Y.6 E.01923
G1 X134 Y.6 E.55834
G1 X134 Y.6 E.01923
G1 X121.563 Y.6 E.58554
G1 X120.985 Y.6 E.01923
G1 X134 Y.6 E.61274
G1 X134 Y.6 E.01923
G1 X120.408 Y.6 E.63994
G1 X119.83 Y.6 E.01923
M73 P43 R2
G1 X134 Y.6 E.66714
G1 X134 Y.6 E.01923
G1 X119.252 Y.6 E.69434
G1 X118.674 Y.6 E.01923
G1 X134 Y.6 E.72154
G1 X134 Y.6 E.01923
G1 X118.097 Y.6 E.74874
G1 X117.519 Y.6 E.01923
G1 X134 Y.6 E.77594
G1 X134 Y.6 E.00065
G1 X133.442 Y.6 E.01859
G1 X116.941 Y.6 E.77685
G1 X116.363 Y.6 E.01923
G1 X132.864 Y.6 E.77685
G1 X132.287 Y.6 E.01923
G1 X116 Y.6 E.76679
G1 X116 Y.6 E.01923
M73 P44 R2
G1 X131.709 Y.6 E.73959
G1 X131.131 Y.6 E.01923
G1 X116 Y.6 E.71239
G1 X116 Y.6 E.01923
G1 X130.553 Y.6 E.68519
G1 X129.976 Y.6 E.01923
G1 X116 Y.6 E.65798
G1 X116 Y.6 E.01923
G1 X129.398 Y.6 E.63078
G1 X128.82 Y.6 E.01923
G1 X116 Y.6 E.60358
G1 X116 Y.6 E.01923
G1 X128.242 Y.6 E.57638
G1 X127.665 Y.6 E.01923
G1 X116 Y.6 E.54918
G1 X116 Y.6 E.01923
G1 X127.087 Y.6 E.52198
G1 X126.509 Y.6 E.01923
M73 P45 R2
G1 X116 Y.6 E.49478
G1 X116 Y.6 E.01923
G1 X125.931 Y.6 E.46758
G1 X125.354 Y.6 E.01923
G1 X116 Y.6 E.44038
G1 X116 Y.6 E.01923
G1 X124.776 Y.6 E.41318
G1 X124.198 Y.6 E.01923
G1 X116 Y.6 E.38598
G1 X116 Y.6 E.01923
G1 X123.62 Y.6 E.35878
G1 X123.043 Y.6 E.01923
G1 X116 Y.6 E.33158
G1 X116 Y.6 E.01923
G1 X122.465 Y.6 E.30438
G1 X121.887 Y.6 E.01923
G1 X116 Y.6 E.27718
G1 X116 Y.6 E.01923
G1 X121.309 Y.6 E.24998
G1 X120.732 Y.6 E.01923
G1 X116 Y.6 E.22278
G1 X116 Y.6 E.01923
G1 X120.154 Y.6 E.19558
G1 X119.576 Y.6 E.01923
M73 P46 R2
G1 X116 Y.6 E.16838
G1 X116 Y.6 E.01923
G1 X118.998 Y.6 E.14118
G1 X118.421 Y.6 E.01923
G1 X116 Y.6 E.11398
G1 X116 Y.6 E.01923
G1 X117.843 Y.6 E.08678
G1 X117.265 Y.6 E.01923
G1 X116 Y.6 E.05958
G1 X116 Y.6 E.01923
G1 X116.87 Y.6 E.041
SET_VELOCITY_LIMIT ACCEL=5000 ACCEL_TO_DECEL=2500
G1 X132.543 Y.6 F7200
SET_VELOCITY_LIMIT ACCEL=500 ACCEL_TO_DECEL=250
;WIDTH:0.449999
G1 F6000
G1 X133.939 Y.6 E.0655
G1 X133.939 Y.6 E.04632
G1 X132.583 Y.6 E.04499
SET_VELOCITY_LIMIT ACCEL=5000 ACCEL_TO_DECEL=2500
G1 X133.556 Y.6 F7200
SET_VELOCITY_LIMIT ACCEL=500 ACCEL_TO_DECEL=250
;WIDTH:0.45379
G1 F6000
G1 X133.505 Y.6 E.00172
G1 X133.479 Y.6 E.00172
G1 X133.505 Y.6 E.00172
G1 X133.562 Y.6 E.00194
; stop printing object Cube id:22 copy 0
;LAYER_CHANGE
;Z:0.8
;HEIGHT:0.2
;_SET_FAN_SPEED_CHANGING_LAYER
; printing object Cube id:22 copy 0
SET_VELOCITY_LIMIT ACCEL=5000 ACCEL_TO_DECEL=2500
G1 E-2 F2400
G1 X115.654 Y.8 Z990.654 F7200
G1 E2 F2400
;TYPE:Inner wall
;WIDTH:0.449999
G1 F3423
G1 X134.346 Y.8 E.62008
G1 X134.346 Y.8 E.57695
G1 X115.654 Y.8 E.62008
G1 X115.654 Y.8 E.57563
SET_VELOCITY_LIMIT ACCEL=500 ACCEL_TO_DECEL=250
G1 X115.225 Y.8 F7200
;TYPE:Outer wall
G1 F3423
G1 X134.775 Y.8 E.64851
G1 X134.775 Y.8 E.60539
G1 X115.225 Y.8 E.64851
M73 P47 R2
G1 X115.225 Y.8 E.60406
SET_VELOCITY_LIMIT ACCEL=5000 ACCEL_TO_DECEL=2500
G1 E-2 F2400
G1 X116 Y.8 F7200
G1 E2 F2400
SET_VELOCITY_LIMIT ACCEL=500 ACCEL_TO_DECEL=250
;TYPE:Sparse infill
;WIDTH:0.45
G1 F3423
G1 X116 Y.8 E.05401
G1 X125.997 Y.8 E.46902
G1 X122.889 Y.8 E.10312
G1 X116 Y.8 E.32318
G1 X116 Y.8 E.10312
G1 X119.78 Y.8 E.17734
G1 X116.671 Y.8 E.10312
G1 X116 Y.8 E.0315
G1 X116 Y.8 E.05401
SET_VELOCITY_LIMIT ACCEL=5000 ACCEL_TO_DECEL=2500
G1 X116.069 Y.8 F7200
SET_VELOCITY_LIMIT ACCEL=500 ACCEL_TO_DECEL=250
;TYPE:Internal solid infill
;WIDTH:0.467354
G1 F3423
G1 X133.891 Y.8 E.61637
SET_VELOCITY_LIMIT ACCEL=5000 ACCEL_TO_DECEL=2500
G1 X127.478 Y.8 F7200
SET_VELOCITY_LIMIT ACCEL=500 ACCEL_TO_DECEL=250
;TYPE:Sparse infill
;WIDTH:0.45
G1 F3423
G1 X129.106 Y.8 E.05401
G1 X116 Y.8 E.61486
G1 X116 Y.8 E.10312
G1 X132.215 Y.8 E.7607
G1 X134 Y.8 E.05923
M73 P48 R2
G1 X134 Y.8 E.0439
G1 X119.108 Y.8 E.69862
G1 X120.737 Y.8 E.05401
SET_VELOCITY_LIMIT ACCEL=5000 ACCEL_TO_DECEL=2500
G1 X130.063 Y.8 F7200
SET_VELOCITY_LIMIT ACCEL=500 ACCEL_TO_DECEL=250
G1 F3423
G1 X128.435 Y.8 E.05401
G1 X134 Y.8 E.2611
G1 X134 Y.8 E.10312
G1 X131.543 Y.8 E.11527
G1 X133.172 Y.8 E.05401
SET_VELOCITY_LIMIT ACCEL=5000 ACCEL_TO_DECEL=2500
G1 X134 Y.8 F7200
SET_VELOCITY_LIMIT ACCEL=500 ACCEL_TO_DECEL=250
G1 F3423
G1 X134 Y.8 E.05401
G1 X125.326 Y.8 E.40694
G1 X122.217 Y.8 E.10312
G1 X134 Y.8 E.55278
G1 X134 Y.8 E.05401
; stop printing object Cube id:22 copy 0
;LAYER_CHANGE
;Z:1
;HEIGHT:0.2
;_SET_FAN_SPEED_CHANGING_LAYER
; printing object Cube id:22 copy 0
SET_VELOCITY_LIMIT ACCEL=5000 ACCEL_TO_DECEL=2500
G1 E-2 F2400
G1 X115.654 Y1 Z990.654 F7200
G1 E2 F2400
;TYPE:Inner wall
;WIDTH:0.449999
G1 F3416
G1 X134.346 Y1 E.62008
G1 X134.346 Y1 E.58359
G1 X115.654 Y1 E.62008
G1 X115.654 Y1 E.58226
M73 P49 R2
SET_VELOCITY_LIMIT ACCEL=500 ACCEL_TO_DECEL=250
G1 X115.225 Y1 F7200
;TYPE:Outer wall
G1 F3416
G1 X134.775 Y1 E.64851
G1 X134.775 Y1 E.61202
G1 X115.225 Y1 E.64851
G1 X115.225 Y1 E.61069
SET_VELOCITY_LIMIT ACCEL=5000 ACCEL_TO_DECEL=2500
G1 E-2 F2400
G1 X116 Y1 F7200
G1 E2 F2400
SET_VELOCITY_LIMIT ACCEL=500 ACCEL_TO_DECEL=250
;TYPE:Sparse infill
;WIDTH:0.45
G1 F3416
G1 X116 Y1 E.05401
G1 X123.089 Y1 E.33256
G1 X126.197 Y1 E.10312
G1 X116 Y1 E.4784
G1 X116 Y1 E.10312
G1 X129.306 Y1 E.62424
G1 X132.415 Y1 E.10312
G1 X116 Y1 E.77008
G1 X119.108 Y1 E.10312
M73 P50 R2
G1 X134 Y1 E.69862
G1 X134 Y1 E.10312
G1 X122.217 Y1 E.55278
G1 X125.326 Y1 E.10312
G1 X134 Y1 E.40694
G1 X134 Y1 E.05401
SET_VELOCITY_LIMIT ACCEL=5000 ACCEL_TO_DECEL=2500
G1 X133.172 Y1 F7200
