; HEADER_BLOCK_START
; generated by OrcaSlicer 2.3.2-dev on 2026-01-21 at 23:55:17
; total layer number: 20
; filament_density: 1.24
; filament_diameter: 1.75
; max_z_height: 4.00
; filament: 1
; HEADER_BLOCK_END

; THUMBNAIL_BLOCK_START

;
; THUMBNAIL_BLOCK_END

; THUMBNAIL_BLOCK_START

;
; THUMBNAIL_BLOCK_END

; external perimeters extrusion width = 0.45mm
; perimeters extrusion width = 0.45mm
; infill extrusion width = 0.45mm
; solid infill extrusion width = 0.45mm
; top infill extrusion width = 0.40mm
; first layer extrusion width = 0.42mm

; EXECUTABLE_BLOCK_START
M73 P0 R6
;TYPE:Custom
G28 ; home all axes
G1 Z5 F5000 ; lift nozzle
G90
G21
M83 ; use relative distances for extrusion
; Filament gcode
M106 S0
;LAYER_CHANGE
;Z:0.2
;HEIGHT:0.2
;_SET_FAN_SPEED_CHANGING_LAYER
SET_VELOCITY_LIMIT ACCEL=300 ACCEL_TO_DECEL=150
G1 E-2 F2400
G1 X113.939 Y988.179 F7200
G1 Y0 Z.2
M73 P2 R5
G1 Y988.179 Z-987.979
M73 P4 R5
G1 E2 F2400
M73 P18 R4
;TYPE:Skirt
;WIDTH:0.42
G1 F3000
G1 X114.235 Y987.949 E.01152
G1 X115 Y987.811 E.02388
G1 X135 Y987.811 E.61454
G1 X136.248 Y988.202 E.04019
G1 X137.051 Y989.235 E.04019
G1 X137.189 Y990 E.02388
G1 X137.189 Y1008.1 E.55616
G1 X136.798 Y1009.348 E.04019
G1 X135.765 Y1010.151 E.04019
G1 X135 Y1010.289 E.02388
G1 X115 Y1010.289 E.61454
G1 X113.752 Y1009.898 E.04019
G1 X112.949 Y1008.865 E.04019
G1 X112.811 Y1008.1 E.02388
G1 X112.811 Y990 E.55616
G1 X113.202 Y988.752 E.04019
M73 P19 R4
G1 X113.908 Y988.204 E.02744
; printing object Cube id:22 copy 0
G1 E-2 F2400
G1 X115.609 Y990.609 F7200
G1 E2 F2400
;TYPE:Inner wall
;WIDTH:0.419999
G1 F1800
G1 X134.391 Y990.609 E.57715
G1 X134.391 Y1007.491 E.51876
G1 X115.609 Y1007.491 E.57715
G1 X115.609 Y990.649 E.51754
G1 X115.21 Y990.21 F7200
;TYPE:Outer wall
G1 F1800
G1 X134.79 Y990.21 E.60164
G1 X134.79 Y1007.89 E.54326
M73 P20 R4
G1 X115.21 Y1007.89 E.60164
G1 X115.21 Y990.25 E.54203
G1 E-2 F2400
G1 X134.278 Y991.486 F7200
G1 E2 F2400
;TYPE:Bottom surface
;WIDTH:0.420994
G1 F3600
G1 X133.684 Y990.891 E.02591
G1 X133.149 Y990.891 E.01647
G1 X134.109 Y991.851 E.04181
G1 X134.109 Y992.386 E.01647
G1 X132.614 Y990.891 E.06511
G1 X132.08 Y990.891 E.01647
G1 X134.109 Y992.92 E.0884
G1 X134.109 Y993.455 E.01647
G1 X131.545 Y990.891 E.1117
G1 X131.01 Y990.891 E.01647
M73 P21 R4
G1 X134.109 Y993.99 E.135
G1 X134.109 Y994.524 E.01647
G1 X130.476 Y990.891 E.15829
G1 X129.941 Y990.891 E.01647
G1 X134.109 Y995.059 E.18159
G1 X134.109 Y995.594 E.01647
G1 X129.406 Y990.891 E.20488
G1 X128.872 Y990.891 E.01647
G1 X134.109 Y996.128 E.22818
G1 X134.109 Y996.663 E.01647
G1 X128.337 Y990.891 E.25147
G1 X127.802 Y990.891 E.01647
G1 X134.109 Y997.198 E.27477
G1 X134.109 Y997.732 E.01647
G1 X127.268 Y990.891 E.29806
G1 X126.733 Y990.891 E.01647
G1 X134.109 Y998.267 E.32136
G1 X134.109 Y998.802 E.01647
G1 X126.198 Y990.891 E.34466
G1 X125.663 Y990.891 E.01647
G1 X134.109 Y999.337 E.36795
G1 X134.109 Y999.871 E.01647
G1 X125.129 Y990.891 E.39125
G1 X124.594 Y990.891 E.01647
M73 P22 R4
G1 X134.109 Y1000.406 E.41454
G1 X134.109 Y1000.941 E.01647
G1 X124.059 Y990.891 E.43784
G1 X123.525 Y990.891 E.01647
G1 X134.109 Y1001.475 E.46113
G1 X134.109 Y1002.01 E.01647
G1 X122.99 Y990.891 E.48443
G1 X122.455 Y990.891 E.01647
G1 X134.109 Y1002.545 E.50772
G1 X134.109 Y1003.079 E.01647
G1 X121.921 Y990.891 E.53102
G1 X121.386 Y990.891 E.01647
G1 X134.109 Y1003.614 E.55432
G1 X134.109 Y1004.149 E.01647
G1 X120.851 Y990.891 E.57761
G1 X120.317 Y990.891 E.01647
G1 X134.109 Y1004.683 E.60091
G1 X134.109 Y1005.218 E.01647
M73 P23 R4
G1 X119.782 Y990.891 E.6242
G1 X119.247 Y990.891 E.01647
G1 X134.109 Y1005.753 E.6475
G1 X134.109 Y1006.287 E.01647
G1 X118.713 Y990.891 E.67079
G1 X118.178 Y990.891 E.01647
G1 X134.109 Y1006.822 E.69409
G1 X134.109 Y1007.209 E.01191
G1 X133.961 Y1007.209 E.00456
G1 X117.643 Y990.891 E.71094
G1 X117.109 Y990.891 E.01647
G1 X133.426 Y1007.209 E.71094
G1 X132.891 Y1007.209 E.01647
G1 X116.574 Y990.891 E.71094
G1 X116.039 Y990.891 E.01647
M73 P24 R4
G1 X132.357 Y1007.209 E.71094
G1 X131.822 Y1007.209 E.01647
G1 X115.891 Y991.278 E.69409
G1 X115.891 Y991.813 E.01647
G1 X131.287 Y1007.209 E.67079
G1 X130.753 Y1007.209 E.01647
G1 X115.891 Y992.347 E.64749
G1 X115.891 Y992.882 E.01647
G1 X130.218 Y1007.209 E.6242
G1 X129.683 Y1007.209 E.01647
G1 X115.891 Y993.417 E.6009
G1 X115.891 Y993.951 E.01647
G1 X129.149 Y1007.209 E.57761
G1 X128.614 Y1007.209 E.01647
M73 P25 R4
G1 X115.891 Y994.486 E.55431
G1 X115.891 Y995.021 E.01647
G1 X128.079 Y1007.209 E.53102
G1 X127.545 Y1007.209 E.01647
G1 X115.891 Y995.556 E.50772
G1 X115.891 Y996.09 E.01647
G1 X127.01 Y1007.209 E.48443
G1 X126.475 Y1007.209 E.01647
G1 X115.891 Y996.625 E.46113
G1 X115.891 Y997.16 E.01647
G1 X125.94 Y1007.209 E.43783
G1 X125.406 Y1007.209 E.01647
G1 X115.891 Y997.694 E.41454
G1 X115.891 Y998.229 E.01647
G1 X124.871 Y1007.209 E.39124
G1 X124.336 Y1007.209 E.01647
M73 P26 R4
G1 X115.891 Y998.764 E.36795
G1 X115.891 Y999.298 E.01647
G1 X123.802 Y1007.209 E.34465
G1 X123.267 Y1007.209 E.01647
G1 X115.891 Y999.833 E.32136
G1 X115.891 Y1000.368 E.01647
G1 X122.732 Y1007.209 E.29806
G1 X122.198 Y1007.209 E.01647
G1 X115.891 Y1000.902 E.27477
G1 X115.891 Y1001.437 E.01647
G1 X121.663 Y1007.209 E.25147
G1 X121.128 Y1007.209 E.01647
G1 X115.891 Y1001.972 E.22817
G1 X115.891 Y1002.506 E.01647
G1 X120.594 Y1007.209 E.20488
G1 X120.059 Y1007.209 E.01647
G1 X115.891 Y1003.041 E.18158
G1 X115.891 Y1003.576 E.01647
G1 X119.524 Y1007.209 E.15829
G1 X118.99 Y1007.209 E.01647
G1 X115.891 Y1004.11 E.13499
G1 X115.891 Y1004.645 E.01647
G1 X118.455 Y1007.209 E.1117
G1 X117.92 Y1007.209 E.01647
G1 X115.891 Y1005.18 E.0884
G1 X115.891 Y1005.714 E.01647
M73 P27 R4
G1 X117.386 Y1007.209 E.06511
G1 X116.851 Y1007.209 E.01647
G1 X115.891 Y1006.249 E.04181
G1 X115.891 Y1006.784 E.01647
G1 X116.486 Y1007.378 E.02591
; stop printing object Cube id:22 copy 0
M106 S255
;LAYER_CHANGE
;Z:0.4
;HEIGHT:0.2
;_SET_FAN_SPEED_CHANGING_LAYER
SET_VELOCITY_LIMIT ACCEL=500 ACCEL_TO_DECEL=250
M140 S55 ; set bed temperature
; printing object Cube id:22 copy 0
SET_VELOCITY_LIMIT ACCEL=5000 ACCEL_TO_DECEL=2500
G1 E-2 F2400
G1 X115.654 Y990.654 Z-990.254 F7200
G1 E2 F2400
;TYPE:Inner wall
;WIDTH:0.449999
G1 F3600
G1 X134.346 Y990.654 E.62008
G1 X134.346 Y1007.646 E.56369
G1 X115.654 Y1007.646 E.62008
G1 X115.654 Y990.694 E.56236
SET_VELOCITY_LIMIT ACCEL=500 ACCEL_TO_DECEL=250
G1 X115.225 Y990.225 F7200
;TYPE:Outer wall
G1 F3600
G1 X134.775 Y990.225 E.64851
G1 X134.775 Y1008.075 E.59212
G1 X115.225 Y1008.075 E.64851
G1 X115.225 Y990.265 E.59079
SET_VELOCITY_LIMIT ACCEL=5000 ACCEL_TO_DECEL=2500
G1 X116.101 Y991.027 F7200
M73 P28 R4
SET_VELOCITY_LIMIT ACCEL=500 ACCEL_TO_DECEL=250
;TYPE:Internal solid infill
;WIDTH:0.477236
G1 F6000
G1 X116.047 Y991.027 E.00192
G1 X116.02 Y991.074 E.00192
G1 X116.047 Y991.121 E.00192
G1 X116.101 Y991.121 E.00192
G1 X116.109 Y991.109 E.00051
SET_VELOCITY_LIMIT ACCEL=5000 ACCEL_TO_DECEL=2500
G1 X134.184 Y1005.28 F7200
SET_VELOCITY_LIMIT ACCEL=500 ACCEL_TO_DECEL=250
;WIDTH:0.451453
G1 F6000
G1 X132.163 Y1007.3 E.09514
G1 X131.585 Y1007.3 E.01923
G1 X134 Y1004.885 E.11372
G1 X134 Y1004.307 E.01923
G1 X131.007 Y1007.3 E.14092
G1 X130.43 Y1007.3 E.01923
G1 X134 Y1003.73 E.16812
G1 X134 Y1003.152 E.01923
G1 X129.852 Y1007.3 E.19532
G1 X129.274 Y1007.3 E.01923
G1 X134 Y1002.574 E.22252
G1 X134 Y1001.996 E.01923
G1 X128.696 Y1007.3 E.24972
G1 X128.119 Y1007.3 E.01923
G1 X134 Y1001.419 E.27692
G1 X134 Y1000.841 E.01923
G1 X127.541 Y1007.3 E.30412
G1 X126.963 Y1007.3 E.01923
G1 X134 Y1000.263 E.33132
G1 X134 Y999.685 E.01923
G1 X126.385 Y1007.3 E.35852
G1 X125.808 Y1007.3 E.01923
G1 X134 Y999.108 E.38572
G1 X134 Y998.53 E.01923
G1 X125.23 Y1007.3 E.41292
G1 X124.652 Y1007.3 E.01923
G1 X134 Y997.952 E.44012
G1 X134 Y997.374 E.01923
M73 P29 R4
G1 X124.074 Y1007.3 E.46732
G1 X123.496 Y1007.3 E.01923
G1 X134 Y996.796 E.49452
G1 X134 Y996.219 E.01923
G1 X122.919 Y1007.3 E.52172
G1 X122.341 Y1007.3 E.01923
G1 X134 Y995.641 E.54892
G1 X134 Y995.063 E.01923
G1 X121.763 Y1007.3 E.57612
G1 X121.185 Y1007.3 E.01923
G1 X134 Y994.485 E.60332
G1 X134 Y993.908 E.01923
G1 X120.608 Y1007.3 E.63052
G1 X120.03 Y1007.3 E.01923
G1 X134 Y993.33 E.65772
G1 X134 Y992.752 E.01923
G1 X119.452 Y1007.3 E.68492
G1 X118.874 Y1007.3 E.01923
G1 X134 Y992.174 E.71212
G1 X134 Y991.597 E.01923
M73 P30 R4
G1 X118.297 Y1007.3 E.73932
G1 X117.719 Y1007.3 E.01923
G1 X134 Y991.019 E.76652
G1 X134 Y991 E.00065
G1 X133.442 Y991 E.01859
G1 X117.141 Y1007.3 E.76744
G1 X116.563 Y1007.3 E.01923
G1 X132.864 Y991 E.76744
G1 X132.287 Y991 E.01923
G1 X116 Y1007.287 E.76679
G1 X116 Y1006.709 E.01923
G1 X131.709 Y991 E.73959
G1 X131.131 Y991 E.01923
G1 X116 Y1006.131 E.71239
G1 X116 Y1005.553 E.01923
G1 X130.553 Y991 E.68519
G1 X129.976 Y991 E.01923
M73 P31 R4
G1 X116 Y1004.976 E.65798
G1 X116 Y1004.398 E.01923
G1 X129.398 Y991 E.63078
G1 X128.82 Y991 E.01923
G1 X116 Y1003.82 E.60358
G1 X116 Y1003.242 E.01923
G1 X128.242 Y991 E.57638
G1 X127.665 Y991 E.01923
G1 X116 Y1002.665 E.54918
G1 X116 Y1002.087 E.01923
G1 X127.087 Y991 E.52198
G1 X126.509 Y991 E.01923
G1 X116 Y1001.509 E.49478
G1 X116 Y1000.931 E.01923
G1 X125.931 Y991 E.46758
G1 X125.354 Y991 E.01923
G1 X116 Y1000.354 E.44038
G1 X116 Y999.776 E.01923
G1 X124.776 Y991 E.41318
G1 X124.198 Y991 E.01923
M73 P32 R4
G1 X116 Y999.198 E.38598
G1 X116 Y998.62 E.01923
G1 X123.62 Y991 E.35878
G1 X123.043 Y991 E.01923
G1 X116 Y998.043 E.33158
G1 X116 Y997.465 E.01923
G1 X122.465 Y991 E.30438
G1 X121.887 Y991 E.01923
G1 X116 Y996.887 E.27718
G1 X116 Y996.309 E.01923
G1 X121.309 Y991 E.24998
G1 X120.732 Y991 E.01923
G1 X116 Y995.732 E.22278
G1 X116 Y995.154 E.01923
G1 X120.154 Y991 E.19558
G1 X119.576 Y991 E.01923
G1 X116 Y994.576 E.16838
G1 X116 Y993.998 E.01923
G1 X118.998 Y991 E.14118
G1 X118.421 Y991 E.01923
G1 X116 Y993.421 E.11398
G1 X116 Y992.843 E.01923
G1 X117.843 Y991 E.08678
G1 X117.265 Y991 E.01923
G1 X116 Y992.265 E.05958
G1 X116 Y991.687 E.01923
G1 X116.87 Y990.816 E.041
SET_VELOCITY_LIMIT ACCEL=5000 ACCEL_TO_DECEL=2500
G1 X132.92 Y1007.166 F7200
SET_VELOCITY_LIMIT ACCEL=500 ACCEL_TO_DECEL=250
;WIDTH:0.596855
G1 F6000
G1 X133.866 Y1007.166 E.04268
G1 X133.866 Y1006.22 E.04268
G1 X132.949 Y1007.138 E.05856
; stop printing object Cube id:22 copy 0
;LAYER_CHANGE
;Z:0.6
;HEIGHT:0.2
;_SET_FAN_SPEED_CHANGING_LAYER
; printing object Cube id:22 copy 0
SET_VELOCITY_LIMIT ACCEL=5000 ACCEL_TO_DECEL=2500
G1 E-2 F2400
G1 X115.654 Y990.654 Z-990.054 F7200
G1 E2 F2400
M73 P33 R4
;TYPE:Inner wall
;WIDTH:0.449999
G1 F3600
G1 X134.346 Y990.654 E.62008
G1 X134.346 Y1007.846 E.57032
G1 X115.654 Y1007.846 E.62008
G1 X115.654 Y990.694 E.56899
SET_VELOCITY_LIMIT ACCEL=500 ACCEL_TO_DECEL=250
G1 X115.225 Y990.225 F7200
;TYPE:Outer wall
G1 F3600
G1 X134.775 Y990.225 E.64851
G1 X134.775 Y1008.275 E.59875
G1 X115.225 Y1008.275 E.64851
G1 X115.225 Y990.265 E.59742
SET_VELOCITY_LIMIT ACCEL=5000 ACCEL_TO_DECEL=2500
G1 E-2 F2400
G1 X116.101 Y1007.379 F7200
G1 E2 F2400
SET_VELOCITY_LIMIT ACCEL=500 ACCEL_TO_DECEL=250
;TYPE:Internal solid infill
;WIDTH:0.477236
G1 F6000
G1 X116.047 Y1007.379 E.00192
G1 X116.02 Y1007.426 E.00192
G1 X116.047 Y1007.473 E.00192
G1 X116.101 Y1007.473 E.00192
G1 X116.109 Y1007.46 E.00051
SET_VELOCITY_LIMIT ACCEL=5000 ACCEL_TO_DECEL=2500
G1 X134.184 Y993.22 F7200
SET_VELOCITY_LIMIT ACCEL=500 ACCEL_TO_DECEL=250
;WIDTH:0.451453
G1 F6000
M73 P34 R4
G1 X131.963 Y991 E.10456
G1 X131.385 Y991 E.01923
G1 X134 Y993.615 E.12313
G1 X134 Y994.193 E.01923
G1 X130.807 Y991 E.15033
G1 X130.23 Y991 E.01923
G1 X134 Y994.77 E.17753
G1 X134 Y995.348 E.01923
G1 X129.652 Y991 E.20473
G1 X129.074 Y991 E.01923
G1 X134 Y995.926 E.23193
G1 X134 Y996.504 E.01923
G1 X128.496 Y991 E.25913
G1 X127.919 Y991 E.01923
G1 X134 Y997.081 E.28633
G1 X134 Y997.659 E.01923
G1 X127.341 Y991 E.31353
M73 P34 R3
G1 X126.763 Y991 E.01923
G1 X134 Y998.237 E.34074
G1 X134 Y998.815 E.01923
G1 X126.185 Y991 E.36794
G1 X125.608 Y991 E.01923
G1 X134 Y999.392 E.39514
G1 X134 Y999.97 E.01923
G1 X125.03 Y991 E.42234
G1 X124.452 Y991 E.01923
G1 X134 Y1000.548 E.44954
G1 X134 Y1001.126 E.01923
G1 X123.874 Y991 E.47674
G1 X123.296 Y991 E.01923
M73 P35 R3
G1 X134 Y1001.704 E.50394
G1 X134 Y1002.281 E.01923
G1 X122.719 Y991 E.53114
G1 X122.141 Y991 E.01923
G1 X134 Y1002.859 E.55834
G1 X134 Y1003.437 E.01923
G1 X121.563 Y991 E.58554
G1 X120.985 Y991 E.01923
G1 X134 Y1004.015 E.61274
G1 X134 Y1004.592 E.01923
G1 X120.408 Y991 E.63994
G1 X119.83 Y991 E.01923
G1 X134 Y1005.17 E.66714
G1 X134 Y1005.748 E.01923
G1 X119.252 Y991 E.69434
G1 X118.674 Y991 E.01923
G1 X134 Y1006.326 E.72154
G1 X134 Y1006.903 E.01923
M73 P36 R3
G1 X118.097 Y991 E.74874
G1 X117.519 Y991 E.01923
G1 X134 Y1007.481 E.77594
G1 X134 Y1007.5 E.00065
G1 X133.442 Y1007.5 E.01859
G1 X116.941 Y991 E.77685
G1 X116.363 Y991 E.01923
G1 X132.864 Y1007.5 E.77685
G1 X132.287 Y1007.5 E.01923
G1 X116 Y991.213 E.76679
G1 X116 Y991.791 E.01923
G1 X131.709 Y1007.5 E.73959
G1 X131.131 Y1007.5 E.01923
G1 X116 Y992.369 E.71239
G1 X116 Y992.947 E.01923
G1 X130.553 Y1007.5 E.68519
G1 X129.976 Y1007.5 E.01923
G1 X116 Y993.524 E.65798
G1 X116 Y994.102 E.01923
M73 P37 R3
G1 X129.398 Y1007.5 E.63078
G1 X128.82 Y1007.5 E.01923
G1 X116 Y994.68 E.60358
G1 X116 Y995.258 E.01923
G1 X128.242 Y1007.5 E.57638
G1 X127.665 Y1007.5 E.01923
G1 X116 Y995.835 E.54918
G1 X116 Y996.413 E.01923
G1 X127.087 Y1007.5 E.52198
G1 X126.509 Y1007.5 E.01923
G1 X116 Y996.991 E.49478
G1 X116 Y997.569 E.01923
G1 X125.931 Y1007.5 E.46758
G1 X125.354 Y1007.5 E.01923
G1 X116 Y998.146 E.44038
G1 X116 Y998.724 E.01923
G1 X124.776 Y1007.5 E.41318
G1 X124.198 Y1007.5 E.01923
G1 X116 Y999.302 E.38598
G1 X116 Y999.88 E.01923
M73 P38 R3
G1 X123.62 Y1007.5 E.35878
G1 X123.043 Y1007.5 E.01923
G1 X116 Y1000.457 E.33158
G1 X116 Y1001.035 E.01923
G1 X122.465 Y1007.5 E.30438
G1 X121.887 Y1007.5 E.01923
G1 X116 Y1001.613 E.27718
G1 X116 Y1002.191 E.01923
G1 X121.309 Y1007.5 E.24998
G1 X120.732 Y1007.5 E.01923
G1 X116 Y1002.768 E.22278
G1 X116 Y1003.346 E.01923
G1 X120.154 Y1007.5 E.19558
G1 X119.576 Y1007.5 E.01923
G1 X116 Y1003.924 E.16838
G1 X116 Y1004.502 E.01923
G1 X118.998 Y1007.5 E.14118
G1 X118.421 Y1007.5 E.01923
G1 X116 Y1005.079 E.11398
G1 X116 Y1005.657 E.01923
G1 X117.843 Y1007.5 E.08678
G1 X117.265 Y1007.5 E.01923
G1 X116 Y1006.235 E.05958
G1 X116 Y1006.813 E.01923
G1 X116.87 Y1007.684 E.041
SET_VELOCITY_LIMIT ACCEL=5000 ACCEL_TO_DECEL=2500
G1 X132.543 Y991.061 F7200
SET_VELOCITY_LIMIT ACCEL=500 ACCEL_TO_DECEL=250
;WIDTH:0.449999
G1 F6000
G1 X133.939 Y992.457 E.0655
G1 X133.939 Y991.061 E.04632
G1 X132.583 Y991.061 E.04499
SET_VELOCITY_LIMIT ACCEL=5000 ACCEL_TO_DECEL=2500
G1 X133.556 Y991.425 F7200
SET_VELOCITY_LIMIT ACCEL=500 ACCEL_TO_DECEL=250
;WIDTH:0.45379
G1 F6000
G1 X133.505 Y991.425 E.00172
G1 X133.479 Y991.47 E.00172
G1 X133.505 Y991.514 E.00172
G1 X133.562 Y991.504 E.00194
; stop printing object Cube id:22 copy 0
;LAYER_CHANGE
;Z:0.8
;HEIGHT:0.2
;_SET_FAN_SPEED_CHANGING_LAYER
; printing object Cube id:22 copy 0
SET_VELOCITY_LIMIT ACCEL=5000 ACCEL_TO_DECEL=2500
G1 E-2 F2400
G1 X115.654 Y990.654 Z-989.854 F7200
G1 E2 F2400
M73 P39 R3
;TYPE:Inner wall
;WIDTH:0.449999
G1 F3600
G1 X134.346 Y990.654 E.62008
G1 X134.346 Y1008.046 E.57695
G1 X115.654 Y1008.046 E.62008
G1 X115.654 Y990.694 E.57563
SET_VELOCITY_LIMIT ACCEL=500 ACCEL_TO_DECEL=250
G1 X115.225 Y990.225 F7200
;TYPE:Outer wall
G1 F3600
G1 X134.775 Y990.225 E.64851
G1 X134.775 Y1008.475 E.60539
G1 X115.225 Y1008.475 E.64851
G1 X115.225 Y990.265 E.60406
SET_VELOCITY_LIMIT ACCEL=5000 ACCEL_TO_DECEL=2500
G1 E-2 F2400
G1 X116 Y995.589 F7200
G1 E2 F2400
SET_VELOCITY_LIMIT ACCEL=500 ACCEL_TO_DECEL=250
;TYPE:Sparse infill
;WIDTH:0.45
G1 F6000
G1 X116 Y997.217 E.05401
G1 X125.997 Y1007.215 E.46902
G1 X122.889 Y1007.215 E.10312
G1 X116 Y1000.326 E.32318
M73 P40 R3
G1 X116 Y1003.435 E.10312
G1 X119.78 Y1007.215 E.17734
G1 X116.671 Y1007.215 E.10312
G1 X116 Y1006.543 E.0315
G1 X116 Y1004.915 E.05401
SET_VELOCITY_LIMIT ACCEL=5000 ACCEL_TO_DECEL=2500
G1 X116.069 Y1007.631 F7200
