; HEADER_BLOCK_START
; generated by OrcaSlicer 2.3.2-dev on 2026-02-02 at 22:27:25
;Belt Printer: 1
;Dimension: 250.000 2000.000 250.000 0.400
;Plate Shape: 0
;Origin Center: 0
;Belt Base Y: 0.000
;Belt Base Z: 0.010
;Belt Offset Y: 0.000
;Belt Offset Z: 0.000
;Belt Gantry Angle: 45
;Belt Remove Z: 0.283
;Belt Repetition: 1
; total layer number: 100
; filament_density: 1.24
; filament_diameter: 1.75
; max_z_height: 20.00
; filament: 1
; HEADER_BLOCK_END

; external perimeters extrusion width = 0.45mm
; perimeters extrusion width = 0.45mm
; infill extrusion width = 0.45mm
; solid infill extrusion width = 0.45mm
; top infill extrusion width = 0.40mm
; first layer extrusion width = 0.42mm

; EXECUTABLE_BLOCK_START
M73 P0 R17
;TYPE:Custom
G28 ; home all axes
G1 Z5 F5000 ; lift nozzle
G90
G21
M83 ; use relative distances for extrusion
M106 S0
;LAYER_CHANGE
;Z:0.2
;HEIGHT:0.2
;_SET_FAN_SPEED_CHANGING_LAYER
SET_VELOCITY_LIMIT ACCEL=300 ACCEL_TO_DECEL=150
G1 E-2 F2400
G1 X113.414 Y988.587 F7200
G1 Y.141 Z.141
G1 Y699.178 Z-698.895
M73 P1 R16
G1 E2 F2400
M73 P5 R16
;TYPE:Skirt
;WIDTH:0.42
G1 F3000
G1 X114.235 Y698.727 E.03195
G1 X115 Y698.63 E.02388
G1 X135 Y698.63 E.61454
G1 X136.248 Y698.906 E.04019
G1 X137.051 Y699.636 E.04019
G1 X137.189 Y700.177 E.02388
G1 X137.189 Y714.319 E.61454
G1 X136.798 Y715.202 E.04019
G1 X135.765 Y715.769 E.04019
G1 X135 Y715.867 E.02388
G1 X115 Y715.867 E.61454
G1 X113.752 Y715.59 E.04019
G1 X112.949 Y714.86 E.04019
G1 X112.811 Y714.319 E.02388
G1 X112.811 Y700.177 E.61454
G1 X113.202 Y699.295 E.04019
G1 X113.382 Y699.196 E.00701
; printing object test_cube.stl id:0 copy 0
G1 E-2 F2400
G1 X134.391 Y713.889 F7200
G1 E2 F2400
;TYPE:Inner wall
;WIDTH:0.419999
G1 F1800
G1 X115.609 Y713.889 E.57715
G1 X115.609 Y700.607 E.57715
G1 X134.391 Y700.607 E.57715
G1 X134.391 Y713.861 E.57592
G1 X134.79 Y714.171 F7200
;TYPE:Outer wall
G1 F1800
G1 X115.21 Y714.171 E.60164
G1 X115.21 Y700.326 E.60164
G1 X134.79 Y700.326 E.60164
G1 X134.79 Y714.142 E.60041
G1 E-2 F2400
G1 X134.278 Y701.232 F7200
G1 E2 F2400
;TYPE:Bottom surface
;WIDTH:0.424027
G1 F3600
G1 X133.677 Y700.807 E.0264
G1 X133.138 Y700.807 E.01674
G1 X134.109 Y701.494 E.04262
G1 X134.109 Y701.875 E.01674
G1 X132.599 Y700.807 E.06629
G1 X132.06 Y700.807 E.01674
G1 X134.109 Y702.256 E.08996
G1 X134.109 Y702.637 E.01674
G1 X131.521 Y700.807 E.11363
G1 X130.982 Y700.807 E.01674
G1 X134.109 Y703.018 E.1373
G1 X134.109 Y703.399 E.01674
M73 P6 R16
G1 X130.443 Y700.807 E.16097
G1 X129.904 Y700.807 E.01674
G1 X134.109 Y703.78 E.18464
G1 X134.109 Y704.161 E.01674
G1 X129.365 Y700.807 E.20832
G1 X128.827 Y700.807 E.01674
G1 X134.109 Y704.542 E.23199
G1 X134.109 Y704.924 E.01674
G1 X128.288 Y700.807 E.25566
G1 X127.749 Y700.807 E.01674
G1 X134.109 Y705.305 E.27933
G1 X134.109 Y705.686 E.01674
G1 X127.21 Y700.807 E.303
G1 X126.671 Y700.807 E.01674
G1 X134.109 Y706.067 E.32667
G1 X134.109 Y706.448 E.01674
G1 X126.132 Y700.807 E.35034
G1 X125.593 Y700.807 E.01674
G1 X134.109 Y706.829 E.37401
G1 X134.109 Y707.21 E.01674
G1 X125.054 Y700.807 E.39768
G1 X124.515 Y700.807 E.01674
G1 X134.109 Y707.591 E.42135
G1 X134.109 Y707.972 E.01674
G1 X123.976 Y700.807 E.44502
G1 X123.437 Y700.807 E.01674
G1 X134.109 Y708.354 E.46869
G1 X134.109 Y708.735 E.01674
G1 X122.898 Y700.807 E.49237
G1 X122.359 Y700.807 E.01674
G1 X134.109 Y709.116 E.51604
G1 X134.109 Y709.497 E.01674
G1 X121.82 Y700.807 E.53971
G1 X121.281 Y700.807 E.01674
G1 X134.109 Y709.878 E.56338
G1 X134.109 Y710.259 E.01674
G1 X120.742 Y700.807 E.58705
G1 X120.203 Y700.807 E.01674
G1 X134.109 Y710.64 E.61072
G1 X134.109 Y711.021 E.01674
G1 X119.664 Y700.807 E.63439
G1 X119.125 Y700.807 E.01674
G1 X134.109 Y711.402 E.65806
G1 X134.109 Y711.783 E.01674
G1 X118.586 Y700.807 E.68173
G1 X118.047 Y700.807 E.01674
G1 X134.109 Y712.165 E.7054
G1 X134.109 Y712.546 E.01674
G1 X117.508 Y700.807 E.72907
G1 X116.969 Y700.807 E.01674
G1 X134.109 Y712.927 E.75275
G1 X134.109 Y713.308 E.01674
G1 X116.43 Y700.807 E.77642
G1 X115.891 Y700.807 E.01674
M73 P7 R15
G1 X134.109 Y713.689 E.80008
G1 X133.57 Y713.689 E.01674
G1 X115.891 Y701.189 E.77641
G1 X115.891 Y701.57 E.01674
G1 X133.031 Y713.689 E.75274
G1 X132.492 Y713.689 E.01674
G1 X115.891 Y701.951 E.72907
G1 X115.891 Y702.332 E.01674
G1 X131.953 Y713.689 E.7054
G1 X131.414 Y713.689 E.01674
G1 X115.891 Y702.713 E.68173
G1 X115.891 Y703.094 E.01674
G1 X130.875 Y713.689 E.65806
G1 X130.336 Y713.689 E.01674
G1 X115.891 Y703.475 E.63439
G1 X115.891 Y703.856 E.01674
G1 X129.797 Y713.689 E.61072
G1 X129.258 Y713.689 E.01674
G1 X115.891 Y704.237 E.58705
G1 X115.891 Y704.619 E.01674
G1 X128.719 Y713.689 E.56337
G1 X128.18 Y713.689 E.01674
G1 X115.891 Y705 E.5397
G1 X115.891 Y705.381 E.01674
G1 X127.641 Y713.689 E.51603
G1 X127.102 Y713.689 E.01674
G1 X115.891 Y705.762 E.49236
G1 X115.891 Y706.143 E.01674
G1 X126.563 Y713.689 E.46869
G1 X126.024 Y713.689 E.01674
G1 X115.891 Y706.524 E.44502
G1 X115.891 Y706.905 E.01674
G1 X125.485 Y713.689 E.42135
G1 X124.946 Y713.689 E.01674
G1 X115.891 Y707.286 E.39768
G1 X115.891 Y707.667 E.01674
G1 X124.407 Y713.689 E.37401
G1 X123.868 Y713.689 E.01674
G1 X115.891 Y708.048 E.35034
G1 X115.891 Y708.43 E.01674
G1 X123.329 Y713.689 E.32667
G1 X122.79 Y713.689 E.01674
G1 X115.891 Y708.811 E.303
G1 X115.891 Y709.192 E.01674
G1 X122.251 Y713.689 E.27932
G1 X121.712 Y713.689 E.01674
G1 X115.891 Y709.573 E.25565
G1 X115.891 Y709.954 E.01674
G1 X121.173 Y713.689 E.23198
G1 X120.634 Y713.689 E.01674
G1 X115.891 Y710.335 E.20831
G1 X115.891 Y710.716 E.01674
M73 P8 R15
G1 X120.095 Y713.689 E.18464
G1 X119.557 Y713.689 E.01674
G1 X115.891 Y711.097 E.16097
G1 X115.891 Y711.478 E.01674
G1 X119.018 Y713.689 E.1373
G1 X118.479 Y713.689 E.01674
G1 X115.891 Y711.86 E.11363
G1 X115.891 Y712.241 E.01674
G1 X117.94 Y713.689 E.08996
G1 X117.401 Y713.689 E.01674
G1 X115.891 Y712.622 E.06629
G1 X115.891 Y713.003 E.01674
G1 X116.862 Y713.689 E.04262
G1 X116.323 Y713.689 E.01674
G1 X115.722 Y713.264 E.0264
; stop printing object test_cube.stl id:0 copy 0
M106 S237
;LAYER_CHANGE
;Z:0.4
;HEIGHT:0.2
;_SET_FAN_SPEED_CHANGING_LAYER
SET_VELOCITY_LIMIT ACCEL=500 ACCEL_TO_DECEL=250
M140 S35 ; set bed temperature
; printing object test_cube.stl id:0 copy 0
SET_VELOCITY_LIMIT ACCEL=5000 ACCEL_TO_DECEL=2500
G1 E-2 F2400
G1 X134.346 Y713.999 Z-713.433 F7200
G1 E2 F2400
;TYPE:Inner wall
;WIDTH:0.449999
G1 F3600
G1 X115.654 Y713.999 E.62008
G1 X115.654 Y700.781 E.62008
G1 X134.346 Y700.781 E.62008
G1 X134.346 Y713.97 E.61875
SET_VELOCITY_LIMIT ACCEL=500 ACCEL_TO_DECEL=250
G1 X134.775 Y714.302 F7200
;TYPE:Outer wall
G1 F3600
G1 X115.225 Y714.302 E.64851
G1 X115.225 Y700.478 E.64851
G1 X134.775 Y700.478 E.64851
G1 X134.775 Y714.273 E.64718
SET_VELOCITY_LIMIT ACCEL=5000 ACCEL_TO_DECEL=2500
G1 E-2 F2400
G1 X132.938 Y713.662 F7200
G1 E2 F2400
SET_VELOCITY_LIMIT ACCEL=500 ACCEL_TO_DECEL=250
;TYPE:Internal solid infill
;WIDTH:0.588921
G1 F6000
G1 X133.87 Y713.662 E.04147
G1 X133.87 Y713.003 E.04147
G1 X132.966 Y713.642 E.05687
SET_VELOCITY_LIMIT ACCEL=5000 ACCEL_TO_DECEL=2500
G1 X132.007 Y713.883 F7200
SET_VELOCITY_LIMIT ACCEL=500 ACCEL_TO_DECEL=250
;WIDTH:0.451379
G1 F6000
G1 X134 Y712.474 E.09385
G1 X134 Y712.065 E.01923
G1 X131.612 Y713.754 E.11241
G1 X131.035 Y713.754 E.01923
G1 X134 Y711.657 E.1396
G1 X134 Y711.248 E.01923
G1 X130.457 Y713.754 E.16679
G1 X129.879 Y713.754 E.01923
G1 X134 Y710.84 E.19398
G1 X134 Y710.431 E.01923
G1 X129.302 Y713.754 E.22118
G1 X128.724 Y713.754 E.01923
G1 X134 Y710.023 E.24837
G1 X134 Y709.614 E.01923
G1 X128.146 Y713.754 E.27556
G1 X127.569 Y713.754 E.01923
G1 X134 Y709.206 E.30275
G1 X134 Y708.798 E.01923
G1 X126.991 Y713.754 E.32994
G1 X126.413 Y713.754 E.01923
G1 X134 Y708.389 E.35713
G1 X134 Y707.981 E.01923
G1 X125.836 Y713.754 E.38432
G1 X125.258 Y713.754 E.01923
G1 X134 Y707.572 E.41151
G1 X134 Y707.164 E.01923
G1 X124.68 Y713.754 E.4387
G1 X124.103 Y713.754 E.01923
G1 X134 Y706.755 E.46589
G1 X134 Y706.347 E.01923
G1 X123.525 Y713.754 E.49308
G1 X122.948 Y713.754 E.01923
G1 X134 Y705.938 E.52027
G1 X134 Y705.53 E.01923
G1 X122.37 Y713.754 E.54746
G1 X121.792 Y713.754 E.01923
G1 X134 Y705.121 E.57465
G1 X134 Y704.713 E.01923
M73 P9 R15
G1 X121.215 Y713.754 E.60184
G1 X120.637 Y713.754 E.01923
G1 X134 Y704.304 E.62903
G1 X134 Y703.896 E.01923
G1 X120.059 Y713.754 E.65622
G1 X119.482 Y713.754 E.01923
G1 X134 Y703.488 E.68341
G1 X134 Y703.079 E.01923
G1 X118.904 Y713.754 E.7106
G1 X118.326 Y713.754 E.01923
G1 X134 Y702.671 E.73779
G1 X134 Y702.262 E.01923
G1 X117.749 Y713.754 E.76499
G1 X117.171 Y713.754 E.01923
G1 X134 Y701.854 E.79218
G1 X134 Y701.445 E.01923
G1 X116.593 Y713.754 E.81937
G1 X116.016 Y713.754 E.01923
G1 X134 Y701.037 E.84656
G1 X134 Y701.025 E.00054
G1 X133.439 Y701.025 E.01869
G1 X116 Y713.357 E.82089
G1 X116 Y712.948 E.01923
G1 X132.861 Y701.025 E.7937
G1 X132.284 Y701.025 E.01923
G1 X116 Y712.54 E.76651
G1 X116 Y712.132 E.01923
G1 X131.706 Y701.025 E.73932
G1 X131.128 Y701.025 E.01923
G1 X116 Y711.723 E.71213
G1 X116 Y711.315 E.01923
G1 X130.551 Y701.025 E.68494
G1 X129.973 Y701.025 E.01923
G1 X116 Y710.906 E.65775
G1 X116 Y710.498 E.01923
G1 X129.395 Y701.025 E.63056
G1 X128.818 Y701.025 E.01923
G1 X116 Y710.089 E.60337
G1 X116 Y709.681 E.01923
G1 X128.24 Y701.025 E.57618
G1 X127.663 Y701.025 E.01923
G1 X116 Y709.272 E.54899
G1 X116 Y708.864 E.01923
G1 X127.085 Y701.025 E.5218
G1 X126.507 Y701.025 E.01923
G1 X116 Y708.455 E.49461
G1 X116 Y708.047 E.01923
G1 X125.93 Y701.025 E.46742
G1 X125.352 Y701.025 E.01923
G1 X116 Y707.638 E.44023
G1 X116 Y707.23 E.01923
G1 X124.774 Y701.025 E.41304
G1 X124.197 Y701.025 E.01923
G1 X116 Y706.822 E.38585
G1 X116 Y706.413 E.01923
G1 X123.619 Y701.025 E.35865
G1 X123.041 Y701.025 E.01923
G1 X116 Y706.005 E.33146
G1 X116 Y705.596 E.01923
M73 P10 R15
G1 X122.464 Y701.025 E.30427
G1 X121.886 Y701.025 E.01923
G1 X116 Y705.188 E.27708
G1 X116 Y704.779 E.01923
G1 X121.308 Y701.025 E.24989
G1 X120.731 Y701.025 E.01923
G1 X116 Y704.371 E.2227
G1 X116 Y703.962 E.01923
G1 X120.153 Y701.025 E.19551
G1 X119.575 Y701.025 E.01923
G1 X116 Y703.554 E.16832
G1 X116 Y703.145 E.01923
G1 X118.998 Y701.025 E.14113
G1 X118.42 Y701.025 E.01923
G1 X116 Y702.737 E.11394
G1 X116 Y702.329 E.01923
G1 X117.843 Y701.025 E.08675
G1 X117.265 Y701.025 E.01923
G1 X116 Y701.92 E.05956
G1 X116 Y701.512 E.01923
G1 X116.87 Y700.896 E.04099
SET_VELOCITY_LIMIT ACCEL=5000 ACCEL_TO_DECEL=2500
G1 X116.101 Y701.045 F7200
SET_VELOCITY_LIMIT ACCEL=500 ACCEL_TO_DECEL=250
;WIDTH:0.477236
G1 F6000
G1 X116.047 Y701.045 E.00192
G1 X116.02 Y701.078 E.00192
G1 X116.047 Y701.111 E.00192
G1 X116.101 Y701.111 E.00192
G1 X116.109 Y701.103 E.00051
; stop printing object test_cube.stl id:0 copy 0
;LAYER_CHANGE
;Z:0.6
;HEIGHT:0.2
;_SET_FAN_SPEED_CHANGING_LAYER
; printing object test_cube.stl id:0 copy 0
SET_VELOCITY_LIMIT ACCEL=5000 ACCEL_TO_DECEL=2500
G1 E-2 F2400
G1 X134.346 Y714.14 Z-713.291 F7200
G1 E2 F2400
;TYPE:Inner wall
;WIDTH:0.449999
G1 F3600
G1 X115.654 Y714.14 E.62008
G1 X115.654 Y700.922 E.62008
G1 X134.346 Y700.922 E.62008
G1 X134.346 Y714.112 E.61875
SET_VELOCITY_LIMIT ACCEL=500 ACCEL_TO_DECEL=250
G1 X134.775 Y714.443 F7200
;TYPE:Outer wall
G1 F3600
G1 X115.225 Y714.443 E.64851
G1 X115.225 Y700.619 E.64851
G1 X134.775 Y700.619 E.64851
G1 X134.775 Y714.415 E.64718
SET_VELOCITY_LIMIT ACCEL=5000 ACCEL_TO_DECEL=2500
G1 E-2 F2400
G1 X134.184 Y702.577 F7200
G1 E2 F2400
SET_VELOCITY_LIMIT ACCEL=500 ACCEL_TO_DECEL=250
;TYPE:Internal solid infill
;WIDTH:0.451379
G1 F6000
G1 X132.19 Y701.167 E.09385
G1 X131.612 Y701.167 E.01923
G1 X134 Y702.855 E.11241
G1 X134 Y703.264 E.01923
G1 X131.035 Y701.167 E.1396
G1 X130.457 Y701.167 E.01923
G1 X134 Y703.672 E.16679
G1 X134 Y704.081 E.01923
G1 X129.879 Y701.167 E.19398
G1 X129.302 Y701.167 E.01923
G1 X134 Y704.489 E.22118
G1 X134 Y704.898 E.01923
G1 X128.724 Y701.167 E.24837
G1 X128.146 Y701.167 E.01923
G1 X134 Y705.306 E.27556
G1 X134 Y705.715 E.01923
G1 X127.569 Y701.167 E.30275
G1 X126.991 Y701.167 E.01923
G1 X134 Y706.123 E.32994
G1 X134 Y706.532 E.01923
G1 X126.413 Y701.167 E.35713
G1 X125.836 Y701.167 E.01923
G1 X134 Y706.94 E.38432
G1 X134 Y707.349 E.01923
G1 X125.258 Y701.167 E.41151
G1 X124.681 Y701.167 E.01923
G1 X134 Y707.757 E.4387
G1 X134 Y708.165 E.01923
G1 X124.103 Y701.167 E.46589
G1 X123.525 Y701.167 E.01923
G1 X134 Y708.574 E.49308
G1 X134 Y708.982 E.01923
G1 X122.948 Y701.167 E.52027
G1 X122.37 Y701.167 E.01923
G1 X134 Y709.391 E.54746
G1 X134 Y709.799 E.01923
G1 X121.792 Y701.167 E.57465
G1 X121.215 Y701.167 E.01923
G1 X134 Y710.208 E.60184
G1 X134 Y710.616 E.01923
M73 P11 R15
G1 X120.637 Y701.167 E.62903
G1 X120.059 Y701.167 E.01923
G1 X134 Y711.025 E.65622
G1 X134 Y711.433 E.01923
G1 X119.482 Y701.167 E.68341
G1 X118.904 Y701.167 E.01923
G1 X134 Y711.842 E.7106
G1 X134 Y712.25 E.01923
G1 X118.326 Y701.167 E.73779
G1 X117.749 Y701.167 E.01923
G1 X134 Y712.658 E.76499
G1 X134 Y713.067 E.01923
G1 X117.171 Y701.167 E.79218
G1 X116.593 Y701.167 E.01923
G1 X134 Y713.475 E.81937
G1 X134 Y713.884 E.01923
G1 X116.016 Y701.167 E.84656
G1 X116 Y701.167 E.00054
G1 X116 Y701.564 E.01869
G1 X133.439 Y713.895 E.82089
G1 X132.861 Y713.895 E.01923
G1 X116 Y701.972 E.7937
G1 X116 Y702.381 E.01923
G1 X132.284 Y713.895 E.76651
G1 X131.706 Y713.895 E.01923
G1 X116 Y702.789 E.73932
G1 X116 Y703.198 E.01923
G1 X131.128 Y713.895 E.71213
G1 X130.551 Y713.895 E.01923
G1 X116 Y703.606 E.68494
G1 X116 Y704.015 E.01923
G1 X129.973 Y713.895 E.65775
G1 X129.395 Y713.895 E.01923
G1 X116 Y704.423 E.63056
G1 X116 Y704.831 E.01923
G1 X128.818 Y713.895 E.60337
G1 X128.24 Y713.895 E.01923
G1 X116 Y705.24 E.57618
G1 X116 Y705.648 E.01923
G1 X127.663 Y713.895 E.54899
G1 X127.085 Y713.895 E.01923
G1 X116 Y706.057 E.5218
G1 X116 Y706.465 E.01923
G1 X126.507 Y713.895 E.49461
G1 X125.93 Y713.895 E.01923
G1 X116 Y706.874 E.46742
G1 X116 Y707.282 E.01923
G1 X125.352 Y713.895 E.44023
G1 X124.774 Y713.895 E.01923
G1 X116 Y707.691 E.41304
G1 X116 Y708.099 E.01923
G1 X124.197 Y713.895 E.38585
G1 X123.619 Y713.895 E.01923
G1 X116 Y708.508 E.35865
G1 X116 Y708.916 E.01923
G1 X123.041 Y713.895 E.33146
G1 X122.464 Y713.895 E.01923
G1 X116 Y709.324 E.30427
G1 X116 Y709.733 E.01923
M73 P12 R15
G1 X121.886 Y713.895 E.27708
G1 X121.308 Y713.895 E.01923
G1 X116 Y710.141 E.24989
G1 X116 Y710.55 E.01923
G1 X120.731 Y713.895 E.2227
G1 X120.153 Y713.895 E.01923
G1 X116 Y710.958 E.19551
G1 X116 Y711.367 E.01923
G1 X119.575 Y713.895 E.16832
G1 X118.998 Y713.895 E.01923
G1 X116 Y711.775 E.14113
G1 X116 Y712.184 E.01923
G1 X118.42 Y713.895 E.11394
G1 X117.843 Y713.895 E.01923
G1 X116 Y712.592 E.08675
G1 X116 Y713.001 E.01923
G1 X117.265 Y713.895 E.05956
G1 X116.687 Y713.895 E.01923
G1 X115.816 Y713.28 E.04099
SET_VELOCITY_LIMIT ACCEL=5000 ACCEL_TO_DECEL=2500
G1 X116.101 Y713.809 F7200
SET_VELOCITY_LIMIT ACCEL=500 ACCEL_TO_DECEL=250
;WIDTH:0.477236
G1 F6000
G1 X116.047 Y713.809 E.00192
G1 X116.02 Y713.843 E.00192
G1 X116.047 Y713.876 E.00192
G1 X116.101 Y713.876 E.00192
G1 X116.109 Y713.867 E.00051
SET_VELOCITY_LIMIT ACCEL=5000 ACCEL_TO_DECEL=2500
G1 X133.87 Y701.918 F7200
SET_VELOCITY_LIMIT ACCEL=500 ACCEL_TO_DECEL=250
;WIDTH:0.588921
G1 F6000
G1 X133.87 Y701.259 E.04147
G1 X132.938 Y701.259 E.04147
G1 X133.842 Y701.898 E.05687
; stop printing object test_cube.stl id:0 copy 0
M106 S252
;LAYER_CHANGE
;Z:0.8
;HEIGHT:0.2
;_SET_FAN_SPEED_CHANGING_LAYER
; printing object test_cube.stl id:0 copy 0
SET_VELOCITY_LIMIT ACCEL=5000 ACCEL_TO_DECEL=2500
G1 E-2 F2400
G1 X134.346 Y714.281 Z-713.15 F7200
G1 E2 F2400
;TYPE:Inner wall
;WIDTH:0.449999
G1 F3600
G1 X115.654 Y714.281 E.62008
G1 X115.654 Y701.064 E.62008
G1 X134.346 Y701.064 E.62008
G1 X134.346 Y714.253 E.61875
SET_VELOCITY_LIMIT ACCEL=500 ACCEL_TO_DECEL=250
G1 X134.775 Y714.584 F7200
;TYPE:Outer wall
G1 F3600
G1 X115.225 Y714.584 E.64851
G1 X115.225 Y700.76 E.64851
G1 X134.775 Y700.76 E.64851
G1 X134.775 Y714.556 E.64718
SET_VELOCITY_LIMIT ACCEL=5000 ACCEL_TO_DECEL=2500
G1 E-2 F2400
G1 X134 Y708.593 F7200
G1 E2 F2400
SET_VELOCITY_LIMIT ACCEL=500 ACCEL_TO_DECEL=250
;TYPE:Sparse infill
