; HEADER_BLOCK_START
; generated by OrcaSlicer 2.3.2-dev on 2026-02-03 at 03:43:47
;Belt Printer: 1
;Dimension: 250.000 2000.000 250.000 0.400
;Plate Shape: 0
;Origin Center: 0
;Belt Base Y: 0.000
;Belt Base Z: 0.010
;Belt Offset Y: 0.000
;Belt Offset Z: 0.000
;Belt Gantry Angle: 45
;Belt Remove Z: 0.283
;Belt Repetition: 1
; total layer number: 120
; filament_density: 1.24
; filament_diameter: 1.75
; max_z_height: 24.20
; filament: 1
; HEADER_BLOCK_END

; external perimeters extrusion width = 0.45mm
; perimeters extrusion width = 0.45mm
; infill extrusion width = 0.45mm
; solid infill extrusion width = 0.45mm
; top infill extrusion width = 0.40mm
; first layer extrusion width = 0.42mm

; EXECUTABLE_BLOCK_START
M73 P0 R18
;TYPE:Custom
G28 ; home all axes
G1 Z5 F5000 ; lift nozzle
G90
G21
M83 ; use relative distances for extrusion
M106 S0
;LAYER_CHANGE
;Z:0.2
;HEIGHT:0.2
;_SET_FAN_SPEED_CHANGING_LAYER
SET_VELOCITY_LIMIT ACCEL=300 ACCEL_TO_DECEL=150
G1 E-2 F2400
G1 X115.255 Y993.569 F7200
G1 Y.141 Z.141
G1 Y702.701 Z-702.418
M73 P1 R18
G1 E2 F2400
M73 P4 R17
;TYPE:Skirt
;WIDTH:0.42
G1 F3000
G1 X135 Y702.701 E.6067
G1 X136.248 Y702.977 E.04019
G1 X137.051 Y703.708 E.04019
G1 X137.189 Y704.249 E.02388
G1 X137.189 Y710.248 E.2607
G1 X136.798 Y711.13 E.04019
G1 X135.765 Y711.698 E.04019
G1 X135 Y711.795 E.02388
G1 X115 Y711.795 E.61454
G1 X113.752 Y711.519 E.04019
G1 X112.949 Y710.789 E.04019
G1 X112.811 Y710.248 E.02388
G1 X112.811 Y704.249 E.2607
G1 X113.202 Y703.366 E.04019
G1 X114.235 Y702.799 E.04019
G1 X115 Y702.701 E.02388
G1 X115.215 Y702.701 E.00662
; printing object test_cube.stl id:0 copy 0
G1 E-2 F2400
G1 X115.609 Y704.679 F7200
G1 E2 F2400
;TYPE:Inner wall
;WIDTH:0.419999
G1 F1800
M73 P5 R17
G1 X134.391 Y704.679 E.57715
G1 X134.391 Y709.818 E.2233
G1 X115.609 Y709.818 E.57715
G1 X115.609 Y704.707 E.22207
G1 X115.21 Y704.397 F7200
;TYPE:Outer wall
G1 F1800
G1 X134.79 Y704.397 E.60164
G1 X134.79 Y710.099 E.24779
G1 X115.21 Y710.099 E.60164
G1 X115.21 Y704.425 E.24656
G1 E-2 F2400
G1 X134.278 Y705.3 F7200
G1 E2 F2400
;TYPE:Bottom surface
;WIDTH:0.421119
G1 F3600
G1 X133.683 Y704.879 E.02593
G1 X133.149 Y704.879 E.01648
G1 X134.109 Y705.558 E.04185
G1 X134.109 Y705.936 E.01648
G1 X132.614 Y704.879 E.06516
G1 X132.079 Y704.879 E.01648
G1 X134.109 Y706.314 E.08847
G1 X134.109 Y706.692 E.01648
G1 X131.544 Y704.879 E.11178
G1 X131.009 Y704.879 E.01648
G1 X134.109 Y707.071 E.13509
G1 X134.109 Y707.449 E.01648
G1 X130.474 Y704.879 E.1584
G1 X129.939 Y704.879 E.01648
G1 X134.109 Y707.827 E.18171
G1 X134.109 Y708.205 E.01648
G1 X129.405 Y704.879 E.20502
G1 X128.87 Y704.879 E.01648
G1 X134.109 Y708.583 E.22833
G1 X134.109 Y708.962 E.01648
G1 X128.335 Y704.879 E.25165
G1 X127.8 Y704.879 E.01648
G1 X134.109 Y709.34 E.27496
G1 X134.109 Y709.618 E.01211
G1 X133.967 Y709.618 E.00437
G1 X127.265 Y704.879 E.29208
G1 X126.73 Y704.879 E.01648
G1 X133.432 Y709.618 E.29208
G1 X132.897 Y709.618 E.01648
G1 X126.195 Y704.879 E.29208
G1 X125.661 Y704.879 E.01648
G1 X132.362 Y709.618 E.29208
G1 X131.827 Y709.618 E.01648
G1 X125.126 Y704.879 E.29208
G1 X124.591 Y704.879 E.01648
G1 X131.292 Y709.618 E.29208
G1 X130.758 Y709.618 E.01648
G1 X124.056 Y704.879 E.29208
G1 X123.521 Y704.879 E.01648
G1 X130.223 Y709.618 E.29208
G1 X129.688 Y709.618 E.01648
G1 X122.986 Y704.879 E.29208
G1 X122.451 Y704.879 E.01648
G1 X129.153 Y709.618 E.29208
G1 X128.618 Y709.618 E.01648
G1 X121.917 Y704.879 E.29208
G1 X121.382 Y704.879 E.01648
G1 X128.083 Y709.618 E.29208
G1 X127.548 Y709.618 E.01648
G1 X120.847 Y704.879 E.29208
G1 X120.312 Y704.879 E.01648
G1 X127.014 Y709.618 E.29208
G1 X126.479 Y709.618 E.01648
G1 X119.777 Y704.879 E.29208
G1 X119.242 Y704.879 E.01648
G1 X125.944 Y709.618 E.29208
G1 X125.409 Y709.618 E.01648
M73 P6 R17
G1 X118.707 Y704.879 E.29208
G1 X118.173 Y704.879 E.01648
G1 X124.874 Y709.618 E.29208
G1 X124.339 Y709.618 E.01648
G1 X117.638 Y704.879 E.29208
G1 X117.103 Y704.879 E.01648
G1 X123.804 Y709.618 E.29208
G1 X123.27 Y709.618 E.01648
G1 X116.568 Y704.879 E.29208
G1 X116.033 Y704.879 E.01648
G1 X122.735 Y709.618 E.29208
G1 X122.2 Y709.618 E.01648
G1 X115.891 Y705.157 E.27495
G1 X115.891 Y705.535 E.01648
G1 X121.665 Y709.618 E.25164
G1 X121.13 Y709.618 E.01648
G1 X115.891 Y705.913 E.22833
G1 X115.891 Y706.291 E.01648
G1 X120.595 Y709.618 E.20502
G1 X120.061 Y709.618 E.01648
G1 X115.891 Y706.67 E.18171
G1 X115.891 Y707.048 E.01648
G1 X119.526 Y709.618 E.1584
G1 X118.991 Y709.618 E.01648
G1 X115.891 Y707.426 E.13509
G1 X115.891 Y707.804 E.01648
G1 X118.456 Y709.618 E.11177
G1 X117.921 Y709.618 E.01648
G1 X115.891 Y708.182 E.08846
G1 X115.891 Y708.561 E.01648
G1 X117.386 Y709.618 E.06515
G1 X116.851 Y709.618 E.01648
G1 X115.891 Y708.939 E.04184
G1 X115.891 Y709.317 E.01648
G1 X116.486 Y709.738 E.02593
; stop printing object test_cube.stl id:0 copy 0
M106 S252
;LAYER_CHANGE
;Z:0.4
;HEIGHT:0.2
;_SET_FAN_SPEED_CHANGING_LAYER
SET_VELOCITY_LIMIT ACCEL=500 ACCEL_TO_DECEL=250
M140 S35 ; set bed temperature
; printing object test_cube.stl id:0 copy 0
SET_VELOCITY_LIMIT ACCEL=5000 ACCEL_TO_DECEL=2500
G1 E-2 F2400
G1 X115.654 Y704.711 Z-704.145 F7200
G1 E2 F2400
;TYPE:Inner wall
;WIDTH:0.449999
G1 F3600
G1 X134.346 Y704.711 E.62008
G1 X134.346 Y710.069 E.25135
G1 X115.654 Y710.069 E.62008
G1 X115.654 Y704.739 E.25002
SET_VELOCITY_LIMIT ACCEL=500 ACCEL_TO_DECEL=250
G1 X115.225 Y704.408 F7200
;TYPE:Outer wall
G1 F3600
G1 X134.775 Y704.408 E.64851
G1 X134.775 Y710.372 E.27978
G1 X115.225 Y710.372 E.64851
G1 X115.225 Y704.436 E.27845
SET_VELOCITY_LIMIT ACCEL=5000 ACCEL_TO_DECEL=2500
G1 X116.101 Y704.975 F7200
SET_VELOCITY_LIMIT ACCEL=500 ACCEL_TO_DECEL=250
;TYPE:Internal solid infill
;WIDTH:0.477236
G1 F5664
G1 X116.047 Y704.975 E.00192
G1 X116.02 Y705.008 E.00192
G1 X116.047 Y705.041 E.00192
G1 X116.101 Y705.041 E.00192
G1 X116.109 Y705.033 E.00051
SET_VELOCITY_LIMIT ACCEL=5000 ACCEL_TO_DECEL=2500
G1 X132.184 Y709.953 F7200
SET_VELOCITY_LIMIT ACCEL=500 ACCEL_TO_DECEL=250
;WIDTH:0.452034
G1 F5664
G1 X134 Y708.669 E.08565
G1 X134 Y708.26 E.01929
G1 X131.788 Y709.824 E.10429
G1 X131.21 Y709.824 E.01929
G1 X134 Y707.851 E.13157
G1 X134 Y707.442 E.01929
G1 X130.631 Y709.824 E.15885
G1 X130.053 Y709.824 E.01929
G1 X134 Y707.032 E.18612
G1 X134 Y706.623 E.01929
G1 X129.474 Y709.824 E.2134
G1 X128.896 Y709.824 E.01929
G1 X134 Y706.214 E.24068
G1 X134 Y705.805 E.01929
G1 X128.317 Y709.824 E.26796
G1 X127.738 Y709.824 E.01929
G1 X134 Y705.396 E.29524
G1 X134 Y704.987 E.01929
G1 X127.16 Y709.824 E.32251
G1 X126.581 Y709.824 E.01929
G1 X133.466 Y704.955 E.32461
G1 X132.888 Y704.955 E.01929
G1 X126.003 Y709.824 E.32461
G1 X125.424 Y709.824 E.01929
G1 X132.309 Y704.955 E.32461
G1 X131.731 Y704.955 E.01929
G1 X124.845 Y709.824 E.32461
G1 X124.267 Y709.824 E.01929
G1 X131.152 Y704.955 E.32461
G1 X130.573 Y704.955 E.01929
G1 X123.688 Y709.824 E.32461
G1 X123.11 Y709.824 E.01929
G1 X129.995 Y704.955 E.32461
G1 X129.416 Y704.955 E.01929
G1 X122.531 Y709.824 E.32461
G1 X121.953 Y709.824 E.01929
M73 P7 R17
G1 X128.838 Y704.955 E.32461
G1 X128.259 Y704.955 E.01929
G1 X121.374 Y709.824 E.32461
G1 X120.795 Y709.824 E.01929
G1 X127.681 Y704.955 E.32461
G1 X127.102 Y704.955 E.01929
G1 X120.217 Y709.824 E.32461
G1 X119.638 Y709.824 E.01929
G1 X126.523 Y704.955 E.32461
G1 X125.945 Y704.955 E.01929
G1 X119.06 Y709.824 E.32461
G1 X118.481 Y709.824 E.01929
G1 X125.366 Y704.955 E.32461
G1 X124.788 Y704.955 E.01929
G1 X117.903 Y709.824 E.32461
G1 X117.324 Y709.824 E.01929
G1 X124.209 Y704.955 E.32461
G1 X123.631 Y704.955 E.01929
G1 X116.745 Y709.824 E.32461
G1 X116.167 Y709.824 E.01929
G1 X123.052 Y704.955 E.32461
G1 X122.473 Y704.955 E.01929
G1 X116 Y709.533 E.30522
G1 X116 Y709.124 E.01929
G1 X121.895 Y704.955 E.27794
G1 X121.316 Y704.955 E.01929
G1 X116 Y708.715 E.25067
G1 X116 Y708.306 E.01929
G1 X120.738 Y704.955 E.22339
G1 X120.159 Y704.955 E.01929
G1 X116 Y707.897 E.19611
G1 X116 Y707.488 E.01929
G1 X119.581 Y704.955 E.16883
G1 X119.002 Y704.955 E.01929
G1 X116 Y707.078 E.14155
G1 X116 Y706.669 E.01929
G1 X118.423 Y704.955 E.11428
G1 X117.845 Y704.955 E.01929
G1 X116 Y706.26 E.087
G1 X116 Y705.851 E.01929
G1 X117.266 Y704.955 E.05972
G1 X116.688 Y704.955 E.01929
G1 X115.816 Y705.571 E.04108
SET_VELOCITY_LIMIT ACCEL=5000 ACCEL_TO_DECEL=2500
G1 X133.053 Y709.75 F7200
SET_VELOCITY_LIMIT ACCEL=500 ACCEL_TO_DECEL=250
;WIDTH:0.536935
G1 F5664
G1 X133.896 Y709.75 E.03395
G1 X133.896 Y709.154 E.03395
G1 X133.081 Y709.73 E.0464
; stop printing object test_cube.stl id:0 copy 0
;LAYER_CHANGE
;Z:0.6
;HEIGHT:0.2
;_SET_FAN_SPEED_CHANGING_LAYER
; printing object test_cube.stl id:0 copy 0
SET_VELOCITY_LIMIT ACCEL=5000 ACCEL_TO_DECEL=2500
G1 E-2 F2400
G1 X115.654 Y704.711 Z-703.862 F7200
G1 E2 F2400
;TYPE:Inner wall
;WIDTH:0.449999
G1 F3600
G1 X134.346 Y704.711 E.62008
G1 X134.346 Y710.351 E.26462
G1 X115.654 Y710.351 E.62008
G1 X115.654 Y704.739 E.26329
SET_VELOCITY_LIMIT ACCEL=500 ACCEL_TO_DECEL=250
G1 X115.225 Y704.408 F7200
;TYPE:Outer wall
G1 F3600
G1 X134.775 Y704.408 E.64851
G1 X134.775 Y710.654 E.29305
G1 X115.225 Y710.654 E.64851
G1 X115.225 Y704.436 E.29172
SET_VELOCITY_LIMIT ACCEL=5000 ACCEL_TO_DECEL=2500
G1 E-2 F2400
G1 X116.101 Y710.021 F7200
G1 E2 F2400
SET_VELOCITY_LIMIT ACCEL=500 ACCEL_TO_DECEL=250
;TYPE:Internal solid infill
;WIDTH:0.477236
G1 F6000
G1 X116.047 Y710.021 E.00192
G1 X116.02 Y710.054 E.00192
G1 X116.047 Y710.087 E.00192
G1 X116.101 Y710.087 E.00192
G1 X116.109 Y710.078 E.00051
SET_VELOCITY_LIMIT ACCEL=5000 ACCEL_TO_DECEL=2500
G1 X132.548 Y704.999 F7200
SET_VELOCITY_LIMIT ACCEL=500 ACCEL_TO_DECEL=250
;WIDTH:0.449999
G1 F6000
G1 X133.939 Y705.983 E.06529
G1 X133.939 Y704.999 E.04617
G1 X132.588 Y704.999 E.04484
SET_VELOCITY_LIMIT ACCEL=5000 ACCEL_TO_DECEL=2500
G1 X133.557 Y705.256 F7200
SET_VELOCITY_LIMIT ACCEL=500 ACCEL_TO_DECEL=250
;WIDTH:0.451106
G1 F6000
G1 X133.506 Y705.256 E.0017
G1 X133.481 Y705.287 E.0017
G1 X133.506 Y705.318 E.0017
G1 X133.563 Y705.311 E.00191
SET_VELOCITY_LIMIT ACCEL=5000 ACCEL_TO_DECEL=2500
G1 X134.184 Y706.523 F7200
SET_VELOCITY_LIMIT ACCEL=500 ACCEL_TO_DECEL=250
;WIDTH:0.452034
G1 F6000
G1 X131.967 Y704.955 E.10451
G1 X131.388 Y704.955 E.01929
G1 X134 Y706.802 E.12315
G1 X134 Y707.211 E.01929
G1 X130.81 Y704.955 E.15043
G1 X130.231 Y704.955 E.01929
G1 X134 Y707.621 E.17771
G1 X134 Y708.03 E.01929
G1 X129.653 Y704.955 E.20498
G1 X129.074 Y704.955 E.01929
G1 X134 Y708.439 E.23226
G1 X134 Y708.848 E.01929
G1 X128.496 Y704.955 E.25954
G1 X127.917 Y704.955 E.01929
G1 X134 Y709.257 E.28682
G1 X134 Y709.666 E.01929
G1 X127.338 Y704.955 E.31409
G1 X126.76 Y704.955 E.01929
M73 P7 R16
G1 X134 Y710.075 E.34137
G1 X134 Y710.107 E.00148
G1 X133.466 Y710.107 E.0178
G1 X126.181 Y704.955 E.34347
G1 X125.603 Y704.955 E.01929
G1 X132.888 Y710.107 E.34347
G1 X132.309 Y710.107 E.01929
G1 X125.024 Y704.955 E.34347
G1 X124.445 Y704.955 E.01929
M73 P8 R16
G1 X131.731 Y710.107 E.34347
G1 X131.152 Y710.107 E.01929
G1 X123.867 Y704.955 E.34347
G1 X123.288 Y704.955 E.01929
G1 X130.573 Y710.107 E.34347
G1 X129.995 Y710.107 E.01929
G1 X122.71 Y704.955 E.34347
G1 X122.131 Y704.955 E.01929
G1 X129.416 Y710.107 E.34347
G1 X128.838 Y710.107 E.01929
G1 X121.553 Y704.955 E.34347
G1 X120.974 Y704.955 E.01929
G1 X128.259 Y710.107 E.34347
G1 X127.681 Y710.107 E.01929
G1 X120.395 Y704.955 E.34347
G1 X119.817 Y704.955 E.01929
G1 X127.102 Y710.107 E.34347
G1 X126.523 Y710.107 E.01929
G1 X119.238 Y704.955 E.34347
G1 X118.66 Y704.955 E.01929
G1 X125.945 Y710.107 E.34347
G1 X125.366 Y710.107 E.01929
G1 X118.081 Y704.955 E.34347
G1 X117.503 Y704.955 E.01929
G1 X124.788 Y710.107 E.34347
G1 X124.209 Y710.107 E.01929
G1 X116.924 Y704.955 E.34347
G1 X116.345 Y704.955 E.01929
G1 X123.631 Y710.107 E.34347
G1 X123.052 Y710.107 E.01929
G1 X116 Y705.12 E.3325
G1 X116 Y705.529 E.01929
G1 X122.473 Y710.107 E.30522
G1 X121.895 Y710.107 E.01929
G1 X116 Y705.938 E.27794
G1 X116 Y706.347 E.01929
G1 X121.316 Y710.107 E.25067
G1 X120.738 Y710.107 E.01929
G1 X116 Y706.756 E.22339
G1 X116 Y707.165 E.01929
G1 X120.159 Y710.107 E.19611
G1 X119.581 Y710.107 E.01929
G1 X116 Y707.575 E.16883
G1 X116 Y707.984 E.01929
G1 X119.002 Y710.107 E.14155
G1 X118.423 Y710.107 E.01929
G1 X116 Y708.393 E.11428
G1 X116 Y708.802 E.01929
G1 X117.845 Y710.107 E.087
G1 X117.266 Y710.107 E.01929
G1 X116 Y709.211 E.05972
G1 X116 Y709.62 E.01929
G1 X116.871 Y710.236 E.04108
; stop printing object test_cube.stl id:0 copy 0
;LAYER_CHANGE
;Z:0.8
;HEIGHT:0.2
;_SET_FAN_SPEED_CHANGING_LAYER
; printing object test_cube.stl id:0 copy 0
SET_VELOCITY_LIMIT ACCEL=5000 ACCEL_TO_DECEL=2500
G1 E-2 F2400
G1 X115.654 Y704.711 Z-703.579 F7200
G1 E2 F2400
;TYPE:Inner wall
;WIDTH:0.449999
G1 F2505
G1 X134.346 Y704.711 E.62008
G1 X134.346 Y710.634 E.27789
G1 X115.654 Y710.634 E.62008
G1 X115.654 Y704.739 E.27656
SET_VELOCITY_LIMIT ACCEL=500 ACCEL_TO_DECEL=250
G1 X115.225 Y704.408 F7200
;TYPE:Outer wall
G1 F2505
G1 X134.775 Y704.408 E.64851
G1 X134.775 Y710.937 E.30632
G1 X115.225 Y710.937 E.64851
G1 X115.225 Y704.436 E.30499
SET_VELOCITY_LIMIT ACCEL=5000 ACCEL_TO_DECEL=2500
G1 X116.069 Y705.005 F7200
SET_VELOCITY_LIMIT ACCEL=500 ACCEL_TO_DECEL=250
;TYPE:Internal solid infill
;WIDTH:0.467366
G1 F2505
G1 X133.891 Y705.005 E.61639
SET_VELOCITY_LIMIT ACCEL=5000 ACCEL_TO_DECEL=2500
G1 X132.598 Y705.299 F7200
SET_VELOCITY_LIMIT ACCEL=500 ACCEL_TO_DECEL=250
;TYPE:Sparse infill
;WIDTH:0.45
G1 F2505
G1 X130.969 Y705.299 E.05401
G1 X134 Y707.442 E.1422
G1 X134 Y709.64 E.10312
G1 X127.86 Y705.299 E.28804
G1 X124.752 Y705.299 E.10312
G1 X131.466 Y710.046 E.31498
G1 X128.357 Y710.046 E.10312
G1 X121.643 Y705.299 E.31498
G1 X118.534 Y705.299 E.10312
M73 P9 R16
G1 X125.248 Y710.046 E.31498
G1 X122.14 Y710.046 E.10312
G1 X116 Y705.705 E.28804
G1 X116 Y707.903 E.10312
G1 X119.031 Y710.046 E.1422
G1 X117.402 Y710.046 E.05401
SET_VELOCITY_LIMIT ACCEL=5000 ACCEL_TO_DECEL=2500
G1 X116.069 Y710.34 F7200
SET_VELOCITY_LIMIT ACCEL=500 ACCEL_TO_DECEL=250
;TYPE:Internal solid infill
;WIDTH:0.467364
G1 F2505
G1 X133.891 Y710.34 E.61639
; stop printing object test_cube.stl id:0 copy 0
;LAYER_CHANGE
;Z:1
;HEIGHT:0.2
;_SET_FAN_SPEED_CHANGING_LAYER
; printing object test_cube.stl id:0 copy 0
SET_VELOCITY_LIMIT ACCEL=5000 ACCEL_TO_DECEL=2500
G1 E-2 F2400
G1 X115.654 Y704.711 Z-703.296 F7200
G1 E2 F2400
;TYPE:Inner wall
;WIDTH:0.449999
G1 F2550
G1 X134.346 Y704.711 E.62008
G1 X134.346 Y710.917 E.29116
G1 X115.654 Y710.917 E.62008
G1 X115.654 Y704.739 E.28983
SET_VELOCITY_LIMIT ACCEL=500 ACCEL_TO_DECEL=250
G1 X115.225 Y704.408 F7200
;TYPE:Outer wall
G1 F2550
G1 X134.775 Y704.408 E.64851
G1 X134.775 Y711.22 E.31959
G1 X115.225 Y711.22 E.64851
G1 X115.225 Y704.436 E.31826
SET_VELOCITY_LIMIT ACCEL=5000 ACCEL_TO_DECEL=2500
G1 X116.069 Y705.005 F7200
SET_VELOCITY_LIMIT ACCEL=500 ACCEL_TO_DECEL=250
;TYPE:Internal solid infill
;WIDTH:0.467366
G1 F2550
G1 X133.891 Y705.005 E.61639
SET_VELOCITY_LIMIT ACCEL=5000 ACCEL_TO_DECEL=2500
G1 X132.398 Y705.299 F7200
SET_VELOCITY_LIMIT ACCEL=500 ACCEL_TO_DECEL=250
;TYPE:Sparse infill
;WIDTH:0.45
G1 F2550
G1 X130.769 Y705.299 E.05401
G1 X134 Y707.583 E.15158
G1 X134 Y709.782 E.10312
G1 X127.66 Y705.299 E.29742
G1 X124.552 Y705.299 E.10312
G1 X131.666 Y710.329 E.33374
G1 X128.557 Y710.329 E.10312
G1 X121.443 Y705.299 E.33374
G1 X118.334 Y705.299 E.10312
G1 X125.448 Y710.329 E.33374
G1 X122.34 Y710.329 E.10312
G1 X116 Y705.846 E.29742
G1 X116 Y708.044 E.10312
G1 X119.231 Y710.329 E.15158
G1 X117.602 Y710.329 E.05401
SET_VELOCITY_LIMIT ACCEL=5000 ACCEL_TO_DECEL=2500
G1 X116.069 Y710.623 F7200
SET_VELOCITY_LIMIT ACCEL=500 ACCEL_TO_DECEL=250
;TYPE:Internal solid infill
;WIDTH:0.467364
G1 F2550
G1 X133.891 Y710.623 E.61639
; stop printing object test_cube.stl id:0 copy 0
;LAYER_CHANGE
;Z:1.2
;HEIGHT:0.2
;_SET_FAN_SPEED_CHANGING_LAYER
; printing object test_cube.stl id:0 copy 0
SET_VELOCITY_LIMIT ACCEL=5000 ACCEL_TO_DECEL=2500
G1 E-2 F2400
G1 X115.654 Y704.711 Z-703.014 F7200
G1 E2 F2400
;TYPE:Inner wall
;WIDTH:0.449999
G1 F2715
G1 X134.346 Y704.711 E.62008
G1 X134.346 Y711.2 E.30442
G1 X115.654 Y711.2 E.62008
