; HEADER_BLOCK_START
; generated by OrcaSlicer 2.3.2-dev on 2025-12-29 at 10:54:27
; total layer number: 1803
; filament_density: 1.24
; filament_diameter: 1.75
; max_z_height: 360.60
; filament: 1
; HEADER_BLOCK_END

; external perimeters extrusion width = 0.45mm
; perimeters extrusion width = 0.45mm
; infill extrusion width = 0.45mm
; solid infill extrusion width = 0.45mm
; top infill extrusion width = 0.40mm

; EXECUTABLE_BLOCK_START
M73 P0 R264
M201 X1000 Y1000 Z1000 E5000
M203 X500 Y500 Z12 E120
M204 P1250 R1250 T1250
M205 X10.00 Y10.00 Z0.20 E2.50 ; sets the jerk limits, mm/sec
M190 S35 ; set bed temperature and wait for it to be reached
M104 S215 ; set nozzle temperature
;TYPE:Custom
G28 ; home all axes
G1 Z5 F5000 ; lift nozzle
G90
G21
M83 ; use relative distances for extrusion
M106 S0
;LAYER_CHANGE
;Z:0.2
;HEIGHT:0.2
G92 E0
;_SET_FAN_SPEED_CHANGING_LAYER
M204 S300
G1 E-.8 F2400
G1 X-1.443 Y-220.095 Z.283
G1 X-1.443 Y-220.095 Z.283 F12000
G1 E.8 F2400
;TYPE:Skirt
;WIDTH:0.45
G1 F1473.913
G1 X-.191 Y-220.793 Z.283 E.04851
G1 X.925 Y-221.262 Z.283 E.04098
G1 X2.083 Y-221.616 Z.283 E.04098
G1 X3.271 Y-221.851 Z.283 E.04098
G1 X4.423 Y-221.965 Z.283 E.03919
G1 X15.111 Y-221.976 Z.283 E.36178
G1 X17.297 Y-221.754 Z.283 E.07435
G1 X18.684 Y-221.396 Z.283 E.04851
G1 X19.816 Y-220.965 Z.283 E.04098
G1 X21.737 Y-219.901 Z.283 E.07435
G1 X22.703 Y-219.17 Z.283 E.04098
G1 X23.743 Y-218.183 Z.283 E.04851
G1 X25.09 Y-216.448 Z.283 E.07435
G1 X25.787 Y-215.196 Z.283 E.04851
G1 X26.554 Y-213.138 Z.283 E.07435
G1 X26.811 Y-211.955 Z.283 E.04098
G1 X26.959 Y-210.566 Z.283 E.04728
G1 X26.898 Y-208.486 Z.283 E.07045
G1 X26.704 Y-207.291 Z.283 E.04098
G1 X26.047 Y-205.194 Z.283 E.07435
G1 X25.417 Y-203.907 Z.283 E.04851
G1 X24.164 Y-202.103 Z.283 E.07435
G1 X23.339 Y-201.217 Z.283 E.04098
G1 X22.429 Y-200.418 Z.283 E.04098
G1 X21.443 Y-199.716 Z.283 E.04098
G1 X20.391 Y-199.117 Z.283 E.04098
G1 X19.283 Y-198.627 Z.283 E.04098
G1 X18.132 Y-198.252 Z.283 E.04098
G1 X16.949 Y-197.994 Z.283 E.04098
G1 X15.577 Y-197.847 Z.283 E.04673
G1 X5 Y-197.832 Z.283 E.35801
G1 X3.68 Y-197.907 Z.283 E.04475
G1 X2.485 Y-198.102 Z.283 E.04098
G1 X.389 Y-198.758 Z.283 E.07435
G1 X-.898 Y-199.389 Z.283 E.04851
G1 X-2.703 Y-200.642 Z.283 E.07435
G1 X-3.589 Y-201.466 Z.283 E.04098
G1 X-4.387 Y-202.377 Z.283 E.04098
G1 X-5.09 Y-203.363 Z.283 E.04098
G1 X-5.689 Y-204.415 Z.283 E.04098
G1 X-6.179 Y-205.522 Z.283 E.04098
G1 X-6.554 Y-206.673 Z.283 E.04098
G1 X-6.811 Y-207.856 Z.283 E.04098
G1 X-6.948 Y-209.059 Z.283 E.04098
G1 X-6.898 Y-211.326 Z.283 E.07673
G1 X-6.704 Y-212.521 Z.283 E.04098
G1 X-6.39 Y-213.69 Z.283 E.04098
G1 X-5.96 Y-214.822 Z.283 E.04098
G1 X-5.417 Y-215.904 Z.283 E.04098
G1 X-4.164 Y-217.708 Z.283 E.07435
G1 X-3.178 Y-218.748 Z.283 E.04851
G1 X-1.474 Y-220.071 Z.283 E.073
; printing object long_stick.stl id:0 copy 0
;WIPE_START
G1 X-.603 Y-220.561 Z.283 E-.8
;WIPE_END
G1 X-.097 Y-218.099 Z.283 F12000
G1 E.8 F2400
;TYPE:Brim
G1 F1200
G1 X-.073 Y-218.116 Z.283 E.001
G1 X.772 Y-218.587 Z.283 E.03275
G1 X1.66 Y-218.97 Z.283 E.03275
G1 X2.583 Y-219.261 Z.283 E.03275
G1 X3.53 Y-219.458 Z.283 E.03275
G1 X4.495 Y-219.559 Z.283 E.03283
G1 X5.003 Y-219.572 Z.283 E.01719
G1 X14.995 Y-219.572 Z.283 E.33822
G1 X15.966 Y-219.523 Z.283 E.03292
M73 P0 R263
G1 X16.923 Y-219.377 Z.283 E.03275
G1 X17.859 Y-219.134 Z.283 E.03275
G1 X18.767 Y-218.799 Z.283 E.03275
G1 X19.636 Y-218.373 Z.283 E.03275
G1 X20.457 Y-217.862 Z.283 E.03275
G1 X21.223 Y-217.271 Z.283 E.03275
G1 X21.925 Y-216.605 Z.283 E.03275
G1 X22.556 Y-215.872 Z.283 E.03275
G1 X23.11 Y-215.079 Z.283 E.03275
G1 X23.581 Y-214.234 Z.283 E.03275
G1 X23.964 Y-213.345 Z.283 E.03275
G1 X24.256 Y-212.423 Z.283 E.03275
G1 X24.453 Y-211.475 Z.283 E.03275
G1 X24.553 Y-210.511 Z.283 E.03281
G1 X24.566 Y-209.809 Z.283 E.02379
G1 X24.517 Y-208.839 Z.283 E.03286
G1 X24.371 Y-207.883 Z.283 E.03275
G1 X24.129 Y-206.946 Z.283 E.03275
G1 X23.793 Y-206.039 Z.283 E.03275
G1 X23.368 Y-205.17 Z.283 E.03275
G1 X22.857 Y-204.348 Z.283 E.03275
G1 X22.265 Y-203.583 Z.283 E.03275
G1 X21.6 Y-202.881 Z.283 E.03275
G1 X20.866 Y-202.249 Z.283 E.03275
G1 X20.073 Y-201.696 Z.283 E.03275
G1 X19.228 Y-201.225 Z.283 E.03275
G1 X18.34 Y-200.841 Z.283 E.03275
G1 X17.417 Y-200.55 Z.283 E.03275
G1 X16.47 Y-200.353 Z.283 E.03275
G1 X15.505 Y-200.253 Z.283 E.03283
G1 X14.997 Y-200.239 Z.283 E.01719
G1 X5.005 Y-200.239 Z.283 E.33822
G1 X4.034 Y-200.288 Z.283 E.03292
G1 X3.077 Y-200.435 Z.283 E.03275
G1 X2.141 Y-200.677 Z.283 E.03275
G1 X1.233 Y-201.012 Z.283 E.03275
G1 X.364 Y-201.438 Z.283 E.03275
G1 X-.457 Y-201.949 Z.283 E.03275
G1 X-1.223 Y-202.54 Z.283 E.03275
G1 X-1.925 Y-203.206 Z.283 E.03275
G1 X-2.556 Y-203.939 Z.283 E.03275
G1 X-3.11 Y-204.733 Z.283 E.03275
G1 X-3.581 Y-205.578 Z.283 E.03275
G1 X-3.964 Y-206.466 Z.283 E.03275
G1 X-4.256 Y-207.389 Z.283 E.03275
G1 X-4.453 Y-208.336 Z.283 E.03275
G1 X-4.553 Y-209.3 Z.283 E.03281
G1 X-4.566 Y-210.002 Z.283 E.02379
G1 X-4.517 Y-210.972 Z.283 E.03286
G1 X-4.371 Y-211.928 Z.283 E.03275
G1 X-4.129 Y-212.865 Z.283 E.03275
G1 X-3.793 Y-213.772 Z.283 E.03275
G1 X-3.368 Y-214.641 Z.283 E.03275
G1 X-2.857 Y-215.463 Z.283 E.03275
G1 X-2.265 Y-216.229 Z.283 E.03275
G1 X-1.6 Y-216.931 Z.283 E.03275
G1 X-.866 Y-217.562 Z.283 E.03275
G1 X-.13 Y-218.076 Z.283 E.03039
G1 X.103 Y-217.742 Z.283 F12000
G1 F1200
G1 X.138 Y-217.767 Z.283 E.00144
G1 X.958 Y-218.223 Z.283 E.03177
G1 X1.809 Y-218.59 Z.283 E.03135
G1 X2.68 Y-218.865 Z.283 E.03094
G1 X3.599 Y-219.056 Z.283 E.03177
G1 X4.517 Y-219.151 Z.283 E.03123
G1 X5.01 Y-219.165 Z.283 E.01669
G1 X14.988 Y-219.165 Z.283 E.33774
G1 X15.931 Y-219.116 Z.283 E.03198
G1 X16.835 Y-218.978 Z.283 E.03093
G1 X17.732 Y-218.747 Z.283 E.03135
G1 X18.612 Y-218.421 Z.283 E.03177
G1 X19.443 Y-218.014 Z.283 E.03135
G1 X20.219 Y-217.531 Z.283 E.03093
G1 X20.962 Y-216.957 Z.283 E.03177
G1 X21.634 Y-216.319 Z.283 E.03135
G1 X22.23 Y-215.627 Z.283 E.03093
G1 X22.768 Y-214.857 Z.283 E.03177
G1 X23.218 Y-214.048 Z.283 E.03135
G1 X23.58 Y-213.209 Z.283 E.03093
G1 X23.863 Y-212.314 Z.283 E.03177
G1 X24.05 Y-211.407 Z.283 E.03135
G1 X24.146 Y-210.492 Z.283 E.03114
G1 X24.159 Y-209.811 Z.283 E.02304
G1 X24.112 Y-208.887 Z.283 E.03133
G1 X23.97 Y-207.959 Z.283 E.03177
G1 X23.738 Y-207.062 Z.283 E.03135
G1 X23.421 Y-206.205 Z.283 E.03093
G1 X23.008 Y-205.362 Z.283 E.03177
G1 X22.525 Y-204.586 Z.283 E.03093
G1 X21.96 Y-203.853 Z.283 E.03135
G1 X21.314 Y-203.172 Z.283 E.03177
G1 X20.621 Y-202.575 Z.283 E.03093
G1 X19.862 Y-202.045 Z.283 E.03135
G1 X19.042 Y-201.588 Z.283 E.03177
G1 X18.191 Y-201.221 Z.283 E.03135
G1 X17.32 Y-200.946 Z.283 E.03094
G1 X16.401 Y-200.755 Z.283 E.03177
G1 X15.483 Y-200.66 Z.283 E.03123
G1 X14.99 Y-200.646 Z.283 E.01669
G1 X5.019 Y-200.646 Z.283 E.33753
G1 X4.081 Y-200.694 Z.283 E.03177
G1 X3.165 Y-200.833 Z.283 E.03135
G1 X2.268 Y-201.064 Z.283 E.03135
G1 X1.399 Y-201.385 Z.283 E.03135
G1 X.567 Y-201.792 Z.283 E.03135
G1 X-.219 Y-202.28 Z.283 E.03135
G1 X-.962 Y-202.854 Z.283 E.03177
G1 X-1.634 Y-203.492 Z.283 E.03135
G1 X-2.238 Y-204.194 Z.283 E.03135
G1 X-2.768 Y-204.954 Z.283 E.03135
G1 X-3.218 Y-205.763 Z.283 E.03135
G1 X-3.58 Y-206.603 Z.283 E.03093
G1 X-3.859 Y-207.486 Z.283 E.03135
G1 X-4.048 Y-208.392 Z.283 E.03135
G1 X-4.146 Y-209.32 Z.283 E.03156
G1 X-4.159 Y-210 Z.283 E.02304
G1 X-4.111 Y-210.937 Z.283 E.03174
G1 X-3.97 Y-211.852 Z.283 E.03135
G1 X-3.738 Y-212.749 Z.283 E.03135
G1 X-3.416 Y-213.617 Z.283 E.03135
G1 X-3.008 Y-214.449 Z.283 E.03135
G1 X-2.518 Y-215.235 Z.283 E.03135
G1 X-1.952 Y-215.968 Z.283 E.03135
G1 X-1.314 Y-216.64 Z.283 E.03135
G1 X-.621 Y-217.236 Z.283 E.03093
G1 X.07 Y-217.719 Z.283 E.02856
G1 X.304 Y-217.386 Z.283 F12000
G1 F1200
G1 X.349 Y-217.418 Z.283 E.00188
G1 X1.144 Y-217.86 Z.283 E.03078
G1 X1.945 Y-218.205 Z.283 E.02954
G1 X2.777 Y-218.469 Z.283 E.02954
G1 X3.668 Y-218.654 Z.283 E.03079
G1 X4.539 Y-218.745 Z.283 E.02964
G1 X5.017 Y-218.758 Z.283 E.01619
G1 X14.974 Y-218.758 Z.283 E.33704
G1 X15.896 Y-218.71 Z.283 E.03125
G1 X16.759 Y-218.577 Z.283 E.02955
G1 X17.604 Y-218.36 Z.283 E.02954
G1 X18.457 Y-218.044 Z.283 E.03078
G1 X19.24 Y-217.66 Z.283 E.02954
G1 X19.982 Y-217.199 Z.283 E.02954
G1 X20.702 Y-216.643 Z.283 E.03079
G1 X21.334 Y-216.042 Z.283 E.02954
G1 X21.904 Y-215.381 Z.283 E.02954
G1 X22.425 Y-214.636 Z.283 E.03079
G1 X22.849 Y-213.873 Z.283 E.02954
G1 X23.195 Y-213.072 Z.283 E.02954
G1 X23.469 Y-212.205 Z.283 E.03079
G1 X23.646 Y-211.35 Z.283 E.02954
G1 X23.738 Y-210.472 Z.283 E.0299
G1 X23.751 Y-209.813 Z.283 E.02229
G1 X23.707 Y-208.934 Z.283 E.02979
G1 X23.569 Y-208.035 Z.283 E.03079
G1 X23.35 Y-207.19 Z.283 E.02954
G1 X23.048 Y-206.371 Z.283 E.02954
G1 X22.648 Y-205.554 Z.283 E.03079
G1 X22.187 Y-204.814 Z.283 E.02954
G1 X21.654 Y-204.123 Z.283 E.02954
G1 X21.028 Y-203.463 Z.283 E.03079
G1 X20.366 Y-202.894 Z.283 E.02954
G1 X19.651 Y-202.394 Z.283 E.02954
G1 X18.856 Y-201.951 Z.283 E.03078
G1 X18.055 Y-201.606 Z.283 E.02954
G1 X17.223 Y-201.342 Z.283 E.02954
G1 X16.332 Y-201.157 Z.283 E.03079
G1 X15.461 Y-201.067 Z.283 E.02964
G1 X14.983 Y-201.053 Z.283 E.01619
G1 X5.032 Y-201.053 Z.283 E.33684
G1 X4.128 Y-201.099 Z.283 E.03063
G1 X3.253 Y-201.231 Z.283 E.02996
G1 X2.396 Y-201.452 Z.283 E.02996
G1 X1.566 Y-201.758 Z.283 E.02996
G1 X.759 Y-202.152 Z.283 E.03037
G1 X.008 Y-202.619 Z.283 E.02995
G1 X-.702 Y-203.168 Z.283 E.03036
G1 X-1.343 Y-203.778 Z.283 E.02995
G1 X-1.912 Y-204.439 Z.283 E.02954
G1 X-2.418 Y-205.165 Z.283 E.02996
G1 X-2.849 Y-205.938 Z.283 E.02996
G1 X-3.195 Y-206.739 Z.283 E.02955
G1 X-3.463 Y-207.583 Z.283 E.02996
G1 X-3.645 Y-208.449 Z.283 E.02996
G1 X-3.738 Y-209.34 Z.283 E.03031
G1 X-3.751 Y-209.998 Z.283 E.02229
G1 X-3.706 Y-210.889 Z.283 E.0302
G1 X-3.572 Y-211.764 Z.283 E.02996
G1 X-3.35 Y-212.621 Z.283 E.02996
G1 X-3.043 Y-213.451 Z.283 E.02996
G1 X-2.654 Y-214.246 Z.283 E.02996
G1 X-2.187 Y-214.997 Z.283 E.02996
G1 X-1.646 Y-215.698 Z.283 E.02996
G1 X-1.028 Y-216.348 Z.283 E.03038
G1 X-.366 Y-216.917 Z.283 E.02955
G1 X.271 Y-217.363 Z.283 E.0263
G1 X.504 Y-217.029 Z.283 F12000
G1 F1200
G1 X.571 Y-217.075 Z.283 E.00274
G1 X1.318 Y-217.492 Z.283 E.02896
G1 X2.082 Y-217.821 Z.283 E.02815
G1 X2.886 Y-218.076 Z.283 E.02857
G1 X3.737 Y-218.252 Z.283 E.02939
G1 X4.561 Y-218.338 Z.283 E.02806
G1 X5.024 Y-218.351 Z.283 E.01569
G1 X14.96 Y-218.351 Z.283 E.33633
G1 X15.861 Y-218.304 Z.283 E.03051
G1 X16.671 Y-218.179 Z.283 E.02775
G1 X17.476 Y-217.972 Z.283 E.02814
G1 X18.302 Y-217.667 Z.283 E.0298
G1 X19.037 Y-217.306 Z.283 E.02773
G1 X19.744 Y-216.868 Z.283 E.02815
G1 X20.441 Y-216.33 Z.283 E.0298
G1 X21.043 Y-215.757 Z.283 E.02814
G1 X21.578 Y-215.136 Z.283 E.02773
G1 X22.082 Y-214.414 Z.283 E.0298
G1 X22.486 Y-213.687 Z.283 E.02814
G1 X22.815 Y-212.924 Z.283 E.02815
G1 X23.076 Y-212.096 Z.283 E.02938
G1 X23.244 Y-211.281 Z.283 E.02814
G1 X23.332 Y-210.441 Z.283 E.0286
G1 X23.344 Y-209.815 Z.283 E.0212
G1 X23.3 Y-208.969 Z.283 E.02867
G1 X23.171 Y-208.123 Z.283 E.02897
G1 X22.963 Y-207.318 Z.283 E.02815
G1 X22.671 Y-206.526 Z.283 E.02857
G1 X22.294 Y-205.758 Z.283 E.02896
G1 X21.855 Y-205.051 Z.283 E.02815
G1 X21.34 Y-204.383 Z.283 E.02856
G1 X20.751 Y-203.762 Z.283 E.02896
G1 X20.121 Y-203.22 Z.283 E.02815
G1 X19.429 Y-202.736 Z.283 E.02856
G1 X18.682 Y-202.32 Z.283 E.02896
G1 X17.918 Y-201.99 Z.283 E.02815
G1 X17.114 Y-201.735 Z.283 E.02857
G1 X16.263 Y-201.559 Z.283 E.02939
G1 X15.439 Y-201.474 Z.283 E.02806
G1 X14.976 Y-201.461 Z.283 E.01569
G1 X5.045 Y-201.461 Z.283 E.33614
G1 X4.175 Y-201.504 Z.283 E.02949
G1 X3.341 Y-201.63 Z.283 E.02857
G1 X2.512 Y-201.843 Z.283 E.02898
G1 X1.72 Y-202.135 Z.283 E.02856
G1 X.962 Y-202.505 Z.283 E.02855
G1 X.246 Y-202.95 Z.283 E.02855
G1 X-.431 Y-203.473 Z.283 E.02896
G1 X-1.043 Y-204.054 Z.283 E.02856
G1 X-1.586 Y-204.685 Z.283 E.02815
G1 X-2.069 Y-205.376 Z.283 E.02856
G1 X-2.481 Y-206.113 Z.283 E.02857
G1 X-2.811 Y-206.876 Z.283 E.02816
G1 X-3.067 Y-207.681 Z.283 E.02857
G1 X-3.241 Y-208.506 Z.283 E.02856
G1 X-3.331 Y-209.36 Z.283 E.02905
G1 X-3.344 Y-209.996 Z.283 E.02153
G1 X-3.299 Y-210.854 Z.283 E.02908
G1 X-3.171 Y-211.688 Z.283 E.02857
G1 X-2.959 Y-212.505 Z.283 E.02856
G1 X-2.666 Y-213.296 Z.283 E.02856
G1 X-2.294 Y-214.054 Z.283 E.02856
G1 X-1.855 Y-214.759 Z.283 E.02814
G1 X-1.34 Y-215.427 Z.283 E.02855
G1 X-.751 Y-216.049 Z.283 E.02898
G1 X-.121 Y-216.592 Z.283 E.02816
G1 X.472 Y-217.006 Z.283 E.02447
G1 X.705 Y-216.672 Z.283 F12000
G1 F1200
G1 X.793 Y-216.733 Z.283 E.00361
G1 X1.493 Y-217.123 Z.283 E.02714
G1 X2.219 Y-217.437 Z.283 E.02676
G1 X2.995 Y-217.683 Z.283 E.02758
G1 X3.805 Y-217.85 Z.283 E.02798
G1 X4.583 Y-217.931 Z.283 E.02648
G1 X5.032 Y-217.944 Z.283 E.01519
G1 X14.947 Y-217.944 Z.283 E.3356
G1 X15.825 Y-217.897 Z.283 E.02977
G1 X16.595 Y-217.778 Z.283 E.02637
G1 X17.348 Y-217.585 Z.283 E.02633
G1 X18.147 Y-217.289 Z.283 E.02881
G1 X18.845 Y-216.946 Z.283 E.02634
G1 X19.506 Y-216.536 Z.283 E.02634
G1 X20.18 Y-216.016 Z.283 E.02881
G1 X20.744 Y-215.48 Z.283 E.02633
G1 X21.252 Y-214.891 Z.283 E.02634
G1 X21.74 Y-214.193 Z.283 E.02881
G1 X22.123 Y-213.502 Z.283 E.02674
G1 X22.435 Y-212.776 Z.283 E.02677
G1 X22.683 Y-211.987 Z.283 E.02798
G1 X22.842 Y-211.213 Z.283 E.02675
G1 X22.925 Y-210.411 Z.283 E.02729
G1 X22.936 Y-209.817 Z.283 E.0201
G1 X22.894 Y-209.004 Z.283 E.02756
G1 X22.773 Y-208.211 Z.283 E.02716
G1 X22.575 Y-207.446 Z.283 E.02676
G1 X22.293 Y-206.681 Z.283 E.02759
G1 X21.941 Y-205.961 Z.283 E.02714
G1 X21.524 Y-205.289 Z.283 E.02676
G1 X21.026 Y-204.644 Z.283 E.02758
G1 X20.474 Y-204.062 Z.283 E.02714
G1 X19.875 Y-203.546 Z.283 E.02676
G1 X19.207 Y-203.079 Z.283 E.02758
G1 X18.507 Y-202.688 Z.283 E.02714
G1 X17.781 Y-202.375 Z.283 E.02676
G1 X17.005 Y-202.129 Z.283 E.02758
G1 X16.195 Y-201.962 Z.283 E.02798
G1 X15.404 Y-201.88 Z.283 E.0269
G1 X5.059 Y-201.868 Z.283 E.35019
G1 X4.222 Y-201.909 Z.283 E.02836
G1 X3.428 Y-202.028 Z.283 E.02717
G1 X2.639 Y-202.231 Z.283 E.02757
G1 X1.886 Y-202.508 Z.283 E.02716
G1 X1.165 Y-202.859 Z.283 E.02715
G1 X.484 Y-203.282 Z.283 E.02714
G1 X-.161 Y-203.779 Z.283 E.02755
G1 X-.743 Y-204.331 Z.283 E.02716
G1 X-1.26 Y-204.93 Z.283 E.02676
G1 X-1.72 Y-205.587 Z.283 E.02717
G1 X-2.112 Y-206.288 Z.283 E.02718
G1 X-2.427 Y-207.014 Z.283 E.02677
G1 X-2.671 Y-207.779 Z.283 E.02717
G1 X-2.837 Y-208.564 Z.283 E.02716
G1 X-2.924 Y-209.38 Z.283 E.02779
G1 X-2.936 Y-209.994 Z.283 E.02077
G1 X-2.893 Y-210.818 Z.283 E.02795
G1 X-2.773 Y-211.6 Z.283 E.02676
G1 X-2.572 Y-212.377 Z.283 E.02716
G1 X-2.294 Y-213.129 Z.283 E.02716
G1 X-1.941 Y-213.85 Z.283 E.02717
G1 X-1.524 Y-214.522 Z.283 E.02676
G1 X-1.034 Y-215.158 Z.283 E.02715
G1 X-.474 Y-215.749 Z.283 E.02758
G1 X.125 Y-216.266 Z.283 E.02677
G1 X.673 Y-216.649 Z.283 E.02262
G1 X.906 Y-216.315 Z.283 F12000
G1 F1200
G1 X1.014 Y-216.39 Z.283 E.00447
G1 X1.668 Y-216.754 Z.283 E.02533
G1 X2.356 Y-217.052 Z.283 E.02537
G1 X3.105 Y-217.289 Z.283 E.02659
G1 X3.874 Y-217.447 Z.283 E.02657
G1 X4.606 Y-217.524 Z.283 E.02492
G1 X5.039 Y-217.537 Z.283 E.01469
G1 X14.933 Y-217.536 Z.283 E.33487
G1 X15.789 Y-217.491 Z.283 E.02903
G1 X16.507 Y-217.38 Z.283 E.02459
G1 X17.221 Y-217.197 Z.283 E.02494
G1 X17.992 Y-216.912 Z.283 E.02782
G1 X18.642 Y-216.592 Z.283 E.02454
G1 X19.269 Y-216.205 Z.283 E.02494
G1 X19.919 Y-215.702 Z.283 E.02782
G1 X20.444 Y-215.203 Z.283 E.02453
G1 X20.926 Y-214.645 Z.283 E.02494
G1 X21.397 Y-213.971 Z.283 E.02782
G1 X21.759 Y-213.317 Z.283 E.02533
G1 X22.055 Y-212.628 Z.283 E.02538
G1 X22.29 Y-211.879 Z.283 E.02657
G1 X22.44 Y-211.145 Z.283 E.02535
G1 X22.519 Y-210.381 Z.283 E.02599
G1 X22.529 Y-209.82 Z.283 E.01899
G1 X22.488 Y-209.04 Z.283 E.02644
G1 X22.374 Y-208.299 Z.283 E.02537
G1 X22.188 Y-207.573 Z.283 E.02537
G1 X21.916 Y-206.836 Z.283 E.0266
G1 X21.587 Y-206.164 Z.283 E.02533
G1 X21.192 Y-205.527 Z.283 E.02537
G1 X20.712 Y-204.904 Z.283 E.0266
G1 X20.197 Y-204.361 Z.283 E.02533
G1 X19.63 Y-203.871 Z.283 E.02537
G1 X18.986 Y-203.421 Z.283 E.0266
G1 X18.332 Y-203.057 Z.283 E.02533
G1 X17.644 Y-202.759 Z.283 E.02537
G1 X16.895 Y-202.522 Z.283 E.02659
G1 X16.139 Y-202.366 Z.283 E.02615
