; HEADER_BLOCK_START
; belt_printer = 1
; belt_angle = 45.00
; generated by OrcaSlicer 2.3.2-dev on 2026-01-07 at 17:30:31
; total layer number: 73
; filament_density: 0
; filament_diameter: 1.75
; max_z_height: 15.15
; filament: 1
; HEADER_BLOCK_END

; external perimeters extrusion width = 0.45mm
; perimeters extrusion width = 0.45mm
; infill extrusion width = 0.45mm
; solid infill extrusion width = 0.45mm
; top infill extrusion width = 0.40mm
; support material extrusion width = 0.40mm

; EXECUTABLE_BLOCK_START
M73 P0 R8
M201 X20000 Y20000 Z500 E5000
M203 X500 Y500 Z20 E30
M204 P20000 R5000 T20000
M205 X10.00 Y10.00 Z0.20 E2.50 ; sets the jerk limits, mm/sec
M190 S35 ; set bed temperature and wait for it to be reached
M104 S200 ; set nozzle temperature
;TYPE:Custom
G28 ; home
G1 Z5 F5000 ; lift
G90
G21
M82 ; use absolute distances for extrusion
G92 E0
; Filament start\nM900 K0
M106 S0
;LAYER_CHANGE
;Z:0.25
;HEIGHT:0.25
; Layer 0
;_SET_FAN_SPEED_CHANGING_LAYER
M204 S300
G1 E-.8 F2400
G92 E0
G1 X90.505 Y.25 Z97.052
G1 X90.505 Y.25 Z97.052 F7200
M73 P1 R8
G1 E.8 F1800
;TYPE:Skirt
;WIDTH:0.45
G1 F1211.052
G1 X109.495 Y.25 Z97.052 E1.58234
G1 X111.05 Y.25 Z97.696 E1.65165
G1 X112.104 Y.25 Z98.75 E1.71308
G1 X112.748 Y.25 Z100.304 E1.78238
G1 X112.748 Y.25 Z106.638 E2.04331
G1 X112.104 Y.25 Z108.193 E2.11262
G1 X111.05 Y.25 Z109.247 E2.17405
G1 X109.495 Y.25 Z109.891 E2.24336
G1 X90.505 Y.25 Z109.891 E3.0257
G1 X88.95 Y.25 Z109.247 E3.095
G1 X87.896 Y.25 Z108.193 E3.15643
G1 X87.252 Y.25 Z106.638 E3.22574
G1 X87.252 Y.25 Z100.304 E3.48667
G1 X87.896 Y.25 Z98.75 E3.55598
G1 X88.95 Y.25 Z97.696 E3.61741
G1 X90.468 Y.25 Z97.067 E3.68507
; printing object default_cube_10x10x10.stl id:0 copy 0
G1 E2.88507 F2400
G92 E0
G1 X109.435 Y.25 Z107.312 F7200
G1 E.8 F1800
M73 P2 R8
;TYPE:Support
;WIDTH:0.4
G1 F1385.883
G1 X90.565 Y.25 Z107.312 E1.47933
G1 X90.18 Y.25 Z106.927 E1.49892
G1 X109.82 Y.25 Z106.927 E2.20596
G1 X110.205 Y.25 Z106.542 E2.22555
G1 X89.795 Y.25 Z106.542 E2.96029
G1 X89.762 Y.25 Z106.509 E2.96197
G1 X89.762 Y.25 Z106.157 E2.97464
G1 X110.238 Y.25 Z106.157 E3.71176
G1 X110.238 Y.25 Z105.772 E3.72561
G1 X89.762 Y.25 Z105.772 E4.46273
G1 X89.762 Y.25 Z105.388 E4.47658
M73 P3 R8
G1 X110.238 Y.25 Z105.388 E5.2137
G1 X110.238 Y.25 Z105.003 E5.22755
G1 X89.762 Y.25 Z105.003 E5.96467
G1 X89.762 Y.25 Z104.618 E5.97852
G1 X110.238 Y.25 Z104.618 E6.71564
G1 X110.238 Y.25 Z104.233 E6.72949
G1 X89.762 Y.25 Z104.233 E7.46661
G1 X89.762 Y.25 Z103.848 E7.48046
M73 P3 R7
G1 X110.238 Y.25 Z103.848 E8.21758
G1 X110.238 Y.25 Z103.463 E8.23143
M73 P4 R7
G1 X89.762 Y.25 Z103.463 E8.96855
G1 X89.762 Y.25 Z103.079 E8.98241
G1 X110.238 Y.25 Z103.079 E9.71952
G1 X110.238 Y.25 Z102.694 E9.73338
G1 X89.762 Y.25 Z102.694 E10.47049
G1 X89.762 Y.25 Z102.309 E10.48435
G1 X110.238 Y.25 Z102.309 E11.22146
G1 X110.238 Y.25 Z101.924 E11.23532
G1 X89.762 Y.25 Z101.924 E11.97244
G1 X89.762 Y.25 Z101.539 E11.98629
M73 P5 R7
G1 X110.238 Y.25 Z101.539 E12.72341
G1 X110.238 Y.25 Z101.154 E12.73726
G1 X89.762 Y.25 Z101.154 E13.47438
G1 X89.762 Y.25 Z100.77 E13.48823
G1 X110.238 Y.25 Z100.77 E14.22535
G1 X110.238 Y.25 Z100.434 E14.23745
G1 X110.189 Y.25 Z100.385 E14.23993
G1 X89.811 Y.25 Z100.385 E14.97354
G1 X90.195 Y.25 Z100 E14.99313
G1 X109.805 Y.25 Z100 E15.69904
G1 X109.42 Y.25 Z99.615 E15.71863
M73 P6 R7
G1 X90.58 Y.25 Z99.615 E16.39682
G1 E15.59682 F2400
G92 E0
G1 X110.513 Y.25 Z100.268 F7200
G1 E.8 F1800
G1 F1385.883
G1 X109.495 Y.25 Z99.25 E.85181
G1 X90.505 Y.25 Z99.25 E1.53545
G1 X89.45 Y.25 Z100.304 E1.58914
G1 X89.45 Y.25 Z106.638 E1.81715
G1 X90.505 Y.25 Z107.693 E1.87083
G1 X109.495 Y.25 Z107.693 E2.55447
G1 X110.55 Y.25 Z106.638 E2.60815
G1 X110.55 Y.25 Z100.304 E2.83616
; stop printing object default_cube_10x10x10.stl id:0 copy 0
M106 S245
;LAYER_CHANGE
;Z:0.55
;HEIGHT:0.3
; Layer 1
;_SET_FAN_SPEED_CHANGING_LAYER
M204 S500
; printing object default_cube_10x10x10.stl id:0 copy 0
M204 S10000
G1 X109.071 Y.55 Z101.62 F7200
M204 S500
;TYPE:Support interface
G1 F1191.826
G1 X109.071 Y.55 Z100.917 E2.86561
G1 X108.883 Y.55 Z100.729 E2.87675
G1 X108.001 Y.55 Z100.729 E2.91367
M73 P7 R7
G1 X109.071 Y.55 Z101.799 E2.97702
G1 X109.071 Y.55 Z103.011 E3.02776
G1 X106.789 Y.55 Z100.729 E3.16287
G1 X105.577 Y.55 Z100.729 E3.2136
G1 X109.071 Y.55 Z104.223 E3.42047
G1 X109.071 Y.55 Z105.435 E3.47121
G1 X104.365 Y.55 Z100.729 E3.74982
G1 X103.153 Y.55 Z100.729 E3.80056
G1 X108.638 Y.55 Z106.214 E4.12531
G1 X107.426 Y.55 Z106.214 E4.17605
G1 X101.941 Y.55 Z100.729 E4.50079
G1 X100.729 Y.55 Z100.729 E4.55153
G1 X106.214 Y.55 Z106.214 E4.87628
G1 X105.002 Y.55 Z106.214 E4.92702
G1 X99.516 Y.55 Z100.729 E5.25176
G1 X98.304 Y.55 Z100.729 E5.3025
G1 X103.79 Y.55 Z106.214 E5.62725
G1 X102.578 Y.55 Z106.214 E5.67798
G1 X97.092 Y.55 Z100.729 E6.00273
G1 X95.88 Y.55 Z100.729 E6.05347
G1 X101.366 Y.55 Z106.214 E6.37821
G1 X100.154 Y.55 Z106.214 E6.42895
M73 P8 R7
G1 X94.668 Y.55 Z100.729 E6.7537
G1 X93.456 Y.55 Z100.729 E6.80444
G1 X98.942 Y.55 Z106.214 E7.12918
G1 X97.73 Y.55 Z106.214 E7.17992
G1 X92.244 Y.55 Z100.729 E7.50467
G1 X91.117 Y.55 Z100.729 E7.55184
G1 X91.074 Y.55 Z100.771 E7.55436
G1 X96.517 Y.55 Z106.214 E7.87658
G1 X95.305 Y.55 Z106.214 E7.92732
G1 X90.929 Y.55 Z101.838 E8.18641
G1 X90.929 Y.55 Z103.05 E8.23715
G1 X94.093 Y.55 Z106.214 E8.42448
G1 X92.881 Y.55 Z106.214 E8.47522
G1 X90.929 Y.55 Z104.262 E8.5908
G1 X90.929 Y.55 Z105.474 E8.64154
G1 X91.669 Y.55 Z106.214 E8.68537
G1 X91.117 Y.55 Z106.214 E8.70847
G1 X90.929 Y.55 Z106.026 E8.71962
G1 X90.929 Y.55 Z105.652 E8.73525
; stop printing object default_cube_10x10x10.stl id:0 copy 0
M106 S252
;LAYER_CHANGE
;Z:0.85
;HEIGHT:0.3
; Layer 2
;_SET_FAN_SPEED_CHANGING_LAYER
; printing object default_cube_10x10x10.stl id:0 copy 0
M204 S10000
G1 E7.93525 F2400
G92 E0
G1 X91.499 Y.85 Z101.229 F7200
G1 E.8 F1800
M204 S500
G1 F1191.826
G1 X91.429 Y.85 Z101.299 E.80415
G1 X91.429 Y.85 Z102.511 E.85489
G1 X92.711 Y.85 Z101.229 E.9308
G1 X93.923 Y.85 Z101.229 E.98154
G1 X91.429 Y.85 Z103.723 E1.1292
G1 X91.429 Y.85 Z104.935 E1.17994
G1 X95.135 Y.85 Z101.229 E1.39936
G1 X96.347 Y.85 Z101.229 E1.4501
G1 X91.862 Y.85 Z105.714 E1.71565
M73 P9 R7
G1 X93.074 Y.85 Z105.714 E1.76639
G1 X97.559 Y.85 Z101.229 E2.03193
G1 X98.771 Y.85 Z101.229 E2.08267
G1 X94.286 Y.85 Z105.714 E2.34822
G1 X95.498 Y.85 Z105.714 E2.39896
G1 X99.984 Y.85 Z101.229 E2.66451
G1 X101.196 Y.85 Z101.229 E2.71524
G1 X96.71 Y.85 Z105.714 E2.98079
G1 X97.922 Y.85 Z105.714 E3.03153
G1 X102.408 Y.85 Z101.229 E3.29708
G1 X103.62 Y.85 Z101.229 E3.34782
G1 X99.134 Y.85 Z105.714 E3.61337
G1 X100.346 Y.85 Z105.714 E3.6641
G1 X104.832 Y.85 Z101.229 E3.92965
G1 X106.044 Y.85 Z101.229 E3.98039
G1 X101.558 Y.85 Z105.714 E4.24594
G1 X102.77 Y.85 Z105.714 E4.29668
G1 X107.256 Y.85 Z101.229 E4.56222
G1 X108.468 Y.85 Z101.229 E4.61296
G1 X103.983 Y.85 Z105.714 E4.87851
G1 X105.195 Y.85 Z105.714 E4.92925
M73 P10 R7
G1 X108.571 Y.85 Z102.338 E5.12914
G1 X108.571 Y.85 Z103.55 E5.17988
G1 X106.407 Y.85 Z105.714 E5.30802
G1 X107.619 Y.85 Z105.714 E5.35876
G1 X108.571 Y.85 Z104.762 E5.41514
G1 X108.571 Y.85 Z105.714 E5.45501
G1 X107.797 Y.85 Z105.714 E5.4874
; stop printing object default_cube_10x10x10.stl id:0 copy 0
M106 S255
;LAYER_CHANGE
;Z:1.15
;HEIGHT:0.3
; Layer 3
;_SET_FAN_SPEED_CHANGING_LAYER
; printing object default_cube_10x10x10.stl id:0 copy 0
M204 S10000
G1 E4.6874 F2400
G92 E0
G1 X95.1 Y1.15 Z103.536 F7200
G1 E.8 F1800
M204 S500
;TYPE:Outer wall
;WIDTH:0.38292
;HEIGHT:0.2
G1 F600
G1 X104.9 Y1.15 Z103.536 E1.07706
; stop printing object default_cube_10x10x10.stl id:0 copy 0
;LAYER_CHANGE
;Z:1.35
;HEIGHT:0.2
; Layer 4
;_SET_FAN_SPEED_CHANGING_LAYER
; printing object default_cube_10x10x10.stl id:0 copy 0
M204 S10000
G1 E.27706 F2400
G92 E0
G1 X95.3 Y1.35 Z103.536 F7200
G1 E.8 F1800
M204 S500
;WIDTH:0.557078
G1 F600
G1 X104.7 Y1.35 Z103.536 E1.20187
; stop printing object default_cube_10x10x10.stl id:0 copy 0
;LAYER_CHANGE
;Z:1.55
;HEIGHT:0.2
; Layer 5
;_SET_FAN_SPEED_CHANGING_LAYER
; printing object default_cube_10x10x10.stl id:0 copy 0
M204 S10000
G1 E.40187 F2400
G92 E0
G1 X95.25 Y1.55 Z103.286 F7200
G1 E.8 F1800
M204 S500
;WIDTH:0.499999
G1 F600
G1 X104.75 Y1.55 Z103.286 E1.16106
G1 X104.75 Y1.55 Z103.786 E1.18006
G1 X95.25 Y1.55 Z103.786 E1.54112
G1 X95.25 Y1.55 Z103.326 E1.55861
M73 P11 R7
; stop printing object default_cube_10x10x10.stl id:0 copy 0
;LAYER_CHANGE
;Z:1.75
;HEIGHT:0.2
; Layer 6
;_SET_FAN_SPEED_CHANGING_LAYER
; printing object default_cube_10x10x10.stl id:0 copy 0
G1 X95.225 Y1.75 Z103.061 F7200
;WIDTH:0.449999
G1 F600
G1 X104.775 Y1.75 Z103.061 E1.88186
G1 X104.775 Y1.75 Z104.011 E1.91402
G1 X95.225 Y1.75 Z104.011 E2.23727
G1 X95.225 Y1.75 Z103.101 E2.26808
M204 S10000
G1 X95.7 Y1.75 Z103.536 F7200
;TYPE:Inner wall
;WIDTH:0.54292
G1 F600
G1 X104.3 Y1.75 Z103.536 E2.62562
; stop printing object default_cube_10x10x10.stl id:0 copy 0
;LAYER_CHANGE
;Z:1.95
;HEIGHT:0.2
; Layer 7
;_SET_FAN_SPEED_CHANGING_LAYER
; printing object default_cube_10x10x10.stl id:0 copy 0
G1 E1.82562 F2400
G92 E0
G1 X95.675 Y1.95 Z103.311 F7200
G1 E.8 F1800
;WIDTH:0.49292
G1 F600
G1 X104.325 Y1.95 Z103.311 E1.12366
G1 X104.325 Y1.95 Z103.761 E1.1405
G1 X95.675 Y1.95 Z103.761 E1.46416
G1 X95.675 Y1.95 Z103.351 E1.47951
M73 P12 R7
M204 S500
G1 X95.225 Y1.95 Z102.861 F7200
;TYPE:Outer wall
;WIDTH:0.449999
G1 F600
G1 X104.775 Y1.95 Z102.861 E1.80276
G1 X104.775 Y1.95 Z104.211 E1.84846
G1 X95.225 Y1.95 Z104.211 E2.17171
G1 X95.225 Y1.95 Z102.901 E2.21605
; stop printing object default_cube_10x10x10.stl id:0 copy 0
;LAYER_CHANGE
;Z:2.15
;HEIGHT:0.2
; Layer 8
;_SET_FAN_SPEED_CHANGING_LAYER
; printing object default_cube_10x10x10.stl id:0 copy 0
M204 S10000
G1 X95.654 Y2.15 Z103.089 F7200
;TYPE:Inner wall
G1 F600
G1 X104.346 Y2.15 Z103.089 E2.5103
G1 X104.346 Y2.15 Z103.982 E2.54052
G1 X95.654 Y2.15 Z103.982 E2.83477
G1 X95.654 Y2.15 Z103.129 E2.86364
M204 S500
G1 X95.225 Y2.15 Z102.661 F7200
M73 P13 R7
;TYPE:Outer wall
G1 F600
G1 X104.775 Y2.15 Z102.661 E3.1869
G1 X104.775 Y2.15 Z104.411 E3.24613
G1 X95.225 Y2.15 Z104.411 E3.56939
G1 X95.225 Y2.15 Z102.701 E3.62727
M204 S10000
G1 X96.1 Y2.15 Z103.536 F7200
M204 S500
;TYPE:Internal solid infill
;WIDTH:0.528764
G1 F600
G1 X103.86 Y2.15 Z103.536 E3.94076
; stop printing object default_cube_10x10x10.stl id:0 copy 0
M106 S252
;LAYER_CHANGE
;Z:2.35
;HEIGHT:0.2
; Layer 9
;_SET_FAN_SPEED_CHANGING_LAYER
; printing object default_cube_10x10x10.stl id:0 copy 0
M204 S10000
G1 E3.14076 F2400
G92 E0
G1 X95.654 Y2.35 Z102.889 F7200
G1 E.8 F1800
;TYPE:Inner wall
;WIDTH:0.449999
G1 F719
G1 X104.346 Y2.35 Z102.889 E1.09424
G1 X104.346 Y2.35 Z104.182 E1.13801
G1 X95.654 Y2.35 Z104.182 E1.43225
G1 X95.654 Y2.35 Z102.929 E1.47466
M73 P14 R7
M204 S500
G1 X95.225 Y2.35 Z102.461 F7200
;TYPE:Outer wall
G1 F719
G1 X104.775 Y2.35 Z102.461 E1.79792
G1 X104.775 Y2.35 Z104.611 E1.87069
G1 X95.225 Y2.35 Z104.611 E2.19395
G1 X95.225 Y2.35 Z102.501 E2.26537
M204 S10000
G1 X96.079 Y2.35 Z103.314 F7200
M204 S500
;TYPE:Internal solid infill
;WIDTH:0.485842
G1 F719
G1 X96.079 Y2.35 Z103.757 E2.28168
G1 X103.921 Y2.35 Z103.757 E2.57053
G1 X103.921 Y2.35 Z103.314 E2.58684
G1 X96.119 Y2.35 Z103.314 E2.87422
; stop printing object default_cube_10x10x10.stl id:0 copy 0
;LAYER_CHANGE
;Z:2.55
;HEIGHT:0.2
; Layer 10
;_SET_FAN_SPEED_CHANGING_LAYER
; printing object default_cube_10x10x10.stl id:0 copy 0
M204 S10000
G1 X95.654 Y2.55 Z102.689 F7200
;TYPE:Inner wall
;WIDTH:0.449999
G1 F834
G1 X104.346 Y2.55 Z102.689 E3.16846
G1 X104.346 Y2.55 Z104.382 E3.22577
G1 X95.654 Y2.55 Z104.382 E3.52001
G1 X95.654 Y2.55 Z102.729 E3.57596
M73 P15 R7
M204 S500
G1 X95.225 Y2.55 Z102.261 F7200
;TYPE:Outer wall
G1 F834
G1 X104.775 Y2.55 Z102.261 E3.89922
G1 X104.775 Y2.55 Z104.811 E3.98553
G1 X95.225 Y2.55 Z104.811 E4.30879
G1 X95.225 Y2.55 Z102.301 E4.39375
M204 S10000
G1 X96.061 Y2.55 Z103.096 F7200
M204 S500
;TYPE:Internal solid infill
G1 F834
G1 X96.061 Y2.55 Z103.975 E4.42349
G1 X103.939 Y2.55 Z103.975 E4.69018
G1 X103.939 Y2.55 Z103.096 E4.71993
G1 X96.101 Y2.55 Z103.096 E4.98526
M204 S10000
G1 X96.5 Y2.55 Z103.536 F7200
M204 S500
;WIDTH:0.514606
G1 F834
G1 X103.46 Y2.55 Z103.536 E5.25824
; stop printing object default_cube_10x10x10.stl id:0 copy 0
;LAYER_CHANGE
;Z:2.75
;HEIGHT:0.2
; Layer 11
;_SET_FAN_SPEED_CHANGING_LAYER
; printing object default_cube_10x10x10.stl id:0 copy 0
M204 S10000
G1 E4.45824 F2400
M73 P15 R6
G92 E0
G1 X95.654 Y2.75 Z102.489 F7200
G1 E.8 F1800
;TYPE:Inner wall
;WIDTH:0.449999
G1 F959
G1 X104.346 Y2.75 Z102.489 E1.09424
G1 X104.346 Y2.75 Z104.582 E1.16509
G1 X95.654 Y2.75 Z104.582 E1.45933
M73 P16 R6
G1 X95.654 Y2.75 Z102.529 E1.52882
M204 S500
G1 X95.225 Y2.75 Z102.061 F7200
;TYPE:Outer wall
G1 F959
G1 X104.775 Y2.75 Z102.061 E1.85208
G1 X104.775 Y2.75 Z105.011 E1.95193
G1 X95.225 Y2.75 Z105.011 E2.27519
G1 X95.225 Y2.75 Z102.101 E2.37369
M204 S10000
G1 X96.061 Y2.75 Z102.896 F7200
M204 S500
;TYPE:Internal solid infill
G1 F959
G1 X96.061 Y2.75 Z104.175 E2.41697
G1 X103.939 Y2.75 Z104.175 E2.68366
G1 X103.939 Y2.75 Z102.896 E2.72694
G1 X96.101 Y2.75 Z102.896 E2.99228
M204 S10000
G1 X96.482 Y2.75 Z103.318 F7200
M204 S500
;WIDTH:0.478763
G1 F959
G1 X96.482 Y2.75 Z103.753 E3.00807
G1 X103.518 Y2.75 Z103.753 E3.26305
G1 X103.518 Y2.75 Z103.318 E3.27885
G1 X96.522 Y2.75 Z103.318 E3.53238
; stop printing object default_cube_10x10x10.stl id:0 copy 0
;LAYER_CHANGE
;Z:2.95
;HEIGHT:0.2
; Layer 12
;_SET_FAN_SPEED_CHANGING_LAYER
; printing object default_cube_10x10x10.stl id:0 copy 0
M204 S10000
G1 X95.654 Y2.95 Z102.289 F7200
;TYPE:Inner wall
;WIDTH:0.449999
G1 F1108
G1 X104.346 Y2.95 Z102.289 E3.82663
G1 X104.346 Y2.95 Z104.782 E3.91101
M73 P17 R6
G1 X95.654 Y2.95 Z104.782 E4.20525
G1 X95.654 Y2.95 Z102.329 E4.28828
M204 S500
G1 X95.225 Y2.95 Z101.861 F7200
;TYPE:Outer wall
G1 F1108
G1 X104.775 Y2.95 Z101.861 E4.61154
G1 X104.775 Y2.95 Z105.211 E4.72493
G1 X95.225 Y2.95 Z105.211 E5.04819
G1 X95.225 Y2.95 Z101.901 E5.16023
M204 S10000
G1 E4.36023 F2400
G92 E0
G1 X96.9 Y2.95 Z103.536 F7200
G1 E.8 F1800
M204 S500
;TYPE:Internal solid infill
;WIDTH:0.500448
G1 F1108
G1 X103.06 Y2.95 Z103.536 E1.03435
M204 S10000
G1 E.23435 F2400
G92 E0
G1 X96.468 Y2.95 Z103.103 F7200
G1 E.8 F1800
M204 S500
;WIDTH:0.449999
G1 F1108
G1 X96.468 Y2.95 Z103.968 E.82927
G1 X103.532 Y2.95 Z103.968 E1.06839
G1 X103.532 Y2.95 Z103.103 E1.09766
G1 X96.508 Y2.95 Z103.103 E1.33543
M204 S10000
G1 X96.061 Y2.95 Z102.696 F7200
M204 S500
G1 F1108
G1 X96.061 Y2.95 Z104.375 E1.39226
G1 X103.939 Y2.95 Z104.375 E1.65895
G1 X103.939 Y2.95 Z102.696 E1.71577
M73 P18 R6
G1 X96.101 Y2.95 Z102.696 E1.9811
; stop printing object default_cube_10x10x10.stl id:0 copy 0
;LAYER_CHANGE
;Z:3.15
;HEIGHT:0.2
; Layer 13
;_SET_FAN_SPEED_CHANGING_LAYER
; printing object default_cube_10x10x10.stl id:0 copy 0
M204 S10000
G1 X95.654 Y3.15 Z102.089 F7200
;TYPE:Inner wall
G1 F1212
G1 X104.346 Y3.15 Z102.089 E2.27535
G1 X104.346 Y3.15 Z104.982 E2.37327
G1 X95.654 Y3.15 Z104.982 E2.66751
G1 X95.654 Y3.15 Z102.129 E2.76408
M204 S500
G1 X95.225 Y3.15 Z101.661 F7200
;TYPE:Outer wall
G1 F1212
G1 X104.775 Y3.15 Z101.661 E3.08734
G1 X104.775 Y3.15 Z105.411 E3.21427
G1 X95.225 Y3.15 Z105.411 E3.53753
G1 X95.225 Y3.15 Z101.701 E3.66311
M204 S10000
G1 E2.86311 F2400
G92 E0
G1 X96.886 Y3.15 Z103.321 F7200
G1 E.8 F1800
M204 S500
;TYPE:Internal solid infill
;WIDTH:0.471683
G1 F1212
G1 X96.886 Y3.15 Z103.75 E.81529
G1 X103.114 Y3.15 Z103.75 E1.03735
G1 X103.114 Y3.15 Z103.321 E1.05264
G1 X96.926 Y3.15 Z103.321 E1.27328
M204 S10000
G1 X96.468 Y3.15 Z102.903 F7200
M204 S500
;WIDTH:0.449999
G1 F1212
G1 X96.468 Y3.15 Z104.168 E1.31609
G1 X103.532 Y3.15 Z104.168 E1.55521
G1 X103.532 Y3.15 Z102.903 E1.59802
G1 X96.508 Y3.15 Z102.903 E1.83579
M204 S10000
G1 X96.061 Y3.15 Z102.496 F7200
M73 P19 R6
M204 S500
G1 F1212
G1 X96.061 Y3.15 Z104.575 E1.90616
G1 X103.939 Y3.15 Z104.575 E2.17284
G1 X103.939 Y3.15 Z102.496 E2.24321
G1 X96.101 Y3.15 Z102.496 E2.50854
; stop printing object default_cube_10x10x10.stl id:0 copy 0
;LAYER_CHANGE
