; HEADER_BLOCK_START
; belt_printer = 1
; belt_angle = 45.00
; generated by OrcaSlicer 2.3.2-dev on 2026-01-07 at 23:20:13
; total layer number: 49
; filament_density: 0
; filament_diameter: 1.75
; max_z_height: 10.00
; filament: 1
; HEADER_BLOCK_END

; external perimeters extrusion width = 0.45mm
; perimeters extrusion width = 0.45mm
; infill extrusion width = 0.45mm
; solid infill extrusion width = 0.45mm
; top infill extrusion width = 0.40mm

; EXECUTABLE_BLOCK_START
M73 P0 R4
M201 X20000 Y20000 Z500 E5000
M203 X500 Y500 Z20 E30
M204 P20000 R5000 T20000
M205 X10.00 Y10.00 Z0.20 E2.50 ; sets the jerk limits, mm/sec
;TYPE:Custom
M140 S90 ; Start Bed heating
G4 S150 ; Wait 150s (2.5m) for Bed lead time
M104 S240 ; Start Extruder heating
M190 S90 ; Wait for Bed
M109 S240 ; Wait for Extruder
G28 ; home all axes
G1 Y0 F3000 ; ensure gantry is at bed contact
M82 ; absolute extrusion
G92 E0 ; reset extruder
G1 E15 F1000 ; prime extruder
G1 Z20 E25 F800 ; move belt Z20 (part 1 of L)
G1 X250 E50 F2000 ; 250mm prime line on X (part 2 of L)
G1 X0 E75 F2000 ; Return to X0 to thicken anchor
M73 P3 R4
G92 Z0 ; reset belt position to 0 (Logical 0 starts at physical Z20)
G1 Y0.2 ; set nozzle to first layer height
M73 P5 R4
G92 E0 ; reset extruder positions
G90
G21
M82 ; use absolute distances for extrusion
G92 E0
; Filament start\nM900 K0
M106 S0
;LAYER_CHANGE
;Z:0.4
;HEIGHT:0.4
; Layer 0
;_SET_FAN_SPEED_CHANGING_LAYER
M204 S300
G1 E-.8 F2400
G92 E0
G1 X120 Y4.453 Z.4
G1 X120 Y4.453 Z.4 F7200
M73 P6 R4
G1 E.8 F1800
;TYPE:Skirt
;WIDTH:0.45
G1 F600
G1 X130 Y4.453 Z.4 E1.4056
G1 X131.246 Y4.844 Z.4 E1.48469
M73 P7 R4
G1 X132.046 Y5.877 Z.4 E1.56378
G1 X132.182 Y7.036 Z.4 E1.63444
G1 X131.791 Y8.282 Z.4 E1.71353
G1 X130.759 Y9.081 Z.4 E1.79262
G1 X130 Y9.218 Z.4 E1.83931
G1 X120 Y9.218 Z.4 E2.44491
G1 X118.754 Y8.827 Z.4 E2.524
G1 X117.954 Y7.794 Z.4 E2.60309
G1 X117.818 Y6.636 Z.4 E2.67375
G1 X118.209 Y5.389 Z.4 E2.75284
G1 X119.241 Y4.59 Z.4 E2.83193
G1 X119.961 Y4.461 Z.4 E2.87619
M73 P8 R4
; EXCLUDE_OBJECT_END
; printing object cube_compensated.stl id:0 copy 0
G1 E2.07619 F2400
G92 E0
G1 X120.2 Y6.836 Z.4 F7200
G1 E.8 F1800
;TYPE:Outer wall
;WIDTH:0.425841
G1 F600
G1 X129.8 Y6.836 Z.4 E1.34281
; EXCLUDE_OBJECT_END
; stop printing object cube_compensated.stl id:0 copy 0
M106 S255
;LAYER_CHANGE
;Z:0.6
;HEIGHT:0.2
; Layer 1
;_SET_FAN_SPEED_CHANGING_LAYER
M204 S500
; printing object cube_compensated.stl id:0 copy 0
M204 S10000
G1 E.54281 F2400
G92 E0
G1 X120.25 Y6.586 Z.6 F7200
G1 E.8 F1800
M204 S500
;WIDTH:0.499999
G1 F600
G1 X129.75 Y6.586 Z.6 E1.16106
G1 X129.75 Y7.086 Z.6 E1.18006
G1 X120.25 Y7.086 Z.6 E1.54112
G1 X120.25 Y6.626 Z.6 E1.55861
M73 P9 R4
; EXCLUDE_OBJECT_END
; stop printing object cube_compensated.stl id:0 copy 0
;LAYER_CHANGE
;Z:0.8
;HEIGHT:0.2
; Layer 2
;_SET_FAN_SPEED_CHANGING_LAYER
; printing object cube_compensated.stl id:0 copy 0
G1 X120.225 Y6.361 Z.8 F7200
;WIDTH:0.449999
G1 F600
G1 X129.775 Y6.361 Z.8 E1.88186
G1 X129.775 Y7.311 Z.8 E1.91402
G1 X120.225 Y7.311 Z.8 E2.23727
G1 X120.225 Y6.401 Z.8 E2.26808
; EXCLUDE_OBJECT_END
M204 S10000
G1 X120.7 Y6.836 Z.8 F7200
;TYPE:Inner wall
;WIDTH:0.54292
G1 F600
G1 X129.3 Y6.836 Z.8 E2.62562
; EXCLUDE_OBJECT_END
; stop printing object cube_compensated.stl id:0 copy 0
;LAYER_CHANGE
;Z:1
;HEIGHT:0.2
; Layer 3
;_SET_FAN_SPEED_CHANGING_LAYER
; printing object cube_compensated.stl id:0 copy 0
G1 E1.82562 F2400
M73 P10 R4
G92 E0
G1 X120.675 Y6.611 Z1 F7200
G1 E.8 F1800
;WIDTH:0.49292
G1 F600
G1 X129.325 Y6.611 Z1 E1.12366
G1 X129.325 Y7.061 Z1 E1.1405
G1 X120.675 Y7.061 Z1 E1.46416
G1 X120.675 Y6.651 Z1 E1.4795
; EXCLUDE_OBJECT_END
M204 S500
G1 X120.225 Y6.161 Z1 F7200
;TYPE:Outer wall
;WIDTH:0.449999
G1 F600
G1 X129.775 Y6.161 Z1 E1.80276
G1 X129.775 Y7.511 Z1 E1.84846
M73 P11 R4
G1 X120.225 Y7.511 Z1 E2.17171
G1 X120.225 Y6.201 Z1 E2.21605
; EXCLUDE_OBJECT_END
; stop printing object cube_compensated.stl id:0 copy 0
;LAYER_CHANGE
;Z:1.2
;HEIGHT:0.2
; Layer 4
;_SET_FAN_SPEED_CHANGING_LAYER
; printing object cube_compensated.stl id:0 copy 0
M204 S10000
G1 X120.654 Y6.389 Z1.2 F7200
;TYPE:Inner wall
G1 F600
G1 X129.346 Y6.389 Z1.2 E2.5103
G1 X129.346 Y7.282 Z1.2 E2.54052
G1 X120.654 Y7.282 Z1.2 E2.83477
G1 X120.654 Y6.429 Z1.2 E2.86364
M73 P12 R4
; EXCLUDE_OBJECT_END
M204 S500
G1 X120.225 Y5.961 Z1.2 F7200
;TYPE:Outer wall
G1 F600
G1 X129.775 Y5.961 Z1.2 E3.18689
G1 X129.775 Y7.711 Z1.2 E3.24613
G1 X120.225 Y7.711 Z1.2 E3.56938
G1 X120.225 Y6.001 Z1.2 E3.62727
; EXCLUDE_OBJECT_END
; stop printing object cube_compensated.stl id:0 copy 0
M106 S252
;LAYER_CHANGE
;Z:1.4
;HEIGHT:0.2
; Layer 5
;_SET_FAN_SPEED_CHANGING_LAYER
; printing object cube_compensated.stl id:0 copy 0
M204 S10000
G1 X120.654 Y6.189 Z1.4 F7200
;TYPE:Inner wall
G1 F719
M73 P13 R4
G1 X129.346 Y6.189 Z1.4 E3.92151
G1 X129.346 Y7.482 Z1.4 E3.96527
G1 X120.654 Y7.482 Z1.4 E4.25952
G1 X120.654 Y6.229 Z1.4 E4.30193
; EXCLUDE_OBJECT_END
M204 S500
G1 X120.225 Y5.761 Z1.4 F7200
;TYPE:Outer wall
G1 F719
G1 X129.775 Y5.761 Z1.4 E4.62518
G1 X129.775 Y7.911 Z1.4 E4.69796
G1 X120.225 Y7.911 Z1.4 E5.02122
G1 X120.225 Y5.801 Z1.4 E5.09264
M73 P14 R4
; EXCLUDE_OBJECT_END
M204 S10000
G1 X121.079 Y6.614 Z1.4 F7200
M204 S500
;TYPE:Internal solid infill
;WIDTH:0.485842
G1 F719
G1 X121.079 Y7.057 Z1.4 E5.10895
G1 X128.921 Y7.057 Z1.4 E5.3978
G1 X128.921 Y6.614 Z1.4 E5.41411
G1 X121.119 Y6.614 Z1.4 E5.70148
; EXCLUDE_OBJECT_END
; stop printing object cube_compensated.stl id:0 copy 0
;LAYER_CHANGE
;Z:1.6
;HEIGHT:0.2
; Layer 6
;_SET_FAN_SPEED_CHANGING_LAYER
; printing object cube_compensated.stl id:0 copy 0
M204 S10000
G1 X120.654 Y5.989 Z1.6 F7200
;TYPE:Inner wall
;WIDTH:0.449999
G1 F750
G1 X129.346 Y5.989 Z1.6 E5.99573
G1 X129.346 Y7.682 Z1.6 E6.05303
G1 X120.654 Y7.682 Z1.6 E6.34728
G1 X120.654 Y6.029 Z1.6 E6.40323
M73 P15 R4
; EXCLUDE_OBJECT_END
M204 S500
G1 X120.225 Y5.561 Z1.6 F7200
;TYPE:Outer wall
G1 F750
G1 X129.775 Y5.561 Z1.6 E6.72648
G1 X129.775 Y8.111 Z1.6 E6.8128
G1 X120.225 Y8.111 Z1.6 E7.13605
G1 X120.225 Y5.601 Z1.6 E7.22101
; EXCLUDE_OBJECT_END
M204 S10000
G1 X121.061 Y6.396 Z1.6 F7200
M204 S500
;TYPE:Internal solid infill
G1 F750
G1 X121.061 Y7.275 Z1.6 E7.25076
G1 X128.939 Y7.275 Z1.6 E7.51744
G1 X128.939 Y6.396 Z1.6 E7.54719
M73 P16 R4
G1 X121.101 Y6.396 Z1.6 E7.81252
; EXCLUDE_OBJECT_END
; stop printing object cube_compensated.stl id:0 copy 0
;LAYER_CHANGE
;Z:1.8
;HEIGHT:0.2
; Layer 7
;_SET_FAN_SPEED_CHANGING_LAYER
; printing object cube_compensated.stl id:0 copy 0
M204 S10000
G1 X120.654 Y5.789 Z1.8 F7200
;TYPE:Inner wall
G1 F959
G1 X129.346 Y5.789 Z1.8 E8.10677
G1 X129.346 Y7.882 Z1.8 E8.17761
G1 X120.654 Y7.882 Z1.8 E8.47185
G1 X120.654 Y5.829 Z1.8 E8.54134
; EXCLUDE_OBJECT_END
M204 S500
G1 X120.225 Y5.361 Z1.8 F7200
;TYPE:Outer wall
G1 F959
G1 X129.775 Y5.361 Z1.8 E8.8646
G1 X129.775 Y8.311 Z1.8 E8.96445
M73 P17 R4
G1 X120.225 Y8.311 Z1.8 E9.28771
G1 X120.225 Y5.401 Z1.8 E9.38621
; EXCLUDE_OBJECT_END
M204 S10000
G1 X121.061 Y6.196 Z1.8 F7200
M204 S500
;TYPE:Internal solid infill
G1 F959
G1 X121.061 Y7.475 Z1.8 E9.42949
G1 X128.939 Y7.475 Z1.8 E9.69618
G1 X128.939 Y6.196 Z1.8 E9.73946
G1 X121.101 Y6.196 Z1.8 E10.0048
; EXCLUDE_OBJECT_END
M204 S10000
G1 X121.482 Y6.618 Z1.8 F7200
M204 S500
;WIDTH:0.478763
G1 F959
G1 X121.482 Y7.053 Z1.8 E10.02059
G1 X128.518 Y7.053 Z1.8 E10.27557
G1 X128.518 Y6.618 Z1.8 E10.29137
G1 X121.522 Y6.618 Z1.8 E10.5449
; EXCLUDE_OBJECT_END
; stop printing object cube_compensated.stl id:0 copy 0
;LAYER_CHANGE
;Z:2
;HEIGHT:0.2
; Layer 8
;_SET_FAN_SPEED_CHANGING_LAYER
; printing object cube_compensated.stl id:0 copy 0
M204 S10000
G1 X120.654 Y5.589 Z2 F7200
M73 P18 R4
;TYPE:Inner wall
;WIDTH:0.449999
G1 F999
G1 X129.346 Y5.589 Z2 E10.83915
G1 X129.346 Y8.082 Z2 E10.92353
G1 X120.654 Y8.082 Z2 E11.21777
G1 X120.654 Y5.629 Z2 E11.3008
; EXCLUDE_OBJECT_END
M204 S500
G1 X120.225 Y5.161 Z2 F7200
;TYPE:Outer wall
G1 F999
G1 X129.775 Y5.161 Z2 E11.62406
G1 X129.775 Y8.511 Z2 E11.73745
G1 X120.225 Y8.511 Z2 E12.06071
G1 X120.225 Y5.201 Z2 E12.17275
M73 P19 R4
; EXCLUDE_OBJECT_END
M204 S10000
G1 X121.061 Y5.996 Z2 F7200
M204 S500
;TYPE:Internal solid infill
G1 F999
G1 X121.061 Y7.675 Z2 E12.22957
G1 X128.939 Y7.675 Z2 E12.49626
G1 X128.939 Y5.996 Z2 E12.55308
G1 X121.101 Y5.996 Z2 E12.81841
; EXCLUDE_OBJECT_END
M204 S10000
G1 X121.468 Y6.403 Z2 F7200
M204 S500
G1 F999
G1 X121.468 Y7.268 Z2 E12.84768
G1 X128.532 Y7.268 Z2 E13.08681
G1 X128.532 Y6.403 Z2 E13.11607
G1 X121.508 Y6.403 Z2 E13.35385
; EXCLUDE_OBJECT_END
; stop printing object cube_compensated.stl id:0 copy 0
;LAYER_CHANGE
;Z:2.2
;HEIGHT:0.2
; Layer 9
;_SET_FAN_SPEED_CHANGING_LAYER
; printing object cube_compensated.stl id:0 copy 0
M204 S10000
G1 X120.654 Y5.389 Z2.2 F7200
;TYPE:Inner wall
G1 F1212
G1 X129.346 Y5.389 Z2.2 E13.64809
G1 X129.346 Y8.282 Z2.2 E13.74601
M73 P20 R3
G1 X120.654 Y8.282 Z2.2 E14.04026
G1 X120.654 Y5.429 Z2.2 E14.13683
; EXCLUDE_OBJECT_END
M204 S500
G1 X120.225 Y4.961 Z2.2 F7200
;TYPE:Outer wall
G1 F1212
G1 X129.775 Y4.961 Z2.2 E14.46008
G1 X129.775 Y8.711 Z2.2 E14.58701
G1 X120.225 Y8.711 Z2.2 E14.91027
G1 X120.225 Y5.001 Z2.2 E15.03585
; EXCLUDE_OBJECT_END
M204 S10000
G1 E14.23585 F2400
G92 E0
G1 X121.886 Y6.621 Z2.2 F7200
G1 E.8 F1800
M204 S500
;TYPE:Internal solid infill
;WIDTH:0.471684
G1 F1212
G1 X121.886 Y7.05 Z2.2 E.81529
G1 X128.114 Y7.05 Z2.2 E1.03735
G1 X128.114 Y6.621 Z2.2 E1.05264
G1 X121.926 Y6.621 Z2.2 E1.27328
; EXCLUDE_OBJECT_END
M204 S10000
G1 X121.468 Y6.203 Z2.2 F7200
M204 S500
;WIDTH:0.449999
G1 F1212
M73 P21 R3
G1 X121.468 Y7.468 Z2.2 E1.31609
G1 X128.532 Y7.468 Z2.2 E1.55521
G1 X128.532 Y6.203 Z2.2 E1.59802
G1 X121.508 Y6.203 Z2.2 E1.83579
; EXCLUDE_OBJECT_END
M204 S10000
G1 X121.061 Y5.796 Z2.2 F7200
M204 S500
G1 F1212
G1 X121.061 Y7.875 Z2.2 E1.90616
G1 X128.939 Y7.875 Z2.2 E2.17284
G1 X128.939 Y5.796 Z2.2 E2.24321
G1 X121.101 Y5.796 Z2.2 E2.50854
; EXCLUDE_OBJECT_END
; stop printing object cube_compensated.stl id:0 copy 0
;LAYER_CHANGE
;Z:2.4
;HEIGHT:0.2
; Layer 10
;_SET_FAN_SPEED_CHANGING_LAYER
; printing object cube_compensated.stl id:0 copy 0
M204 S10000
G1 X120.654 Y5.189 Z2.4 F7200
;TYPE:Inner wall
G1 F760
G1 X129.346 Y5.189 Z2.4 E2.80279
G1 X129.346 Y8.482 Z2.4 E2.91425
G1 X120.654 Y8.482 Z2.4 E3.20849
G1 X120.654 Y5.229 Z2.4 E3.3186
M73 P22 R3
; EXCLUDE_OBJECT_END
M204 S500
G1 X120.225 Y4.761 Z2.4 F7200
;TYPE:Outer wall
G1 F760
G1 X129.775 Y4.761 Z2.4 E3.64185
G1 X129.775 Y8.911 Z2.4 E3.78233
G1 X120.225 Y8.911 Z2.4 E4.10558
G1 X120.225 Y4.801 Z2.4 E4.2447
; EXCLUDE_OBJECT_END
M204 S10000
G1 E3.4447 F2400
M73 P23 R3
G92 E0
G1 X123.508 Y7.65 Z2.4 F7200
G1 E.8 F1800
M204 S500
;TYPE:Sparse infill
;WIDTH:0.45
G1 F760
G1 X125.136 Y7.65 Z2.4 E.85512
G1 X124.313 Y6.409 Z2.4 E.90555
G1 X123.964 Y6.06 Z2.4 E.92226
G1 X123.905 Y6.021 Z2.4 E.92465
G1 X128.05 Y6.021 Z2.4 E1.06495
G1 X128.109 Y6.06 Z2.4 E1.06734
G1 X128.458 Y6.409 Z2.4 E1.08406
G1 X129 Y7.227 Z2.4 E1.11729
G1 X129 Y7.65 Z2.4 E1.13162
G1 X127.796 Y7.65 Z2.4 E1.17241
; EXCLUDE_OBJECT_END
; stop printing object cube_compensated.stl id:0 copy 0
;LAYER_CHANGE
;Z:2.6
;HEIGHT:0.2
; Layer 11
;_SET_FAN_SPEED_CHANGING_LAYER
; printing object cube_compensated.stl id:0 copy 0
M204 S10000
G1 E.37241 F2400
G92 E0
G1 X120.654 Y4.989 Z2.6 F7200
G1 E.8 F1800
;TYPE:Inner wall
;WIDTH:0.449999
G1 F782
G1 X129.346 Y4.989 Z2.6 E1.09424
G1 X129.346 Y8.682 Z2.6 E1.21925
G1 X120.654 Y8.682 Z2.6 E1.51349
G1 X120.654 Y5.029 Z2.6 E1.63714
; EXCLUDE_OBJECT_END
M204 S500
G1 X120.225 Y4.561 Z2.6 F7200
M73 P24 R3
;TYPE:Outer wall
G1 F782
G1 X129.775 Y4.561 Z2.6 E1.96039
G1 X129.775 Y9.111 Z2.6 E2.1144
G1 X120.225 Y9.111 Z2.6 E2.43766
G1 X120.225 Y4.601 Z2.6 E2.59032
; EXCLUDE_OBJECT_END
M204 S10000
G1 E1.79032 F2400
G92 E0
G1 X123.502 Y7.85 Z2.6 F7200
G1 E.8 F1800
M204 S500
;TYPE:Sparse infill
;WIDTH:0.45
G1 F782
G1 X125.131 Y7.85 Z2.6 E.85512
G1 X124.666 Y6.409 Z2.6 E.90638
G1 X124.078 Y5.821 Z2.6 E.93454
G1 X128.223 Y5.821 Z2.6 E1.07484
G1 X128.811 Y6.409 Z2.6 E1.103
M73 P25 R3
G1 X129 Y6.996 Z2.6 E1.12387
G1 X129 Y7.85 Z2.6 E1.1528
G1 X128.227 Y7.85 Z2.6 E1.17899
; EXCLUDE_OBJECT_END
; stop printing object cube_compensated.stl id:0 copy 0
;LAYER_CHANGE
;Z:2.8
;HEIGHT:0.2
; Layer 12
;_SET_FAN_SPEED_CHANGING_LAYER
; printing object cube_compensated.stl id:0 copy 0
M204 S10000
G1 E.37899 F2400
G92 E0
G1 X120.654 Y4.789 Z2.8 F7200
G1 E.8 F1800
;TYPE:Inner wall
;WIDTH:0.449999
G1 F800
G1 X129.346 Y4.789 Z2.8 E1.09424
G1 X129.346 Y8.882 Z2.8 E1.23278
G1 X120.654 Y8.882 Z2.8 E1.52703
G1 X120.654 Y4.829 Z2.8 E1.66422
; EXCLUDE_OBJECT_END
M204 S500
G1 X120.225 Y4.361 Z2.8 F7200
;TYPE:Outer wall
G1 F800
G1 X129.775 Y4.361 Z2.8 E1.98747
G1 X129.775 Y9.311 Z2.8 E2.15502
M73 P26 R3
G1 X120.225 Y9.311 Z2.8 E2.47828
G1 X120.225 Y4.401 Z2.8 E2.64448
; EXCLUDE_OBJECT_END
M204 S10000
G1 E1.84448 F2400
G92 E0
G1 X123.36 Y8.05 Z2.8 F7200
G1 E.8 F1800
M204 S500
;TYPE:Sparse infill
;WIDTH:0.45
G1 F800
G1 X124.988 Y8.05 Z2.8 E.85512
G1 X125.02 Y6.409 Z2.8 E.9107
G1 X124.232 Y5.621 Z2.8 E.94843
G1 X128.377 Y5.621 Z2.8 E1.08873
G1 X129 Y6.244 Z2.8 E1.11858
G1 X129 Y7.872 Z2.8 E1.1737
; EXCLUDE_OBJECT_END
; stop printing object cube_compensated.stl id:0 copy 0
;LAYER_CHANGE
;Z:3
;HEIGHT:0.2
; Layer 13
;_SET_FAN_SPEED_CHANGING_LAYER
; printing object cube_compensated.stl id:0 copy 0
M204 S10000
G1 E.3737 F2400
G92 E0
G1 X120.654 Y4.589 Z3 F7200
G1 E.8 F1800
;TYPE:Inner wall
;WIDTH:0.449999
G1 F827
G1 X129.346 Y4.589 Z3 E1.09424
G1 X129.346 Y9.082 Z3 E1.24632
M73 P27 R3
G1 X120.654 Y9.082 Z3 E1.54057
G1 X120.654 Y4.629 Z3 E1.69129
; EXCLUDE_OBJECT_END
M204 S500
G1 X120.225 Y4.161 Z3 F7200
;TYPE:Outer wall
G1 F827
G1 X129.775 Y4.161 Z3 E2.01455
G1 X129.775 Y9.511 Z3 E2.19564
G1 X120.225 Y9.511 Z3 E2.5189
G1 X120.225 Y4.201 Z3 E2.69863
M73 P28 R3
; EXCLUDE_OBJECT_END
M204 S10000
G1 E1.89863 F2400
G92 E0
G1 X121 Y7.852 Z3 F7200
G1 E.8 F1800
M204 S500
;TYPE:Sparse infill
;WIDTH:0.45
G1 F827
G1 X121 Y6.223 Z3 E.85512
G1 X121.802 Y5.421 Z3 E.89354
G1 X125.947 Y5.421 Z3 E1.03384
G1 X124.959 Y6.409 Z3 E1.08115
G1 X125.032 Y8.25 Z3 E1.14354
G1 X126.66 Y8.25 Z3 E1.19865
; EXCLUDE_OBJECT_END
; stop printing object cube_compensated.stl id:0 copy 0
;LAYER_CHANGE
;Z:3.2
;HEIGHT:0.2
; Layer 14
;_SET_FAN_SPEED_CHANGING_LAYER
; printing object cube_compensated.stl id:0 copy 0
M204 S10000
G1 E.39865 F2400
G92 E0
G1 X120.654 Y4.389 Z3.2 F7200
G1 E.8 F1800
;TYPE:Inner wall
;WIDTH:0.449999
G1 F962
G1 X129.346 Y4.389 Z3.2 E1.09424
G1 X129.346 Y9.282 Z3.2 E1.25986
G1 X120.654 Y9.282 Z3.2 E1.55411
G1 X120.654 Y4.429 Z3.2 E1.71837
M73 P29 R3
; EXCLUDE_OBJECT_END
M204 S500
G1 X120.225 Y3.961 Z3.2 F7200
;TYPE:Outer wall
G1 F962
G1 X129.775 Y3.961 Z3.2 E2.04163
G1 X129.775 Y9.711 Z3.2 E2.23626
G1 X120.225 Y9.711 Z3.2 E2.55952
G1 X120.225 Y4.001 Z3.2 E2.75279
; EXCLUDE_OBJECT_END
M204 S10000
G1 E1.95279 F2400
G92 E0
G1 X125.059 Y5.221 Z3.2 F7200
G1 E.8 F1800
M204 S500
;TYPE:Sparse infill
;WIDTH:0.45
G1 F962
G1 X123.431 Y5.221 Z3.2 E.85512
G1 X121.891 Y5.685 Z3.2 E.90956
G1 X121.168 Y6.409 Z3.2 E.9442
M73 P30 R3
G1 X121 Y6.966 Z3.2 E.96389
G1 X121 Y8.45 Z3.2 E1.01415
G1 X124.697 Y8.45 Z3.2 E1.13929
G1 X125.313 Y6.409 Z3.2 E1.21148
G1 X126.036 Y5.685 Z3.2 E1.24612
G1 X127.576 Y5.221 Z3.2 E1.30056
G1 X129 Y5.221 Z3.2 E1.34877
G1 X129 Y7.924 Z3.2 E1.44029
G1 X128.842 Y8.45 Z3.2 E1.45889
G1 X127.213 Y8.45 Z3.2 E1.51401
; EXCLUDE_OBJECT_END
; stop printing object cube_compensated.stl id:0 copy 0
;LAYER_CHANGE
;Z:3.4
;HEIGHT:0.2
; Layer 15
;_SET_FAN_SPEED_CHANGING_LAYER
; printing object cube_compensated.stl id:0 copy 0
M204 S10000
G1 E.71401 F2400
G92 E0
G1 X120.654 Y4.189 Z3.4 F7200
G1 E.8 F1800
;TYPE:Inner wall
;WIDTH:0.449999
G1 F983
G1 X129.346 Y4.189 Z3.4 E1.09424
G1 X129.346 Y9.482 Z3.4 E1.2734
G1 X120.654 Y9.482 Z3.4 E1.56765
G1 X120.654 Y4.229 Z3.4 E1.74545
; EXCLUDE_OBJECT_END
M204 S500
G1 X120.225 Y3.761 Z3.4 F7200
M73 P31 R3
;TYPE:Outer wall
G1 F983
G1 X129.775 Y3.761 Z3.4 E2.06871
G1 X129.775 Y9.911 Z3.4 E2.27688
G1 X120.225 Y9.911 Z3.4 E2.60013
G1 X120.225 Y3.801 Z3.4 E2.80695
