; HEADER_BLOCK_START
; belt_printer = 1
; belt_angle = 45.00
; generated by OrcaSlicer 2.3.2-dev on 2026-01-07 at 23:31:32
; total layer number: 49
; filament_density: 0
; filament_diameter: 1.75
; max_z_height: 10.00
; filament: 1
; HEADER_BLOCK_END

; external perimeters extrusion width = 0.45mm
; perimeters extrusion width = 0.45mm
; infill extrusion width = 0.45mm
; solid infill extrusion width = 0.45mm
; top infill extrusion width = 0.40mm

; EXECUTABLE_BLOCK_START
M73 P0 R6
M201 X20000 Y20000 Z500 E5000
M203 X500 Y500 Z20 E30
M204 P20000 R5000 T20000
M205 X10.00 Y10.00 Z0.20 E2.50 ; sets the jerk limits, mm/sec
;TYPE:Custom
M140 S90 ; Start Bed heating
G4 S150 ; Wait 150s (2.5m) for Bed lead time
M104 S240 ; Start Extruder heating
M190 S90 ; Wait for Bed
M109 S240 ; Wait for Extruder
G28 ; home all axes
G1 Y0 F3000 ; ensure gantry is at bed contact
M82 ; absolute extrusion
G92 E0 ; reset extruder
G1 E15 F1000 ; prime extruder
G1 Z20 E25 F800 ; move belt Z20 (part 1 of L)
G1 X250 E50 F2000 ; 250mm prime line on X (part 2 of L)
G1 X0 E75 F2000 ; Return to X0 to thicken anchor
M73 P2 R6
G92 Z0 ; reset belt position to 0 (Logical 0 starts at physical Z20)
G1 Y0.2 ; set nozzle to first layer height
M73 P4 R6
G92 E0 ; reset extruder positions
G90
G21
M82 ; use absolute distances for extrusion
G92 E0
; Filament start\nM900 K0
M106 S0
;LAYER_CHANGE
;Z:0.4
;HEIGHT:0.4
; Layer 0
;_SET_FAN_SPEED_CHANGING_LAYER
M204 S300
G1 E-.8 F2400
G92 E0
G1 X120 Y.4 Z4.453
G1 X120 Y.4 Z4.453 F7200
M73 P5 R6
G1 E.8 F1800
;TYPE:Skirt
;WIDTH:0.45
G1 F600
G1 X130 Y.4 Z4.453 E1.4056
G1 X131.246 Y.4 Z4.844 E1.48469
G1 X132.046 Y.4 Z5.877 E1.56378
G1 X132.182 Y.4 Z7.036 E1.63444
G1 X131.791 Y.4 Z8.282 E1.71353
G1 X130.759 Y.4 Z9.081 E1.79262
G1 X130 Y.4 Z9.218 E1.83931
G1 X120 Y.4 Z9.218 E2.44491
G1 X118.754 Y.4 Z8.827 E2.524
M73 P6 R5
G1 X117.954 Y.4 Z7.794 E2.60309
G1 X117.818 Y.4 Z6.636 E2.67375
G1 X118.209 Y.4 Z5.389 E2.75284
G1 X119.241 Y.4 Z4.59 E2.83193
G1 X119.961 Y.4 Z4.461 E2.87619
; EXCLUDE_OBJECT_END
; printing object cube_compensated.stl id:0 copy 0
G1 E2.07619 F2400
G92 E0
G1 X120.2 Y.4 Z6.836 F7200
G1 E.8 F1800
;TYPE:Outer wall
;WIDTH:0.425841
G1 F600
G1 X129.8 Y.4 Z6.836 E1.34281
; EXCLUDE_OBJECT_END
; stop printing object cube_compensated.stl id:0 copy 0
M106 S255
;LAYER_CHANGE
;Z:0.6
;HEIGHT:0.2
; Layer 1
;_SET_FAN_SPEED_CHANGING_LAYER
M204 S500
; printing object cube_compensated.stl id:0 copy 0
M204 S10000
G1 E.54281 F2400
G92 E0
G1 X120.25 Y.6 Z6.586 F7200
G1 E.8 F1800
M204 S500
;WIDTH:0.499999
G1 F600
G1 X129.75 Y.6 Z6.586 E1.16106
G1 X129.75 Y.6 Z7.086 E1.18006
G1 X120.25 Y.6 Z7.086 E1.54112
M73 P7 R5
G1 X120.25 Y.6 Z6.626 E1.55861
; EXCLUDE_OBJECT_END
; stop printing object cube_compensated.stl id:0 copy 0
;LAYER_CHANGE
;Z:0.8
;HEIGHT:0.2
; Layer 2
;_SET_FAN_SPEED_CHANGING_LAYER
; printing object cube_compensated.stl id:0 copy 0
G1 X120.225 Y.8 Z6.361 F7200
;WIDTH:0.449999
G1 F600
G1 X129.775 Y.8 Z6.361 E1.88186
G1 X129.775 Y.8 Z7.311 E1.91402
G1 X120.225 Y.8 Z7.311 E2.23727
G1 X120.225 Y.8 Z6.401 E2.26808
; EXCLUDE_OBJECT_END
M204 S10000
G1 X120.7 Y.8 Z6.836 F7200
;TYPE:Inner wall
;WIDTH:0.54292
G1 F600
G1 X129.3 Y.8 Z6.836 E2.62562
; EXCLUDE_OBJECT_END
; stop printing object cube_compensated.stl id:0 copy 0
;LAYER_CHANGE
;Z:1
;HEIGHT:0.2
; Layer 3
;_SET_FAN_SPEED_CHANGING_LAYER
; printing object cube_compensated.stl id:0 copy 0
G1 E1.82562 F2400
M73 P8 R5
G92 E0
G1 X120.675 Y1 Z6.611 F7200
G1 E.8 F1800
;WIDTH:0.49292
G1 F600
G1 X129.325 Y1 Z6.611 E1.12366
G1 X129.325 Y1 Z7.061 E1.1405
G1 X120.675 Y1 Z7.061 E1.46416
G1 X120.675 Y1 Z6.651 E1.4795
; EXCLUDE_OBJECT_END
M204 S500
G1 X120.225 Y1 Z6.161 F7200
;TYPE:Outer wall
;WIDTH:0.449999
G1 F600
G1 X129.775 Y1 Z6.161 E1.80276
G1 X129.775 Y1 Z7.511 E1.84846
G1 X120.225 Y1 Z7.511 E2.17171
G1 X120.225 Y1 Z6.201 E2.21605
M73 P9 R5
; EXCLUDE_OBJECT_END
; stop printing object cube_compensated.stl id:0 copy 0
;LAYER_CHANGE
;Z:1.2
;HEIGHT:0.2
; Layer 4
;_SET_FAN_SPEED_CHANGING_LAYER
; printing object cube_compensated.stl id:0 copy 0
M204 S10000
G1 X120.654 Y1.2 Z6.389 F7200
;TYPE:Inner wall
G1 F600
G1 X129.346 Y1.2 Z6.389 E2.5103
G1 X129.346 Y1.2 Z7.282 E2.54052
G1 X120.654 Y1.2 Z7.282 E2.83477
G1 X120.654 Y1.2 Z6.429 E2.86364
; EXCLUDE_OBJECT_END
M204 S500
G1 X120.225 Y1.2 Z5.961 F7200
;TYPE:Outer wall
G1 F600
G1 X129.775 Y1.2 Z5.961 E3.18689
G1 X129.775 Y1.2 Z7.711 E3.24613
M73 P10 R5
G1 X120.225 Y1.2 Z7.711 E3.56938
G1 X120.225 Y1.2 Z6.001 E3.62727
; EXCLUDE_OBJECT_END
M204 S10000
G1 X121.1 Y1.2 Z6.836 F7200
M204 S500
;TYPE:Internal solid infill
;WIDTH:0.528764
G1 F600
G1 X128.86 Y1.2 Z6.836 E3.94076
; EXCLUDE_OBJECT_END
; stop printing object cube_compensated.stl id:0 copy 0
M106 S252
;LAYER_CHANGE
;Z:1.4
;HEIGHT:0.2
; Layer 5
;_SET_FAN_SPEED_CHANGING_LAYER
; printing object cube_compensated.stl id:0 copy 0
M204 S10000
G1 E3.14076 F2400
G92 E0
G1 X120.654 Y1.4 Z6.189 F7200
G1 E.8 F1800
;TYPE:Inner wall
;WIDTH:0.449999
G1 F719
G1 X129.346 Y1.4 Z6.189 E1.09424
G1 X129.346 Y1.4 Z7.482 E1.13801
G1 X120.654 Y1.4 Z7.482 E1.43225
G1 X120.654 Y1.4 Z6.229 E1.47466
M73 P11 R5
; EXCLUDE_OBJECT_END
M204 S500
G1 X120.225 Y1.4 Z5.761 F7200
;TYPE:Outer wall
G1 F719
G1 X129.775 Y1.4 Z5.761 E1.79792
G1 X129.775 Y1.4 Z7.911 E1.87069
G1 X120.225 Y1.4 Z7.911 E2.19395
G1 X120.225 Y1.4 Z5.801 E2.26537
; EXCLUDE_OBJECT_END
M204 S10000
G1 X121.079 Y1.4 Z6.614 F7200
M204 S500
;TYPE:Internal solid infill
;WIDTH:0.485842
G1 F719
G1 X121.079 Y1.4 Z7.057 E2.28168
G1 X128.921 Y1.4 Z7.057 E2.57053
G1 X128.921 Y1.4 Z6.614 E2.58684
G1 X121.119 Y1.4 Z6.614 E2.87422
; EXCLUDE_OBJECT_END
; stop printing object cube_compensated.stl id:0 copy 0
;LAYER_CHANGE
;Z:1.6
;HEIGHT:0.2
; Layer 6
;_SET_FAN_SPEED_CHANGING_LAYER
; printing object cube_compensated.stl id:0 copy 0
M204 S10000
G1 X120.654 Y1.6 Z5.989 F7200
M73 P12 R5
;TYPE:Inner wall
;WIDTH:0.449999
G1 F834
G1 X129.346 Y1.6 Z5.989 E3.16846
G1 X129.346 Y1.6 Z7.682 E3.22577
G1 X120.654 Y1.6 Z7.682 E3.52001
G1 X120.654 Y1.6 Z6.029 E3.57596
; EXCLUDE_OBJECT_END
M204 S500
G1 X120.225 Y1.6 Z5.561 F7200
;TYPE:Outer wall
G1 F834
G1 X129.775 Y1.6 Z5.561 E3.89922
G1 X129.775 Y1.6 Z8.111 E3.98553
G1 X120.225 Y1.6 Z8.111 E4.30879
G1 X120.225 Y1.6 Z5.601 E4.39375
; EXCLUDE_OBJECT_END
M204 S10000
G1 X121.061 Y1.6 Z6.396 F7200
M204 S500
;TYPE:Internal solid infill
G1 F834
G1 X121.061 Y1.6 Z7.275 E4.42349
G1 X128.939 Y1.6 Z7.275 E4.69018
G1 X128.939 Y1.6 Z6.396 E4.71992
M73 P13 R5
G1 X121.101 Y1.6 Z6.396 E4.98526
; EXCLUDE_OBJECT_END
M204 S10000
G1 X121.5 Y1.6 Z6.836 F7200
M204 S500
;WIDTH:0.514606
G1 F834
G1 X128.46 Y1.6 Z6.836 E5.25823
; EXCLUDE_OBJECT_END
; stop printing object cube_compensated.stl id:0 copy 0
;LAYER_CHANGE
;Z:1.8
;HEIGHT:0.2
; Layer 7
;_SET_FAN_SPEED_CHANGING_LAYER
; printing object cube_compensated.stl id:0 copy 0
M204 S10000
G1 E4.45823 F2400
G92 E0
G1 X120.654 Y1.8 Z5.789 F7200
G1 E.8 F1800
;TYPE:Inner wall
;WIDTH:0.449999
G1 F959
G1 X129.346 Y1.8 Z5.789 E1.09424
G1 X129.346 Y1.8 Z7.882 E1.16509
G1 X120.654 Y1.8 Z7.882 E1.45933
G1 X120.654 Y1.8 Z5.829 E1.52882
; EXCLUDE_OBJECT_END
M204 S500
G1 X120.225 Y1.8 Z5.361 F7200
;TYPE:Outer wall
G1 F959
G1 X129.775 Y1.8 Z5.361 E1.85208
G1 X129.775 Y1.8 Z8.311 E1.95193
M73 P14 R5
G1 X120.225 Y1.8 Z8.311 E2.27519
G1 X120.225 Y1.8 Z5.401 E2.37369
; EXCLUDE_OBJECT_END
M204 S10000
G1 X121.061 Y1.8 Z6.196 F7200
M204 S500
;TYPE:Internal solid infill
G1 F959
G1 X121.061 Y1.8 Z7.475 E2.41697
G1 X128.939 Y1.8 Z7.475 E2.68366
G1 X128.939 Y1.8 Z6.196 E2.72694
G1 X121.101 Y1.8 Z6.196 E2.99227
; EXCLUDE_OBJECT_END
M204 S10000
G1 X121.482 Y1.8 Z6.618 F7200
M204 S500
;WIDTH:0.478763
G1 F959
G1 X121.482 Y1.8 Z7.053 E3.00807
G1 X128.518 Y1.8 Z7.053 E3.26305
G1 X128.518 Y1.8 Z6.618 E3.27885
G1 X121.522 Y1.8 Z6.618 E3.53238
; EXCLUDE_OBJECT_END
; stop printing object cube_compensated.stl id:0 copy 0
;LAYER_CHANGE
;Z:2
;HEIGHT:0.2
; Layer 8
;_SET_FAN_SPEED_CHANGING_LAYER
; printing object cube_compensated.stl id:0 copy 0
M204 S10000
G1 X120.654 Y2 Z5.589 F7200
;TYPE:Inner wall
;WIDTH:0.449999
G1 F1108
G1 X129.346 Y2 Z5.589 E3.82662
G1 X129.346 Y2 Z8.082 E3.91101
M73 P15 R5
G1 X120.654 Y2 Z8.082 E4.20525
G1 X120.654 Y2 Z5.629 E4.28828
; EXCLUDE_OBJECT_END
M204 S500
G1 X120.225 Y2 Z5.161 F7200
;TYPE:Outer wall
G1 F1108
G1 X129.775 Y2 Z5.161 E4.61154
G1 X129.775 Y2 Z8.511 E4.72493
G1 X120.225 Y2 Z8.511 E5.04819
G1 X120.225 Y2 Z5.201 E5.16022
; EXCLUDE_OBJECT_END
M204 S10000
G1 E4.36022 F2400
G92 E0
G1 X121.9 Y2 Z6.836 F7200
G1 E.8 F1800
M204 S500
;TYPE:Internal solid infill
;WIDTH:0.500448
G1 F1108
G1 X128.06 Y2 Z6.836 E1.03435
; EXCLUDE_OBJECT_END
M204 S10000
G1 E.23435 F2400
G92 E0
G1 X121.468 Y2 Z6.403 F7200
G1 E.8 F1800
M204 S500
;WIDTH:0.449999
G1 F1108
G1 X121.468 Y2 Z7.268 E.82927
G1 X128.532 Y2 Z7.268 E1.06839
G1 X128.532 Y2 Z6.403 E1.09766
G1 X121.508 Y2 Z6.403 E1.33543
; EXCLUDE_OBJECT_END
M204 S10000
G1 X121.061 Y2 Z5.996 F7200
M73 P16 R5
M204 S500
G1 F1108
G1 X121.061 Y2 Z7.675 E1.39226
G1 X128.939 Y2 Z7.675 E1.65894
G1 X128.939 Y2 Z5.996 E1.71577
G1 X121.101 Y2 Z5.996 E1.9811
; EXCLUDE_OBJECT_END
; stop printing object cube_compensated.stl id:0 copy 0
;LAYER_CHANGE
;Z:2.2
;HEIGHT:0.2
; Layer 9
;_SET_FAN_SPEED_CHANGING_LAYER
; printing object cube_compensated.stl id:0 copy 0
M204 S10000
G1 X120.654 Y2.2 Z5.389 F7200
;TYPE:Inner wall
G1 F1212
G1 X129.346 Y2.2 Z5.389 E2.27535
G1 X129.346 Y2.2 Z8.282 E2.37327
G1 X120.654 Y2.2 Z8.282 E2.66751
G1 X120.654 Y2.2 Z5.429 E2.76408
; EXCLUDE_OBJECT_END
M204 S500
G1 X120.225 Y2.2 Z4.961 F7200
;TYPE:Outer wall
G1 F1212
G1 X129.775 Y2.2 Z4.961 E3.08734
G1 X129.775 Y2.2 Z8.711 E3.21427
G1 X120.225 Y2.2 Z8.711 E3.53752
G1 X120.225 Y2.2 Z5.001 E3.6631
M73 P17 R5
; EXCLUDE_OBJECT_END
M204 S10000
G1 E2.8631 F2400
G92 E0
G1 X121.886 Y2.2 Z6.621 F7200
G1 E.8 F1800
M204 S500
;TYPE:Internal solid infill
;WIDTH:0.471684
G1 F1212
G1 X121.886 Y2.2 Z7.05 E.81529
G1 X128.114 Y2.2 Z7.05 E1.03735
G1 X128.114 Y2.2 Z6.621 E1.05264
G1 X121.926 Y2.2 Z6.621 E1.27328
; EXCLUDE_OBJECT_END
M204 S10000
G1 X121.468 Y2.2 Z6.203 F7200
M204 S500
;WIDTH:0.449999
G1 F1212
G1 X121.468 Y2.2 Z7.468 E1.31609
G1 X128.532 Y2.2 Z7.468 E1.55521
G1 X128.532 Y2.2 Z6.203 E1.59802
G1 X121.508 Y2.2 Z6.203 E1.83579
; EXCLUDE_OBJECT_END
M204 S10000
G1 X121.061 Y2.2 Z5.796 F7200
M204 S500
G1 F1212
G1 X121.061 Y2.2 Z7.875 E1.90616
G1 X128.939 Y2.2 Z7.875 E2.17284
G1 X128.939 Y2.2 Z5.796 E2.24321
G1 X121.101 Y2.2 Z5.796 E2.50854
; EXCLUDE_OBJECT_END
; stop printing object cube_compensated.stl id:0 copy 0
;LAYER_CHANGE
;Z:2.4
;HEIGHT:0.2
; Layer 10
;_SET_FAN_SPEED_CHANGING_LAYER
; printing object cube_compensated.stl id:0 copy 0
M204 S10000
G1 X120.654 Y2.4 Z5.189 F7200
;TYPE:Inner wall
G1 F963
G1 X129.346 Y2.4 Z5.189 E2.80279
G1 X129.346 Y2.4 Z8.482 E2.91425
M73 P18 R5
G1 X120.654 Y2.4 Z8.482 E3.20849
G1 X120.654 Y2.4 Z5.229 E3.3186
; EXCLUDE_OBJECT_END
M204 S500
G1 X120.225 Y2.4 Z4.761 F7200
;TYPE:Outer wall
G1 F963
G1 X129.775 Y2.4 Z4.761 E3.64185
G1 X129.775 Y2.4 Z8.911 E3.78233
G1 X120.225 Y2.4 Z8.911 E4.10558
G1 X120.225 Y2.4 Z4.801 E4.2447
; EXCLUDE_OBJECT_END
M204 S10000
G1 X121.069 Y2.4 Z5.605 F7200
M204 S500
;TYPE:Internal solid infill
;WIDTH:0.467364
G1 F963
G1 X128.891 Y2.4 Z5.605 E4.52074
; EXCLUDE_OBJECT_END
M204 S10000
G1 E3.72074 F2400
M73 P19 R5
G92 E0
G1 X127.796 Y2.4 Z7.65 F7200
G1 E.8 F1800
M204 S500
;TYPE:Sparse infill
;WIDTH:0.45
G1 F963
G1 X129 Y2.4 Z7.65 E.84078
G1 X129 Y2.4 Z7.227 E.85512
G1 X128.458 Y2.4 Z6.409 E.88835
G1 X128.109 Y2.4 Z6.06 E.90506
G1 X128.05 Y2.4 Z6.021 E.90745
G1 X123.905 Y2.4 Z6.021 E1.04775
G1 X123.964 Y2.4 Z6.06 E1.05014
G1 X124.313 Y2.4 Z6.409 E1.06686
G1 X125.136 Y2.4 Z7.65 E1.11729
G1 X123.508 Y2.4 Z7.65 E1.17241
; EXCLUDE_OBJECT_END
M204 S10000
G1 E.37241 F2400
G92 E0
G1 X121.069 Y2.4 Z8.066 F7200
G1 E.8 F1800
M204 S500
;TYPE:Internal solid infill
;WIDTH:0.467364
G1 F963
G1 X128.891 Y2.4 Z8.066 E1.07604
; EXCLUDE_OBJECT_END
; stop printing object cube_compensated.stl id:0 copy 0
;LAYER_CHANGE
;Z:2.6
;HEIGHT:0.2
; Layer 11
;_SET_FAN_SPEED_CHANGING_LAYER
; printing object cube_compensated.stl id:0 copy 0
M204 S10000
G1 E.27604 F2400
G92 E0
G1 X120.654 Y2.6 Z4.989 F7200
G1 E.8 F1800
;TYPE:Inner wall
;WIDTH:0.449999
G1 F985
G1 X129.346 Y2.6 Z4.989 E1.09424
G1 X129.346 Y2.6 Z8.682 E1.21925
G1 X120.654 Y2.6 Z8.682 E1.51349
G1 X120.654 Y2.6 Z5.029 E1.63714
; EXCLUDE_OBJECT_END
M204 S500
G1 X120.225 Y2.6 Z4.561 F7200
;TYPE:Outer wall
G1 F985
G1 X129.775 Y2.6 Z4.561 E1.96039
G1 X129.775 Y2.6 Z9.111 E2.1144
M73 P20 R5
G1 X120.225 Y2.6 Z9.111 E2.43766
G1 X120.225 Y2.6 Z4.601 E2.59032
; EXCLUDE_OBJECT_END
M204 S10000
G1 X121.069 Y2.6 Z5.405 F7200
M204 S500
;TYPE:Internal solid infill
;WIDTH:0.467364
G1 F985
G1 X128.891 Y2.6 Z5.405 E2.86636
; EXCLUDE_OBJECT_END
M204 S10000
G1 E2.06636 F2400
G92 E0
G1 X128.227 Y2.6 Z7.85 F7200
G1 E.8 F1800
M204 S500
;TYPE:Sparse infill
;WIDTH:0.45
G1 F985
G1 X129 Y2.6 Z7.85 E.82619
G1 X129 Y2.6 Z6.996 E.85512
G1 X128.811 Y2.6 Z6.409 E.87599
G1 X128.223 Y2.6 Z5.821 E.90415
G1 X124.078 Y2.6 Z5.821 E1.04445
G1 X124.666 Y2.6 Z6.409 E1.07261
G1 X125.131 Y2.6 Z7.85 E1.12387
G1 X123.502 Y2.6 Z7.85 E1.17899
; EXCLUDE_OBJECT_END
M204 S10000
G1 E.37899 F2400
G92 E0
G1 X121.069 Y2.6 Z8.266 F7200
G1 E.8 F1800
M204 S500
;TYPE:Internal solid infill
;WIDTH:0.467364
G1 F985
G1 X128.891 Y2.6 Z8.266 E1.07604
; EXCLUDE_OBJECT_END
; stop printing object cube_compensated.stl id:0 copy 0
;LAYER_CHANGE
;Z:2.8
;HEIGHT:0.2
; Layer 12
;_SET_FAN_SPEED_CHANGING_LAYER
; printing object cube_compensated.stl id:0 copy 0
M204 S10000
G1 E.27604 F2400
M73 P21 R5
G92 E0
G1 X120.654 Y2.8 Z4.789 F7200
G1 E.8 F1800
;TYPE:Inner wall
;WIDTH:0.449999
G1 F1003
G1 X129.346 Y2.8 Z4.789 E1.09424
G1 X129.346 Y2.8 Z8.882 E1.23278
G1 X120.654 Y2.8 Z8.882 E1.52703
G1 X120.654 Y2.8 Z4.829 E1.66422
; EXCLUDE_OBJECT_END
M204 S500
G1 X120.225 Y2.8 Z4.361 F7200
;TYPE:Outer wall
G1 F1003
G1 X129.775 Y2.8 Z4.361 E1.98747
G1 X129.775 Y2.8 Z9.311 E2.15502
M73 P21 R4
G1 X120.225 Y2.8 Z9.311 E2.47828
G1 X120.225 Y2.8 Z4.401 E2.64448
; EXCLUDE_OBJECT_END
M204 S10000
G1 X121.069 Y2.8 Z5.205 F7200
M73 P22 R4
M204 S500
;TYPE:Internal solid infill
;WIDTH:0.467366
G1 F1003
G1 X128.891 Y2.8 Z5.205 E2.92052
; EXCLUDE_OBJECT_END
M204 S10000
G1 E2.12052 F2400
G92 E0
G1 X129 Y2.8 Z7.872 F7200
G1 E.8 F1800
M204 S500
;TYPE:Sparse infill
;WIDTH:0.45
G1 F1003
G1 X129 Y2.8 Z6.244 E.85512
G1 X128.377 Y2.8 Z5.621 E.88497
G1 X124.232 Y2.8 Z5.621 E1.02527
G1 X125.02 Y2.8 Z6.409 E1.063
G1 X124.988 Y2.8 Z8.05 E1.11858
G1 X123.36 Y2.8 Z8.05 E1.1737
; EXCLUDE_OBJECT_END
M204 S10000
G1 E.3737 F2400
G92 E0
G1 X121.069 Y2.8 Z8.466 F7200
G1 E.8 F1800
M204 S500
;TYPE:Internal solid infill
;WIDTH:0.467364
G1 F1003
G1 X128.891 Y2.8 Z8.466 E1.07604
; EXCLUDE_OBJECT_END
; stop printing object cube_compensated.stl id:0 copy 0
;LAYER_CHANGE
;Z:3
;HEIGHT:0.2
; Layer 13
;_SET_FAN_SPEED_CHANGING_LAYER
; printing object cube_compensated.stl id:0 copy 0
M204 S10000
G1 E.27604 F2400
G92 E0
G1 X120.654 Y3 Z4.589 F7200
G1 E.8 F1800
;TYPE:Inner wall
;WIDTH:0.449999
G1 F1022
G1 X129.346 Y3 Z4.589 E1.09424
G1 X129.346 Y3 Z9.082 E1.24632
G1 X120.654 Y3 Z9.082 E1.54057
G1 X120.654 Y3 Z4.629 E1.69129
M73 P23 R4
; EXCLUDE_OBJECT_END
M204 S500
G1 X120.225 Y3 Z4.161 F7200
;TYPE:Outer wall
G1 F1022
G1 X129.775 Y3 Z4.161 E2.01455
G1 X129.775 Y3 Z9.511 E2.19564
G1 X120.225 Y3 Z9.511 E2.5189
G1 X120.225 Y3 Z4.201 E2.69863
; EXCLUDE_OBJECT_END
M204 S10000
G1 X121.069 Y3 Z5.005 F7200
M204 S500
;TYPE:Internal solid infill
;WIDTH:0.467364
G1 F1022
G1 X128.891 Y3 Z5.005 E2.97467
; EXCLUDE_OBJECT_END
M204 S10000
G1 E2.17467 F2400
G92 E0
G1 X126.66 Y3 Z8.25 F7200
G1 E.8 F1800
M204 S500
;TYPE:Sparse infill
;WIDTH:0.45
G1 F1022
G1 X125.032 Y3 Z8.25 E.85512
G1 X124.959 Y3 Z6.409 E.91751
G1 X125.947 Y3 Z5.421 E.96481
G1 X121.802 Y3 Z5.421 E1.10511
G1 X121 Y3 Z6.223 E1.14354
M73 P24 R4
G1 X121 Y3 Z7.852 E1.19865
; EXCLUDE_OBJECT_END
M204 S10000
G1 X121.069 Y3 Z8.666 F7200
M204 S500
;TYPE:Internal solid infill
;WIDTH:0.467364
G1 F1022
