; HEADER_BLOCK_START
; generated by OrcaSlicer 2.3.2-dev on 2026-01-28 at 21:04:58
; total layer number: 142
; filament_density: 1.24
; filament_diameter: 1.75
; max_z_height: 42.40
; filament: 1
; HEADER_BLOCK_END

; external perimeters extrusion width = 0.45mm
; perimeters extrusion width = 0.45mm
; infill extrusion width = 0.45mm
; solid infill extrusion width = 0.45mm
; top infill extrusion width = 0.40mm
; first layer extrusion width = 0.42mm

; EXECUTABLE_BLOCK_START
M73 P0 R21
;TYPE:Custom
G28 ; home all axes
G1 Z5 F5000 ; lift nozzle
G90
G21
M83 ; use relative distances for extrusion
M106 S0
;LAYER_CHANGE
;Z:0.2
;HEIGHT:0.2
;_SET_FAN_SPEED_CHANGING_LAYER
SET_VELOCITY_LIMIT ACCEL=300 ACCEL_TO_DECEL=150
M106 S171
;LAYER_CHANGE
;Z:14.4
;HEIGHT:14.2
;_SET_FAN_SPEED_CHANGING_LAYER
SET_VELOCITY_LIMIT ACCEL=500 ACCEL_TO_DECEL=250
M140 S35 ; set bed temperature
; printing object test_cube.stl id:0 copy 0
SET_VELOCITY_LIMIT ACCEL=5000 ACCEL_TO_DECEL=2500
G1 E-2 F2400
G1 X134.346 Y999.425 F7200
G1 Y14.4 Z0
G1 Y-985.025 Z999.425
M73 P1 R21
G1 E2 F2400
M73 P5 R20
SET_VELOCITY_LIMIT ACCEL=250 ACCEL_TO_DECEL=125
;TYPE:Overhang wall
;WIDTH:0.449999
;HEIGHT:0.2
G1 F1500
M106 S255
G1 X115.654 Y-985.025 E.62008
G1 X115.654 Y-972.19 E.42576
G1 X134.346 Y-972.19 E.62008
G1 X134.346 Y-984.985 E.42443
SET_VELOCITY_LIMIT ACCEL=5000 ACCEL_TO_DECEL=2500
G1 X134.775 Y-985.454 F7200
SET_VELOCITY_LIMIT ACCEL=250 ACCEL_TO_DECEL=125
G1 F1500
G1 X115.225 Y-985.454 E.64851
G1 X115.225 Y-971.762 E.45419
G1 X134.775 Y-971.762 E.64851
G1 X134.775 Y-985.414 E.45287
SET_VELOCITY_LIMIT ACCEL=5000 ACCEL_TO_DECEL=2500
G1 E-2 F2400
G1 X134.184 Y-972.777 F7200
G1 E2 F2400
SET_VELOCITY_LIMIT ACCEL=250 ACCEL_TO_DECEL=125
;TYPE:Bridge
;WIDTH:0.45
G1 F1500
G1 X116 Y-972.777 E.6032
G1 X116 Y-973.184 E.0135
G1 X134 Y-973.184 E.59712
G1 X134 Y-973.591 E.0135
G1 X116 Y-973.591 E.59712
G1 X116 Y-973.998 E.0135
G1 X134 Y-973.998 E.59712
G1 X134 Y-974.405 E.0135
G1 X116 Y-974.405 E.59712
G1 X116 Y-974.812 E.0135
G1 X134 Y-974.812 E.59712
G1 X134 Y-975.22 E.0135
M73 P6 R20
G1 X116 Y-975.22 E.59712
G1 X116 Y-975.627 E.0135
G1 X134 Y-975.627 E.59712
G1 X134 Y-976.034 E.0135
G1 X116 Y-976.034 E.59712
G1 X116 Y-976.441 E.0135
G1 X134 Y-976.441 E.59712
G1 X134 Y-976.848 E.0135
G1 X116 Y-976.848 E.59712
G1 X116 Y-977.255 E.0135
G1 X134 Y-977.255 E.59712
G1 X134 Y-977.662 E.0135
G1 X116 Y-977.662 E.59712
G1 X116 Y-978.069 E.0135
G1 X134 Y-978.069 E.59712
G1 X134 Y-978.476 E.0135
G1 X116 Y-978.476 E.59712
G1 X116 Y-978.883 E.0135
G1 X134 Y-978.883 E.59712
G1 X134 Y-979.29 E.0135
G1 X116 Y-979.29 E.59712
G1 X116 Y-979.697 E.0135
G1 X134 Y-979.697 E.59712
G1 X134 Y-980.104 E.0135
G1 X116 Y-980.104 E.59712
G1 X116 Y-980.512 E.0135
G1 X134 Y-980.512 E.59712
G1 X134 Y-980.919 E.0135
M73 P6 R19
G1 X116 Y-980.919 E.59712
G1 X116 Y-981.326 E.0135
G1 X134 Y-981.326 E.59712
G1 X134 Y-981.733 E.0135
M73 P7 R19
G1 X116 Y-981.733 E.59712
G1 X116 Y-982.14 E.0135
G1 X134 Y-982.14 E.59712
G1 X134 Y-982.547 E.0135
G1 X116 Y-982.547 E.59712
G1 X116 Y-982.954 E.0135
G1 X134 Y-982.954 E.59712
G1 X134 Y-983.361 E.0135
G1 X116 Y-983.361 E.59712
G1 X116 Y-983.768 E.0135
G1 X134 Y-983.768 E.59712
G1 X134 Y-984.175 E.0135
G1 X116 Y-984.175 E.59712
G1 X116 Y-984.582 E.0135
G1 X134.184 Y-984.582 E.6032
; stop printing object test_cube.stl id:0 copy 0
M106 S242
;LAYER_CHANGE
;Z:14.6
;HEIGHT:0.200001
;_SET_FAN_SPEED_CHANGING_LAYER
; printing object test_cube.stl id:0 copy 0
SET_VELOCITY_LIMIT ACCEL=5000 ACCEL_TO_DECEL=2500
G1 X134.346 Y-984.925 Z999.525 F7200
;TYPE:Inner wall
;WIDTH:0.449999
G1 F3600
M106 S242
G1 X115.654 Y-984.925 E.62008
G1 X115.654 Y-972.09 E.42576
G1 X134.346 Y-972.09 E.62008
G1 X134.346 Y-984.885 E.42443
SET_VELOCITY_LIMIT ACCEL=500 ACCEL_TO_DECEL=250
G1 X134.775 Y-985.354 F7200
;TYPE:Outer wall
G1 F3600
G1 X115.225 Y-985.354 E.64851
G1 X115.225 Y-971.662 E.45419
G1 X134.775 Y-971.662 E.64851
G1 X134.775 Y-985.314 E.45287
SET_VELOCITY_LIMIT ACCEL=5000 ACCEL_TO_DECEL=2500
G1 E-2 F2400
G1 X134.184 Y-974.329 F7200
G1 E2 F2400
SET_VELOCITY_LIMIT ACCEL=500 ACCEL_TO_DECEL=250
;TYPE:Internal solid infill
;WIDTH:0.45166
G1 F6000
G1 X132.291 Y-972.436 E.08917
G1 X131.713 Y-972.436 E.01925
G1 X134 Y-974.724 E.10777
G1 X134 Y-975.302 E.01925
G1 X131.135 Y-972.436 E.13499
G1 X130.556 Y-972.436 E.01925
G1 X134 Y-975.88 E.16222
G1 X134 Y-976.458 E.01925
G1 X129.978 Y-972.436 E.18945
G1 X129.4 Y-972.436 E.01925
G1 X134 Y-977.036 E.21668
G1 X134 Y-977.614 E.01925
G1 X128.822 Y-972.436 E.24391
G1 X128.244 Y-972.436 E.01925
G1 X134 Y-978.192 E.27113
G1 X134 Y-978.771 E.01925
G1 X127.666 Y-972.436 E.29836
G1 X127.088 Y-972.436 E.01925
G1 X134 Y-979.349 E.32559
G1 X134 Y-979.927 E.01925
G1 X126.51 Y-972.436 E.35282
G1 X125.932 Y-972.436 E.01925
G1 X134 Y-980.505 E.38005
G1 X134 Y-981.083 E.01925
G1 X125.354 Y-972.436 E.40727
G1 X124.776 Y-972.436 E.01925
G1 X134 Y-981.661 E.4345
G1 X134 Y-982.239 E.01925
M73 P8 R19
G1 X124.198 Y-972.436 E.46173
G1 X123.62 Y-972.436 E.01925
G1 X134 Y-982.817 E.48896
G1 X134 Y-983.395 E.01925
G1 X123.042 Y-972.436 E.51618
G1 X122.464 Y-972.436 E.01925
G1 X134 Y-983.973 E.54341
G1 X134 Y-984.551 E.01925
G1 X121.886 Y-972.436 E.57064
G1 X121.308 Y-972.436 E.01925
G1 X133.451 Y-984.579 E.57198
G1 X132.873 Y-984.579 E.01925
G1 X120.73 Y-972.436 E.57198
G1 X120.152 Y-972.436 E.01925
G1 X132.295 Y-984.579 E.57198
G1 X131.717 Y-984.579 E.01925
G1 X119.574 Y-972.436 E.57198
G1 X118.996 Y-972.436 E.01925
G1 X131.139 Y-984.579 E.57198
G1 X130.561 Y-984.579 E.01925
G1 X118.418 Y-972.436 E.57198
G1 X117.839 Y-972.436 E.01925
G1 X129.983 Y-984.579 E.57198
G1 X129.404 Y-984.579 E.01925
G1 X117.261 Y-972.436 E.57198
G1 X116.683 Y-972.436 E.01925
G1 X128.826 Y-984.579 E.57198
G1 X128.248 Y-984.579 E.01925
G1 X116.105 Y-972.436 E.57198
G1 X116 Y-972.436 E.00352
G1 X116 Y-972.909 E.01573
G1 X127.67 Y-984.579 E.54973
G1 X127.092 Y-984.579 E.01925
G1 X116 Y-973.487 E.5225
G1 X116 Y-974.065 E.01925
G1 X126.514 Y-984.579 E.49528
G1 X125.936 Y-984.579 E.01925
G1 X116 Y-974.643 E.46805
G1 X116 Y-975.221 E.01925
G1 X125.358 Y-984.579 E.44082
G1 X124.78 Y-984.579 E.01925
G1 X116 Y-975.799 E.41359
G1 X116 Y-976.377 E.01925
G1 X124.202 Y-984.579 E.38637
G1 X123.624 Y-984.579 E.01925
G1 X116 Y-976.955 E.35914
G1 X116 Y-977.533 E.01925
G1 X123.046 Y-984.579 E.33191
G1 X122.468 Y-984.579 E.01925
G1 X116 Y-978.111 E.30468
G1 X116 Y-978.689 E.01925
G1 X121.89 Y-984.579 E.27745
G1 X121.312 Y-984.579 E.01925
G1 X116 Y-979.267 E.25023
G1 X116 Y-979.845 E.01925
G1 X120.734 Y-984.579 E.223
G1 X120.156 Y-984.579 E.01925
G1 X116 Y-980.423 E.19577
G1 X116 Y-981.001 E.01925
G1 X119.578 Y-984.579 E.16854
G1 X119 Y-984.579 E.01925
G1 X116 Y-981.579 E.14131
G1 X116 Y-982.157 E.01925
G1 X118.422 Y-984.579 E.11409
G1 X117.844 Y-984.579 E.01925
G1 X116 Y-982.735 E.08686
G1 X116 Y-983.313 E.01925
G1 X117.266 Y-984.579 E.05963
G1 X116.687 Y-984.579 E.01925
G1 X115.816 Y-983.708 E.04103
SET_VELOCITY_LIMIT ACCEL=5000 ACCEL_TO_DECEL=2500
G1 X116.101 Y-984.458 F7200
SET_VELOCITY_LIMIT ACCEL=500 ACCEL_TO_DECEL=250
;WIDTH:0.477236
G1 F6000
G1 X116.047 Y-984.458 E.00192
G1 X116.02 Y-984.505 E.00192
G1 X116.047 Y-984.552 E.00192
G1 X116.101 Y-984.552 E.00192
G1 X116.109 Y-984.539 E.00051
SET_VELOCITY_LIMIT ACCEL=5000 ACCEL_TO_DECEL=2500
G1 X133.885 Y-973.434 F7200
SET_VELOCITY_LIMIT ACCEL=500 ACCEL_TO_DECEL=250
;WIDTH:0.559369
G1 F6000
G1 X133.885 Y-972.552 E.0371
G1 X133.003 Y-972.552 E.0371
G1 X133.856 Y-973.405 E.05079
; stop printing object test_cube.stl id:0 copy 0
;LAYER_CHANGE
;Z:14.8
;HEIGHT:0.2
;_SET_FAN_SPEED_CHANGING_LAYER
; printing object test_cube.stl id:0 copy 0
SET_VELOCITY_LIMIT ACCEL=5000 ACCEL_TO_DECEL=2500
G1 E-2 F2400
G1 X134.346 Y-984.825 Z999.625 F7200
G1 E2 F2400
;TYPE:Inner wall
;WIDTH:0.449999
G1 F3600
G1 X115.654 Y-984.825 E.62008
G1 X115.654 Y-971.99 E.42576
G1 X134.346 Y-971.99 E.62008
G1 X134.346 Y-984.785 E.42443
SET_VELOCITY_LIMIT ACCEL=500 ACCEL_TO_DECEL=250
G1 X134.775 Y-985.254 F7200
;TYPE:Outer wall
G1 F3600
G1 X115.225 Y-985.254 E.64851
G1 X115.225 Y-971.562 E.45419
M73 P9 R19
G1 X134.775 Y-971.562 E.64851
G1 X134.775 Y-985.214 E.45287
SET_VELOCITY_LIMIT ACCEL=5000 ACCEL_TO_DECEL=2500
G1 X133.003 Y-984.364 F7200
SET_VELOCITY_LIMIT ACCEL=500 ACCEL_TO_DECEL=250
;TYPE:Internal solid infill
;WIDTH:0.559369
G1 F6000
G1 X133.885 Y-984.364 E.0371
G1 X133.885 Y-983.482 E.0371
G1 X133.031 Y-984.335 E.05079
SET_VELOCITY_LIMIT ACCEL=5000 ACCEL_TO_DECEL=2500
G1 X132.107 Y-984.663 F7200
SET_VELOCITY_LIMIT ACCEL=500 ACCEL_TO_DECEL=250
;WIDTH:0.45166
G1 F6000
G1 X134 Y-982.77 E.08917
G1 X134 Y-982.192 E.01925
G1 X131.713 Y-984.479 E.10777
G1 X131.135 Y-984.479 E.01925
G1 X134 Y-981.613 E.13499
G1 X134 Y-981.035 E.01925
G1 X130.556 Y-984.479 E.16222
G1 X129.978 Y-984.479 E.01925
G1 X134 Y-980.457 E.18945
G1 X134 Y-979.879 E.01925
G1 X129.4 Y-984.479 E.21668
G1 X128.822 Y-984.479 E.01925
G1 X134 Y-979.301 E.24391
G1 X134 Y-978.723 E.01925
G1 X128.244 Y-984.479 E.27113
G1 X127.666 Y-984.479 E.01925
G1 X134 Y-978.145 E.29836
G1 X134 Y-977.567 E.01925
G1 X127.088 Y-984.479 E.32559
G1 X126.51 Y-984.479 E.01925
G1 X134 Y-976.989 E.35282
G1 X134 Y-976.411 E.01925
G1 X125.932 Y-984.479 E.38005
G1 X125.354 Y-984.479 E.01925
G1 X134 Y-975.833 E.40727
G1 X134 Y-975.255 E.01925
G1 X124.776 Y-984.479 E.4345
G1 X124.198 Y-984.479 E.01925
G1 X134 Y-974.677 E.46173
G1 X134 Y-974.099 E.01925
G1 X123.62 Y-984.479 E.48896
G1 X123.042 Y-984.479 E.01925
G1 X134 Y-973.521 E.51618
G1 X134 Y-972.943 E.01925
G1 X122.464 Y-984.479 E.54341
G1 X121.886 Y-984.479 E.01925
G1 X134 Y-972.365 E.57064
G1 X134 Y-972.336 E.00095
G1 X133.451 Y-972.336 E.01831
G1 X121.308 Y-984.479 E.57198
G1 X120.73 Y-984.479 E.01925
G1 X132.873 Y-972.336 E.57198
G1 X132.295 Y-972.336 E.01925
G1 X120.152 Y-984.479 E.57198
G1 X119.574 Y-984.479 E.01925
G1 X131.717 Y-972.336 E.57198
G1 X131.139 Y-972.336 E.01925
G1 X118.996 Y-984.479 E.57198
G1 X118.418 Y-984.479 E.01925
G1 X130.561 Y-972.336 E.57198
G1 X129.983 Y-972.336 E.01925
G1 X117.839 Y-984.479 E.57198
G1 X117.261 Y-984.479 E.01925
G1 X129.404 Y-972.336 E.57198
G1 X128.826 Y-972.336 E.01925
G1 X116.683 Y-984.479 E.57198
G1 X116.105 Y-984.479 E.01925
G1 X128.248 Y-972.336 E.57198
G1 X127.67 Y-972.336 E.01925
G1 X116 Y-984.007 E.54973
G1 X116 Y-983.429 E.01925
G1 X127.092 Y-972.336 E.5225
G1 X126.514 Y-972.336 E.01925
G1 X116 Y-982.851 E.49528
G1 X116 Y-982.273 E.01925
G1 X125.936 Y-972.336 E.46805
G1 X125.358 Y-972.336 E.01925
G1 X116 Y-981.695 E.44082
G1 X116 Y-981.117 E.01925
G1 X124.78 Y-972.336 E.41359
G1 X124.202 Y-972.336 E.01925
G1 X116 Y-980.539 E.38637
G1 X116 Y-979.961 E.01925
G1 X123.624 Y-972.336 E.35914
M73 P10 R19
G1 X123.046 Y-972.336 E.01925
G1 X116 Y-979.383 E.33191
G1 X116 Y-978.805 E.01925
G1 X122.468 Y-972.336 E.30468
G1 X121.89 Y-972.336 E.01925
G1 X116 Y-978.227 E.27745
G1 X116 Y-977.649 E.01925
G1 X121.312 Y-972.336 E.25023
G1 X120.734 Y-972.336 E.01925
G1 X116 Y-977.071 E.223
G1 X116 Y-976.493 E.01925
G1 X120.156 Y-972.336 E.19577
G1 X119.578 Y-972.336 E.01925
G1 X116 Y-975.914 E.16854
G1 X116 Y-975.336 E.01925
G1 X119 Y-972.336 E.14131
G1 X118.422 Y-972.336 E.01925
G1 X116 Y-974.758 E.11409
G1 X116 Y-974.18 E.01925
G1 X117.844 Y-972.336 E.08686
G1 X117.266 Y-972.336 E.01925
G1 X116 Y-973.602 E.05963
G1 X116 Y-973.024 E.01925
G1 X116.871 Y-972.153 E.04103
SET_VELOCITY_LIMIT ACCEL=5000 ACCEL_TO_DECEL=2500
G1 X116.101 Y-972.364 F7200
SET_VELOCITY_LIMIT ACCEL=500 ACCEL_TO_DECEL=250
;WIDTH:0.477238
G1 F6000
G1 X116.047 Y-972.364 E.00192
G1 X116.02 Y-972.411 E.00192
G1 X116.047 Y-972.458 E.00192
G1 X116.101 Y-972.458 E.00192
G1 X116.109 Y-972.446 E.00051
; stop printing object test_cube.stl id:0 copy 0
M106 S252
;LAYER_CHANGE
;Z:15
;HEIGHT:0.2
;_SET_FAN_SPEED_CHANGING_LAYER
; printing object test_cube.stl id:0 copy 0
SET_VELOCITY_LIMIT ACCEL=5000 ACCEL_TO_DECEL=2500
G1 E-2 F2400
G1 X134.346 Y-984.725 Z999.725 F7200
G1 E2 F2400
;TYPE:Inner wall
;WIDTH:0.449999
G1 F3528
G1 X115.654 Y-984.725 E.62008
G1 X115.654 Y-971.89 E.42576
G1 X134.346 Y-971.89 E.62008
G1 X134.346 Y-984.685 E.42443
SET_VELOCITY_LIMIT ACCEL=500 ACCEL_TO_DECEL=250
G1 X134.775 Y-985.154 F7200
;TYPE:Outer wall
G1 F3528
G1 X115.225 Y-985.154 E.64851
G1 X115.225 Y-971.462 E.45419
G1 X134.775 Y-971.462 E.64851
G1 X134.775 Y-985.114 E.45287
SET_VELOCITY_LIMIT ACCEL=5000 ACCEL_TO_DECEL=2500
G1 E-2 F2400
G1 X134 Y-983.194 F7200
G1 E2 F2400
SET_VELOCITY_LIMIT ACCEL=500 ACCEL_TO_DECEL=250
;TYPE:Sparse infill
;WIDTH:0.45
G1 F3528
G1 X134 Y-981.565 E.05401
G1 X125.057 Y-972.622 E.41956
G1 X128.166 Y-972.622 E.10312
G1 X134 Y-978.457 E.27372
G1 X134 Y-975.348 E.10312
G1 X131.274 Y-972.622 E.12788
G1 X132.903 Y-972.622 E.05401
SET_VELOCITY_LIMIT ACCEL=5000 ACCEL_TO_DECEL=2500
G1 X123.576 Y-972.622 F7200
SET_VELOCITY_LIMIT ACCEL=500 ACCEL_TO_DECEL=250
G1 F3528
G1 X121.948 Y-972.622 E.05401
G1 X133.706 Y-984.379 E.55157
G1 X130.597 Y-984.379 E.10312
G1 X118.839 Y-972.622 E.55157
G1 X116 Y-972.622 E.0942
G1 X116 Y-972.891 E.00892
G1 X127.488 Y-984.379 E.53895
G1 X124.379 Y-984.379 E.10312
G1 X116 Y-976 E.39311
G1 X116 Y-979.108 E.10312
G1 X121.271 Y-984.379 E.24728
G1 X118.162 Y-984.379 E.10312
G1 X116 Y-982.217 E.10144
G1 X116 Y-983.845 E.05401
SET_VELOCITY_LIMIT ACCEL=5000 ACCEL_TO_DECEL=2500
G1 X116.019 Y-972.256 F7200
SET_VELOCITY_LIMIT ACCEL=500 ACCEL_TO_DECEL=250
;TYPE:Internal solid infill
;WIDTH:0.38292
G1 F3528
G1 X133.941 Y-972.256 E.49653
; stop printing object test_cube.stl id:0 copy 0
;LAYER_CHANGE
;Z:15.2
;HEIGHT:0.2
;_SET_FAN_SPEED_CHANGING_LAYER
; printing object test_cube.stl id:0 copy 0
SET_VELOCITY_LIMIT ACCEL=5000 ACCEL_TO_DECEL=2500
G1 E-2 F2400
G1 X134.346 Y-984.625 Z999.825 F7200
G1 E2 F2400
;TYPE:Inner wall
;WIDTH:0.449999
G1 F3600
G1 X115.654 Y-984.625 E.62008
G1 X115.654 Y-971.79 E.42576
G1 X134.346 Y-971.79 E.62008
G1 X134.346 Y-984.585 E.42443
SET_VELOCITY_LIMIT ACCEL=500 ACCEL_TO_DECEL=250
G1 X134.775 Y-985.054 F7200
;TYPE:Outer wall
G1 F3600
G1 X115.225 Y-985.054 E.64851
G1 X115.225 Y-971.362 E.45419
G1 X134.775 Y-971.362 E.64851
G1 X134.775 Y-985.014 E.45287
SET_VELOCITY_LIMIT ACCEL=5000 ACCEL_TO_DECEL=2500
G1 E-2 F2400
M73 P11 R19
G1 X134 Y-982.846 F7200
G1 E2 F2400
SET_VELOCITY_LIMIT ACCEL=500 ACCEL_TO_DECEL=250
;TYPE:Sparse infill
;WIDTH:0.45
G1 F3604
G1 X134 Y-984.279 E.04755
G1 X133.806 Y-984.279 E.00646
G1 X122.048 Y-972.522 E.55157
G1 X118.939 Y-972.522 E.10312
G1 X130.697 Y-984.279 E.55157
G1 X132.325 Y-984.279 E.05401
SET_VELOCITY_LIMIT ACCEL=5000 ACCEL_TO_DECEL=2500
G1 X134 Y-973.52 F7200
SET_VELOCITY_LIMIT ACCEL=500 ACCEL_TO_DECEL=250
G1 F3604
G1 X134 Y-975.148 E.05401
G1 X131.374 Y-972.522 E.12319
G1 X128.266 Y-972.522 E.10312
G1 X134 Y-978.257 E.26903
G1 X134 Y-981.365 E.10312
G1 X125.157 Y-972.522 E.41487
G1 X126.785 Y-972.522 E.05401
SET_VELOCITY_LIMIT ACCEL=5000 ACCEL_TO_DECEL=2500
G1 X117.459 Y-972.522 F7200
SET_VELOCITY_LIMIT ACCEL=500 ACCEL_TO_DECEL=250
G1 F3604
G1 X116 Y-972.522 E.04841
G1 X116 Y-972.691 E.0056
G1 X127.588 Y-984.279 E.54364
G1 X124.479 Y-984.279 E.10312
G1 X116 Y-975.8 E.39781
G1 X116 Y-978.908 E.10312
G1 X121.371 Y-984.279 E.25197
G1 X118.262 Y-984.279 E.10312
G1 X116 Y-982.017 E.10613
G1 X116 Y-983.645 E.05401
SET_VELOCITY_LIMIT ACCEL=5000 ACCEL_TO_DECEL=2500
G1 X116.019 Y-972.156 F7200
SET_VELOCITY_LIMIT ACCEL=500 ACCEL_TO_DECEL=250
;TYPE:Internal solid infill
;WIDTH:0.38292
G1 F3604
G1 X133.941 Y-972.156 E.49653
; stop printing object test_cube.stl id:0 copy 0
;LAYER_CHANGE
;Z:15.4
;HEIGHT:0.2
;_SET_FAN_SPEED_CHANGING_LAYER
; printing object test_cube.stl id:0 copy 0
SET_VELOCITY_LIMIT ACCEL=5000 ACCEL_TO_DECEL=2500
G1 E-2 F2400
G1 X134.346 Y-984.525 Z999.925 F7200
G1 E2 F2400
;TYPE:Inner wall
;WIDTH:0.449999
G1 F3485
G1 X115.654 Y-984.525 E.62008
G1 X115.654 Y-971.69 E.42576
G1 X134.346 Y-971.69 E.62008
G1 X134.346 Y-984.485 E.42443
SET_VELOCITY_LIMIT ACCEL=500 ACCEL_TO_DECEL=250
G1 X134.775 Y-984.954 F7200
;TYPE:Outer wall
G1 F3485
G1 X115.225 Y-984.954 E.64851
G1 X115.225 Y-971.262 E.45419
G1 X134.775 Y-971.262 E.64851
