;Sliced by ideaMaker 5.3.2.8640, 2026-02-21 07:21:58 UTC+0100
;Slicer Version: 5.3.0.8620
;Dimension: 250.000 9999.000 250.000 0.400
;Plate Shape: 0
;Origin Center: 0
;Belt Printer: 1
;Belt Base Y: 5049.500
;Belt Base Z: 0.010
;Belt Offset Y: 0.000
;Belt Offset Z: 3570.528
;Belt Gantry Angle: 45
;Belt Remove Z: 0.283
;Belt Repetition: 1
;Extruder Offset #1: 25.000 0.000
;Filament Diameter #1: 1.750
;Filament Diameter #2: 1.750
;Filament Compensation #1: 98.000
;Filament Compensation #2: 100.000
;Filament Density #1: 1250.000
;Filament Density #2: 1250.000
;Filament Type #1: PLA
;Filament Type #2: PLA
;Filament Name #1: IdeaFormer PLA 1.75mm
;Filament Name #2: IdeaFormer PLA 1.75mm
;Filament #1: Ideaformer PLA 1.75mm
;Filament #2: Ideaformer PLA 1.75mm
;Printer Type: IdeaFormer IR3 V2
;Firmware: Klipper
;Bounding Box: 124.000 126.000 -0.150 2.678 0.200 15.283
;Model Gap: 0.000
;
;
M221 T0 S98.00
PRINT_START
M140 S90
M104 T0 S240
M109 T0 S240
M190 S90
G92 E0        ; Set axis to 0
G1 Y.1
G1 E15 F1000
G1 Z20 E25 F800
G1 E23
G28 Y
G1 E25
FMS_on
G1 X250 E50 F2000
G92 Z0
G1 Z.4
G1 X0 E75
G1 F1000
G92 E0 Z0
;end of Start GCode
;TOTAL_NUM: 1
;PRINTING_TIME: 0
;REMAINING_TIME: 112
M83
;LAYER:0
;Z:0.400
;HEIGHT:0.400
;HEIGHT-BELT:0.283
;BELT-FIRST-Z:0.400
M106 S0
;PRINTING: default-box.3mf
;PRINTING_ID: 0
G1 F1800 E-0.4000
SET_VELOCITY_LIMIT ACCEL=5000.00
G0 F10800 X124.200 Y0.050
G0 F600 Z0.400
;TYPE:WALL-OUTER
;WIDTH:0.400
;HEIGHT:0.400
;HEIGHT-BELT:0.283
G1 F1800 E0.4000
G1 F600 X125.800 Y0.050 E0.0532
G1 X125.800 Y0.416 E0.0122
G1 X124.200 Y0.416 E0.0532
G1 X124.200 Y0.050 E0.0122
;PRINTING_TIME: 1
;REMAINING_TIME: 111
;LAYER:1
;Z:0.683
;HEIGHT:0.283
;HEIGHT-BELT:0.200
;PRINTING: default-box.3mf
;PRINTING_ID: 0
G1 F1800 E-0.4000
G0 F600 Z0.683
G0 F10800 X124.200 Y0.050
;TYPE:WALL-OUTER
;WIDTH:0.400
G1 F1800 E0.4000
G1 F600 X125.800 Y0.050 E0.0532
G1 X125.800 Y0.816 E0.0255
G1 X124.200 Y0.816 E0.0532
G1 X124.200 Y0.050 E0.0255
G0 F10800 X124.400 Y0.433
;TYPE:GAP-FILL
;WIDTH:0.366
G1 F600 X125.600 Y0.433 E0.0365
;PRINTING_TIME: 2
;REMAINING_TIME: 110
;LAYER:2
;Z:0.966
;HEIGHT:0.283
;HEIGHT-BELT:0.200
;PRINTING: default-box.3mf
;PRINTING_ID: 0
G1 F1800 E-0.4000
G0 F600 Z0.966
G0 F10800 X124.200 Y0.050
;TYPE:WALL-OUTER
;WIDTH:0.400
G1 F1800 E0.4000
G1 F600 X125.800 Y0.050 E0.0532
G1 X125.800 Y1.216 E0.0388
G1 X124.200 Y1.216 E0.0532
G1 X124.200 Y0.050 E0.0388
G0 F10800 X124.600 Y0.450
;TYPE:WALL-INNER
;WIDTH:0.400
G1 F600 X125.400 Y0.450 E0.0266
G1 X125.400 Y0.816 E0.0122
G1 X124.600 Y0.816 E0.0266
G1 X124.600 Y0.450 E0.0122
;PRINTING_TIME: 3
;REMAINING_TIME: 109
;LAYER:3
;Z:1.249
;HEIGHT:0.283
;HEIGHT-BELT:0.200
;PRINTING: default-box.3mf
;PRINTING_ID: 0
G1 F1800 E-0.4000
G0 F600 Z1.249
G0 F10800 X124.200 Y0.050
;TYPE:WALL-OUTER
;WIDTH:0.400
G1 F1800 E0.4000
G1 F600 X125.800 Y0.050 E0.0532
G1 X125.800 Y1.616 E0.0521
G1 X124.200 Y1.616 E0.0532
G1 X124.200 Y0.050 E0.0521
G0 F10800 X124.600 Y0.450
;TYPE:WALL-INNER
;WIDTH:0.400
G1 F600 X125.400 Y0.450 E0.0266
G1 X125.400 Y1.216 E0.0255
G1 X124.600 Y1.216 E0.0266
G1 X124.600 Y0.450 E0.0255
G0 F10800 X124.800 Y0.833
;TYPE:GAP-FILL
;WIDTH:0.366
G1 F600 X125.200 Y0.833 E0.0122
;PRINTING_TIME: 4
;REMAINING_TIME: 108
;LAYER:4
;Z:1.532
;HEIGHT:0.283
;HEIGHT-BELT:0.200
M106 S51
;PRINTING: default-box.3mf
;PRINTING_ID: 0
G1 F1800 E-0.4000
G0 F600 Z1.532
G0 F10800 X124.200 Y0.050
;TYPE:WALL-OUTER
;WIDTH:0.400
G1 F1800 E0.4000
G1 F600 X125.800 Y0.050 E0.0532
G1 X125.800 Y2.016 E0.0654
G1 X124.200 Y2.016 E0.0532
G1 X124.200 Y0.050 E0.0654
G0 F10800 X124.600 Y0.450
;TYPE:WALL-INNER
;WIDTH:0.400
G1 F600 X125.400 Y0.450 E0.0266
G1 X125.400 Y1.616 E0.0388
G1 X124.600 Y1.616 E0.0266
G1 X124.600 Y0.450 E0.0388
G0 F10800 X125.000 Y0.650
;TYPE:GAP-FILL
;WIDTH:0.400
G1 F600 X125.000 Y1.415 E0.0254
;PRINTING_TIME: 5
;REMAINING_TIME: 107
;LAYER:5
;Z:1.815
;HEIGHT:0.283
;HEIGHT-BELT:0.200
;PRINTING: default-box.3mf
;PRINTING_ID: 0
G1 F1800 E-0.4000
G0 F600 Z1.815
G0 F10800 X124.200 Y0.050
;TYPE:WALL-OUTER
;WIDTH:0.400
G1 F1800 E0.4000
G1 F600 X125.800 Y0.050 E0.0532
G1 X125.800 Y2.416 E0.0787
G1 X124.200 Y2.416 E0.0532
G1 X124.200 Y0.050 E0.0787
G0 F10800 X124.600 Y0.450
;TYPE:WALL-INNER
;WIDTH:0.400
G1 F600 X125.400 Y0.450 E0.0266
G1 X125.400 Y2.016 E0.0521
G1 X124.600 Y2.016 E0.0266
G1 X124.600 Y0.450 E0.0521
G0 F10800 X125.000 Y0.650
;TYPE:GAP-FILL
;WIDTH:0.400
G1 F600 X125.000 Y1.816 E0.0388
;PRINTING_TIME: 7
;REMAINING_TIME: 105
;LAYER:6
;Z:2.098
;HEIGHT:0.283
;HEIGHT-BELT:0.200
;PRINTING: default-box.3mf
;PRINTING_ID: 0
G1 F1800 E-0.4000
G0 F600 Z2.098
G0 F10800 X124.200 Y0.050
;TYPE:WALL-OUTER
;WIDTH:0.400
G1 F1800 E0.4000
G1 F600 X125.800 Y0.050 E0.0532
G1 X125.800 Y2.478 E0.0808
G1 X124.200 Y2.478 E0.0532
G1 X124.200 Y0.050 E0.0808
G0 F10800 X124.600 Y0.450
;TYPE:WALL-INNER
;WIDTH:0.400
G1 F600 X125.400 Y0.450 E0.0266
G1 X125.400 Y2.078 E0.0541
G1 X124.600 Y2.078 E0.0266
G1 X124.600 Y0.450 E0.0541
G0 F10800 X125.000 Y0.650
;TYPE:GAP-FILL
;WIDTH:0.400
G1 F600 X125.000 Y1.878 E0.0408
;PRINTING_TIME: 8
;REMAINING_TIME: 104
;LAYER:7
;Z:2.381
;HEIGHT:0.283
;HEIGHT-BELT:0.200
;PRINTING: default-box.3mf
;PRINTING_ID: 0
G1 F1800 E-0.4000
G0 F600 Z2.381
G0 F10800 X124.200 Y0.050
;TYPE:WALL-OUTER
;WIDTH:0.400
G1 F1800 E0.4000
G1 F600 X125.800 Y0.050 E0.0532
G1 X125.800 Y2.478 E0.0808
G1 X124.200 Y2.478 E0.0532
G1 X124.200 Y0.050 E0.0808
G0 F10800 X124.600 Y0.450
;TYPE:WALL-INNER
;WIDTH:0.400
G1 F600 X125.400 Y0.450 E0.0266
G1 X125.400 Y2.078 E0.0541
G1 X124.600 Y2.078 E0.0266
G1 X124.600 Y0.450 E0.0541
G0 F10800 X125.000 Y0.650
;TYPE:GAP-FILL
;WIDTH:0.400
G1 F600 X125.000 Y1.878 E0.0408
;PRINTING_TIME: 10
;REMAINING_TIME: 102
;LAYER:8
;Z:2.664
;HEIGHT:0.283
;HEIGHT-BELT:0.200
;PRINTING: default-box.3mf
;PRINTING_ID: 0
G1 F1800 E-0.4000
G0 F600 Z2.664
G0 F10800 X124.200 Y0.050
;TYPE:WALL-OUTER
;WIDTH:0.400
G1 F1800 E0.4000
G1 F600 X125.800 Y0.050 E0.0532
G1 X125.800 Y2.478 E0.0808
G1 X124.200 Y2.478 E0.0532
G1 X124.200 Y0.050 E0.0808
G0 F10800 X124.600 Y0.450
;TYPE:WALL-INNER
;WIDTH:0.400
G1 F600 X125.400 Y0.450 E0.0266
G1 X125.400 Y2.078 E0.0541
G1 X124.600 Y2.078 E0.0266
G1 X124.600 Y0.450 E0.0541
G0 F10800 X125.000 Y0.650
;TYPE:GAP-FILL
;WIDTH:0.400
G1 F600 X125.000 Y1.878 E0.0408
;PRINTING_TIME: 12
;REMAINING_TIME: 100
;LAYER:9
;Z:2.947
;HEIGHT:0.283
;HEIGHT-BELT:0.200
M106 S102
;PRINTING: default-box.3mf
;PRINTING_ID: 0
G1 F1800 E-0.4000
G0 F600 Z2.947
G0 F10800 X124.200 Y0.050
;TYPE:WALL-OUTER
;WIDTH:0.400
G1 F1800 E0.4000
G1 F600 X125.800 Y0.050 E0.0532
G1 X125.800 Y2.478 E0.0808
G1 X124.200 Y2.478 E0.0532
G1 X124.200 Y0.050 E0.0808
G0 F10800 X124.600 Y0.450
;TYPE:WALL-INNER
;WIDTH:0.400
G1 F600 X125.400 Y0.450 E0.0266
G1 X125.400 Y2.078 E0.0541
G1 X124.600 Y2.078 E0.0266
G1 X124.600 Y0.450 E0.0541
G0 F10800 X125.000 Y0.650
;TYPE:GAP-FILL
;WIDTH:0.400
G1 F600 X125.000 Y1.878 E0.0408
;PRINTING_TIME: 13
;REMAINING_TIME: 99
;LAYER:10
;Z:3.230
;HEIGHT:0.283
;HEIGHT-BELT:0.200
;PRINTING: default-box.3mf
;PRINTING_ID: 0
G1 F1800 E-0.4000
G0 F600 Z3.230
G0 F10800 X124.200 Y0.050
;TYPE:WALL-OUTER
;WIDTH:0.400
G1 F1800 E0.4000
G1 F600 X125.800 Y0.050 E0.0532
G1 X125.800 Y2.478 E0.0808
G1 X124.200 Y2.478 E0.0532
G1 X124.200 Y0.050 E0.0808
G0 F10800 X124.600 Y0.450
;TYPE:WALL-INNER
;WIDTH:0.400
G1 F600 X125.400 Y0.450 E0.0266
G1 X125.400 Y2.078 E0.0541
G1 X124.600 Y2.078 E0.0266
G1 X124.600 Y0.450 E0.0541
G0 F10800 X125.000 Y0.650
;TYPE:GAP-FILL
;WIDTH:0.400
G1 F600 X125.000 Y1.878 E0.0408
;PRINTING_TIME: 15
;REMAINING_TIME: 97
;LAYER:11
;Z:3.513
;HEIGHT:0.283
;HEIGHT-BELT:0.200
;PRINTING: default-box.3mf
;PRINTING_ID: 0
G1 F1800 E-0.4000
G0 F600 Z3.513
G0 F10800 X124.200 Y0.050
;TYPE:WALL-OUTER
;WIDTH:0.400
G1 F1800 E0.4000
G1 F600 X125.800 Y0.050 E0.0532
G1 X125.800 Y2.478 E0.0808
G1 X124.200 Y2.478 E0.0532
G1 X124.200 Y0.050 E0.0808
G0 F10800 X124.600 Y0.450
;TYPE:WALL-INNER
;WIDTH:0.400
G1 F600 X125.400 Y0.450 E0.0266
G1 X125.400 Y2.078 E0.0541
G1 X124.600 Y2.078 E0.0266
G1 X124.600 Y0.450 E0.0541
G0 F10800 X125.000 Y0.650
;TYPE:GAP-FILL
;WIDTH:0.400
G1 F600 X125.000 Y1.878 E0.0408
;PRINTING_TIME: 16
;REMAINING_TIME: 96
;LAYER:12
;Z:3.796
;HEIGHT:0.283
;HEIGHT-BELT:0.200
;PRINTING: default-box.3mf
;PRINTING_ID: 0
G1 F1800 E-0.4000
G0 F600 Z3.796
G0 F10800 X124.200 Y0.050
;TYPE:WALL-OUTER
;WIDTH:0.400
G1 F1800 E0.4000
G1 F600 X125.800 Y0.050 E0.0532
G1 X125.800 Y2.478 E0.0808
G1 X124.200 Y2.478 E0.0532
G1 X124.200 Y0.050 E0.0808
G0 F10800 X124.600 Y0.450
;TYPE:WALL-INNER
;WIDTH:0.400
G1 F600 X125.400 Y0.450 E0.0266
G1 X125.400 Y2.078 E0.0541
G1 X124.600 Y2.078 E0.0266
G1 X124.600 Y0.450 E0.0541
G0 F10800 X125.000 Y0.650
;TYPE:GAP-FILL
;WIDTH:0.400
G1 F600 X125.000 Y1.878 E0.0408
;PRINTING_TIME: 18
;REMAINING_TIME: 94
;LAYER:13
;Z:4.079
;HEIGHT:0.283
;HEIGHT-BELT:0.200
;PRINTING: default-box.3mf
;PRINTING_ID: 0
G1 F1800 E-0.4000
G0 F600 Z4.079
G0 F10800 X124.200 Y0.050
;TYPE:WALL-OUTER
;WIDTH:0.400
G1 F1800 E0.4000
G1 F600 X125.800 Y0.050 E0.0532
G1 X125.800 Y2.478 E0.0808
G1 X124.200 Y2.478 E0.0532
G1 X124.200 Y0.050 E0.0808
G0 F10800 X124.600 Y0.450
;TYPE:WALL-INNER
;WIDTH:0.400
G1 F600 X125.400 Y0.450 E0.0266
G1 X125.400 Y2.078 E0.0541
G1 X124.600 Y2.078 E0.0266
G1 X124.600 Y0.450 E0.0541
G0 F10800 X125.000 Y0.650
;TYPE:GAP-FILL
;WIDTH:0.400
G1 F600 X125.000 Y1.878 E0.0408
;PRINTING_TIME: 19
;REMAINING_TIME: 93
;LAYER:14
;Z:4.362
;HEIGHT:0.283
;HEIGHT-BELT:0.200
;PRINTING: default-box.3mf
;PRINTING_ID: 0
G1 F1800 E-0.4000
G0 F600 Z4.362
G0 F10800 X124.200 Y0.050
;TYPE:WALL-OUTER
;WIDTH:0.400
G1 F1800 E0.4000
G1 F600 X125.800 Y0.050 E0.0532
G1 X125.800 Y2.478 E0.0808
G1 X124.200 Y2.478 E0.0532
G1 X124.200 Y0.050 E0.0808
G0 F10800 X124.600 Y0.450
;TYPE:WALL-INNER
;WIDTH:0.400
G1 F600 X125.400 Y0.450 E0.0266
G1 X125.400 Y2.078 E0.0541
G1 X124.600 Y2.078 E0.0266
G1 X124.600 Y0.450 E0.0541
G0 F10800 X125.000 Y0.650
;TYPE:GAP-FILL
;WIDTH:0.400
G1 F600 X125.000 Y1.878 E0.0408
;PRINTING_TIME: 21
;REMAINING_TIME: 91
;LAYER:15
;Z:4.645
;HEIGHT:0.283
;HEIGHT-BELT:0.200
;PRINTING: default-box.3mf
;PRINTING_ID: 0
G1 F1800 E-0.4000
G0 F600 Z4.645
G0 F10800 X124.200 Y0.050
;TYPE:WALL-OUTER
;WIDTH:0.400
G1 F1800 E0.4000
G1 F600 X125.800 Y0.050 E0.0532
G1 X125.800 Y2.478 E0.0808
G1 X124.200 Y2.478 E0.0532
G1 X124.200 Y0.050 E0.0808
G0 F10800 X124.600 Y0.450
;TYPE:WALL-INNER
;WIDTH:0.400
G1 F600 X125.400 Y0.450 E0.0266
G1 X125.400 Y2.078 E0.0541
G1 X124.600 Y2.078 E0.0266
G1 X124.600 Y0.450 E0.0541
G0 F10800 X125.000 Y0.650
;TYPE:GAP-FILL
;WIDTH:0.400
G1 F600 X125.000 Y1.878 E0.0408
;PRINTING_TIME: 23
;REMAINING_TIME: 89
;LAYER:16
;Z:4.928
;HEIGHT:0.283
;HEIGHT-BELT:0.200
;PRINTING: default-box.3mf
;PRINTING_ID: 0
G1 F1800 E-0.4000
G0 F600 Z4.928
G0 F10800 X124.200 Y0.050
;TYPE:WALL-OUTER
;WIDTH:0.400
G1 F1800 E0.4000
G1 F600 X125.800 Y0.050 E0.0532
G1 X125.800 Y2.478 E0.0808
G1 X124.200 Y2.478 E0.0532
G1 X124.200 Y0.050 E0.0808
G0 F10800 X124.600 Y0.450
;TYPE:WALL-INNER
;WIDTH:0.400
G1 F600 X125.400 Y0.450 E0.0266
G1 X125.400 Y2.078 E0.0541
G1 X124.600 Y2.078 E0.0266
G1 X124.600 Y0.450 E0.0541
G0 F10800 X125.000 Y0.650
;TYPE:GAP-FILL
;WIDTH:0.400
G1 F600 X125.000 Y1.878 E0.0408
;PRINTING_TIME: 24
;REMAINING_TIME: 88
;LAYER:17
;Z:5.211
;HEIGHT:0.283
;HEIGHT-BELT:0.200
;PRINTING: default-box.3mf
;PRINTING_ID: 0
G1 F1800 E-0.4000
G0 F600 Z5.211
G0 F10800 X124.200 Y0.050
;TYPE:WALL-OUTER
;WIDTH:0.400
G1 F1800 E0.4000
G1 F600 X125.800 Y0.050 E0.0532
G1 X125.800 Y2.478 E0.0808
G1 X124.200 Y2.478 E0.0532
G1 X124.200 Y0.050 E0.0808
G0 F10800 X124.600 Y0.450
;TYPE:WALL-INNER
;WIDTH:0.400
G1 F600 X125.400 Y0.450 E0.0266
G1 X125.400 Y2.078 E0.0541
G1 X124.600 Y2.078 E0.0266
G1 X124.600 Y0.450 E0.0541
G0 F10800 X125.000 Y0.650
;TYPE:GAP-FILL
;WIDTH:0.400
G1 F600 X125.000 Y1.878 E0.0408
;PRINTING_TIME: 26
;REMAINING_TIME: 86
;LAYER:18
;Z:5.494
;HEIGHT:0.283
;HEIGHT-BELT:0.200
;PRINTING: default-box.3mf
;PRINTING_ID: 0
G1 F1800 E-0.4000
G0 F600 Z5.494
G0 F10800 X124.200 Y0.050
;TYPE:WALL-OUTER
;WIDTH:0.400
G1 F1800 E0.4000
G1 F600 X125.800 Y0.050 E0.0532
G1 X125.800 Y2.478 E0.0808
G1 X124.200 Y2.478 E0.0532
G1 X124.200 Y0.050 E0.0808
G0 F10800 X124.600 Y0.450
;TYPE:WALL-INNER
;WIDTH:0.400
G1 F600 X125.400 Y0.450 E0.0266
G1 X125.400 Y2.078 E0.0541
G1 X124.600 Y2.078 E0.0266
G1 X124.600 Y0.450 E0.0541
G0 F10800 X125.000 Y0.650
;TYPE:GAP-FILL
;WIDTH:0.400
G1 F600 X125.000 Y1.878 E0.0408
;PRINTING_TIME: 27
;REMAINING_TIME: 85
;LAYER:19
;Z:5.777
;HEIGHT:0.283
;HEIGHT-BELT:0.200
;PRINTING: default-box.3mf
;PRINTING_ID: 0
G1 F1800 E-0.4000
G0 F600 Z5.777
G0 F10800 X124.200 Y0.050
;TYPE:WALL-OUTER
;WIDTH:0.400
G1 F1800 E0.4000
G1 F600 X125.800 Y0.050 E0.0532
G1 X125.800 Y2.478 E0.0808
G1 X124.200 Y2.478 E0.0532
G1 X124.200 Y0.050 E0.0808
G0 F10800 X124.600 Y0.450
;TYPE:WALL-INNER
;WIDTH:0.400
G1 F600 X125.400 Y0.450 E0.0266
G1 X125.400 Y2.078 E0.0541
G1 X124.600 Y2.078 E0.0266
G1 X124.600 Y0.450 E0.0541
G0 F10800 X125.000 Y0.650
;TYPE:GAP-FILL
;WIDTH:0.400
G1 F600 X125.000 Y1.878 E0.0408
;PRINTING_TIME: 29
;REMAINING_TIME: 83
;LAYER:20
;Z:6.060
;HEIGHT:0.283
;HEIGHT-BELT:0.200
;PRINTING: default-box.3mf
;PRINTING_ID: 0
G1 F1800 E-0.4000
G0 F600 Z6.060
G0 F10800 X124.200 Y0.050
;TYPE:WALL-OUTER
;WIDTH:0.400
G1 F1800 E0.4000
G1 F600 X125.800 Y0.050 E0.0532
G1 X125.800 Y2.478 E0.0808
G1 X124.200 Y2.478 E0.0532
G1 X124.200 Y0.050 E0.0808
G0 F10800 X124.600 Y0.450
;TYPE:WALL-INNER
;WIDTH:0.400
G1 F600 X125.400 Y0.450 E0.0266
G1 X125.400 Y2.078 E0.0541
G1 X124.600 Y2.078 E0.0266
G1 X124.600 Y0.450 E0.0541
G0 F10800 X125.000 Y0.650
;TYPE:GAP-FILL
;WIDTH:0.400
G1 F600 X125.000 Y1.878 E0.0408
;PRINTING_TIME: 30
;REMAINING_TIME: 82
;LAYER:21
;Z:6.343
;HEIGHT:0.283
;HEIGHT-BELT:0.200
;PRINTING: default-box.3mf
;PRINTING_ID: 0
G1 F1800 E-0.4000
G0 F600 Z6.343
G0 F10800 X124.200 Y0.050
;TYPE:WALL-OUTER
;WIDTH:0.400
G1 F1800 E0.4000
G1 F600 X125.800 Y0.050 E0.0532
G1 X125.800 Y2.478 E0.0808
G1 X124.200 Y2.478 E0.0532
G1 X124.200 Y0.050 E0.0808
G0 F10800 X124.600 Y0.450
;TYPE:WALL-INNER
;WIDTH:0.400
G1 F600 X125.400 Y0.450 E0.0266
G1 X125.400 Y2.078 E0.0541
G1 X124.600 Y2.078 E0.0266
G1 X124.600 Y0.450 E0.0541
G0 F10800 X125.000 Y0.650
;TYPE:GAP-FILL
;WIDTH:0.400
G1 F600 X125.000 Y1.878 E0.0408
;PRINTING_TIME: 32
;REMAINING_TIME: 80
;LAYER:22
;Z:6.626
;HEIGHT:0.283
;HEIGHT-BELT:0.200
;PRINTING: default-box.3mf
;PRINTING_ID: 0
G1 F1800 E-0.4000
G0 F600 Z6.626
G0 F10800 X124.200 Y0.050
;TYPE:WALL-OUTER
;WIDTH:0.400
G1 F1800 E0.4000
G1 F600 X125.800 Y0.050 E0.0532
G1 X125.800 Y2.478 E0.0808
G1 X124.200 Y2.478 E0.0532
G1 X124.200 Y0.050 E0.0808
G0 F10800 X124.600 Y0.450
;TYPE:WALL-INNER
;WIDTH:0.400
G1 F600 X125.400 Y0.450 E0.0266
G1 X125.400 Y2.078 E0.0541
G1 X124.600 Y2.078 E0.0266
G1 X124.600 Y0.450 E0.0541
G0 F10800 X125.000 Y0.650
;TYPE:GAP-FILL
;WIDTH:0.400
G1 F600 X125.000 Y1.878 E0.0408
;PRINTING_TIME: 34
;REMAINING_TIME: 78
;LAYER:23
;Z:6.909
;HEIGHT:0.283
;HEIGHT-BELT:0.200
;PRINTING: default-box.3mf
;PRINTING_ID: 0
G1 F1800 E-0.4000
G0 F600 Z6.909
G0 F10800 X124.200 Y0.050
;TYPE:WALL-OUTER
;WIDTH:0.400
G1 F1800 E0.4000
G1 F600 X125.800 Y0.050 E0.0532
G1 X125.800 Y2.478 E0.0808
G1 X124.200 Y2.478 E0.0532
G1 X124.200 Y0.050 E0.0808
G0 F10800 X124.600 Y0.450
;TYPE:WALL-INNER
;WIDTH:0.400
G1 F600 X125.400 Y0.450 E0.0266
G1 X125.400 Y2.078 E0.0541
G1 X124.600 Y2.078 E0.0266
G1 X124.600 Y0.450 E0.0541
G0 F10800 X125.000 Y0.650
;TYPE:GAP-FILL
;WIDTH:0.400
G1 F600 X125.000 Y1.878 E0.0408
;PRINTING_TIME: 35
;REMAINING_TIME: 77
;LAYER:24
;Z:7.192
;HEIGHT:0.283
;HEIGHT-BELT:0.200
;PRINTING: default-box.3mf
;PRINTING_ID: 0
G1 F1800 E-0.4000
G0 F600 Z7.192
G0 F10800 X124.200 Y0.050
;TYPE:WALL-OUTER
;WIDTH:0.400
G1 F1800 E0.4000
G1 F600 X125.800 Y0.050 E0.0532
G1 X125.800 Y2.478 E0.0808
G1 X124.200 Y2.478 E0.0532
G1 X124.200 Y0.050 E0.0808
G0 F10800 X124.600 Y0.450
;TYPE:WALL-INNER
;WIDTH:0.400
G1 F600 X125.400 Y0.450 E0.0266
G1 X125.400 Y2.078 E0.0541
G1 X124.600 Y2.078 E0.0266
G1 X124.600 Y0.450 E0.0541
G0 F10800 X125.000 Y0.650
;TYPE:GAP-FILL
;WIDTH:0.400
G1 F600 X125.000 Y1.878 E0.0408
;PRINTING_TIME: 37
;REMAINING_TIME: 75
;LAYER:25
