;Sliced by ideaMaker 5.3.2.8640, 2026-02-21 07:20:09 UTC+0100
;Slicer Version: 5.3.0.8620
;Dimension: 250.000 9999.000 250.000 0.400
;Plate Shape: 0
;Origin Center: 0
;Belt Printer: 1
;Belt Base Y: 5042.000
;Belt Base Z: 0.010
;Belt Offset Y: 0.000
;Belt Offset Z: 3565.225
;Belt Gantry Angle: 45
;Belt Remove Z: 0.283
;Belt Repetition: 1
;Extruder Offset #1: 25.000 0.000
;Filament Diameter #1: 1.750
;Filament Diameter #2: 1.750
;Filament Compensation #1: 98.000
;Filament Compensation #2: 100.000
;Filament Density #1: 1250.000
;Filament Density #2: 1250.000
;Filament Type #1: PLA
;Filament Type #2: PLA
;Filament Name #1: IdeaFormer PLA 1.75mm
;Filament Name #2: IdeaFormer PLA 1.75mm
;Filament #1: Ideaformer PLA 1.75mm
;Filament #2: Ideaformer PLA 1.75mm
;Printer Type: IdeaFormer IR3 V2
;Firmware: Klipper
;Bounding Box: 100.000 150.000 -0.150 6.921 0.200 6.883
;Model Gap: 0.000
;
;
M221 T0 S98.00
PRINT_START
M140 S90
M104 T0 S240
M109 T0 S240
M190 S90
G92 E0        ; Set axis to 0
G1 Y.1
G1 E15 F1000
G1 Z20 E25 F800
G1 E23
G28 Y
G1 E25
FMS_on
G1 X250 E50 F2000
G92 Z0
G1 Z.4
G1 X0 E75
G1 F1000
G92 E0 Z0
;end of Start GCode
;TOTAL_NUM: 1
;PRINTING_TIME: 0
;REMAINING_TIME: 254
M83
;LAYER:0
;Z:0.400
;HEIGHT:0.400
;HEIGHT-BELT:0.283
;BELT-FIRST-Z:0.400
M106 S0
;PRINTING: default-box.3mf
;PRINTING_ID: 0
G1 F1800 E-0.4000
SET_VELOCITY_LIMIT ACCEL=5000.00
G0 F10800 X100.200 Y0.050
G0 F600 Z0.400
;TYPE:WALL-OUTER
;WIDTH:0.400
;HEIGHT:0.400
;HEIGHT-BELT:0.283
G1 F1800 E0.4000
G1 F1349 X149.800 Y0.050 E1.6497
G1 X149.800 Y0.416 E0.0122
G1 X100.200 Y0.416 E1.6497
G1 X100.200 Y0.050 E0.0122
;PRINTING_TIME: 5
;REMAINING_TIME: 249
;LAYER:1
;Z:0.683
;HEIGHT:0.283
;HEIGHT-BELT:0.200
;PRINTING: default-box.3mf
;PRINTING_ID: 0
G1 F1800 E-0.4000
G0 F600 Z0.683
G0 F10800 X100.200 Y0.050
;TYPE:WALL-OUTER
;WIDTH:0.400
G1 F1800 E0.4000
G1 F3211 X149.800 Y0.050 E1.6497
G1 X149.800 Y0.816 E0.0255
G1 F1223 X100.200 Y0.816 E1.6497
G1 F3211 X100.200 Y0.050 E0.0255
G0 F10800 X100.400 Y0.433
;TYPE:GAP-FILL
;WIDTH:0.366
G1 F1835 X149.600 Y0.433 E1.4973
;PRINTING_TIME: 10
;REMAINING_TIME: 243
;LAYER:2
;Z:0.966
;HEIGHT:0.283
;HEIGHT-BELT:0.200
;PRINTING: default-box.3mf
;PRINTING_ID: 0
G1 F1800 E-0.4000
G0 F600 Z0.966
G0 F10800 X100.200 Y0.050
;TYPE:WALL-OUTER
;WIDTH:0.400
G1 F1800 E0.4000
G1 F3918 X149.800 Y0.050 E1.6497
G1 X149.800 Y1.216 E0.0388
G1 F1229 X100.200 Y1.216 E1.6497
G1 F3918 X100.200 Y0.050 E0.0388
G0 F10800 X100.600 Y0.450
;TYPE:WALL-INNER
;WIDTH:0.400
G1 F3918 X149.400 Y0.450 E1.6231
G1 X149.400 Y0.816 E0.0122
G1 X100.600 Y0.816 E1.6231
G1 X100.600 Y0.450 E0.0122
;PRINTING_TIME: 15
;REMAINING_TIME: 238
;LAYER:3
;Z:1.249
;HEIGHT:0.283
;HEIGHT-BELT:0.200
;PRINTING: default-box.3mf
;PRINTING_ID: 0
G1 F1800 E-0.4000
G0 F600 Z1.249
G0 F10800 X100.200 Y0.050
;TYPE:WALL-OUTER
;WIDTH:0.400
G1 F1800 E0.4000
G1 F5516 X149.800 Y0.050 E1.6497
G1 X149.800 Y1.616 E0.0521
G1 F1471 X100.200 Y1.616 E1.6497
G1 F5516 X100.200 Y0.050 E0.0521
G0 F10800 X100.600 Y0.450
;TYPE:WALL-INNER
;WIDTH:0.400
G1 F5516 X149.400 Y0.450 E1.6231
G1 X149.400 Y1.216 E0.0255
G1 X100.600 Y1.216 E1.6231
G1 X100.600 Y0.450 E0.0255
G0 F10800 X100.800 Y0.833
;TYPE:GAP-FILL
;WIDTH:0.366
G1 F2206 X149.200 Y0.833 E1.4730
;PRINTING_TIME: 21
;REMAINING_TIME: 233
;LAYER:4
;Z:1.532
;HEIGHT:0.283
;HEIGHT-BELT:0.200
M106 S51
;PRINTING: default-box.3mf
;PRINTING_ID: 0
G1 F1800 E-0.4000
G0 F600 Z1.532
G0 F10800 X100.200 Y0.050
;TYPE:WALL-OUTER
;WIDTH:0.400
G1 F1800 E0.4000
G1 F5687 X149.800 Y0.050 E1.6497
G1 X149.800 Y2.016 E0.0654
G1 F1516 X100.200 Y2.016 E1.6497
G1 F5687 X100.200 Y0.050 E0.0654
G0 F10800 X100.600 Y0.450
;TYPE:WALL-INNER
;WIDTH:0.400
G1 F5687 X149.400 Y0.450 E1.6231
G1 X149.400 Y1.616 E0.0388
G1 X100.600 Y1.616 E1.6231
G1 X100.600 Y0.450 E0.0388
G0 F10800 X101.180 Y0.775
;TYPE:SOLID-FILL
;WIDTH:0.400
G1 F5687 X100.759 Y1.197 E0.0198
G0 F5687 X101.066 Y1.455
G1 F5687 X101.746 Y0.775 E0.0320
G0 F5687 X102.311 Y0.775
G1 F5687 X101.631 Y1.455 E0.0320
G0 F5687 X102.197 Y1.455
G1 F5687 X102.877 Y0.775 E0.0320
G0 F5687 X103.443 Y0.775
G1 F5687 X102.763 Y1.455 E0.0320
G0 F5687 X103.328 Y1.455
G1 F5687 X104.009 Y0.775 E0.0320
G0 F5687 X104.574 Y0.775
G1 F5687 X103.894 Y1.455 E0.0320
G0 F5687 X104.460 Y1.455
G1 F5687 X105.140 Y0.775 E0.0320
G0 F5687 X105.706 Y0.775
G1 F5687 X105.025 Y1.455 E0.0320
G0 F5687 X105.591 Y1.455
G1 F5687 X106.271 Y0.775 E0.0320
G0 F5687 X106.837 Y0.775
G1 F5687 X106.157 Y1.455 E0.0320
G0 F5687 X106.722 Y1.455
G1 F5687 X107.403 Y0.775 E0.0320
G0 F5687 X107.968 Y0.775
G1 F5687 X107.288 Y1.455 E0.0320
G0 F5687 X107.854 Y1.455
G1 F5687 X108.534 Y0.775 E0.0320
G0 F5687 X109.100 Y0.775
G1 F5687 X108.419 Y1.455 E0.0320
G0 F5687 X108.985 Y1.455
G1 F5687 X109.665 Y0.775 E0.0320
G0 F5687 X110.231 Y0.775
G1 F5687 X109.551 Y1.455 E0.0320
G0 F5687 X110.117 Y1.455
G1 F5687 X110.797 Y0.775 E0.0320
G0 F5687 X111.362 Y0.775
G1 F5687 X110.682 Y1.455 E0.0320
G0 F5687 X111.248 Y1.455
G1 F5687 X111.928 Y0.775 E0.0320
G0 F5687 X112.494 Y0.775
G1 F5687 X111.814 Y1.455 E0.0320
G0 F5687 X112.379 Y1.455
G1 F5687 X113.060 Y0.775 E0.0320
G0 F5687 X113.625 Y0.775
G1 F5687 X112.945 Y1.455 E0.0320
G0 F5687 X113.511 Y1.455
G1 F5687 X114.191 Y0.775 E0.0320
G0 F5687 X114.757 Y0.775
G1 F5687 X114.076 Y1.455 E0.0320
G0 F5687 X114.642 Y1.455
G1 F5687 X115.322 Y0.775 E0.0320
G0 F5687 X115.888 Y0.775
G1 F5687 X115.208 Y1.455 E0.0320
G0 F5687 X115.773 Y1.455
G1 F5687 X116.454 Y0.775 E0.0320
G0 F5687 X117.019 Y0.775
G1 F5687 X116.339 Y1.455 E0.0320
G0 F5687 X116.905 Y1.455
G1 F5687 X117.585 Y0.775 E0.0320
G0 F5687 X118.151 Y0.775
G1 F5687 X117.470 Y1.455 E0.0320
G0 F5687 X118.036 Y1.455
G1 F5687 X118.716 Y0.775 E0.0320
G0 F5687 X119.282 Y0.775
G1 F5687 X118.602 Y1.455 E0.0320
G0 F5687 X119.167 Y1.455
G1 F5687 X119.848 Y0.775 E0.0320
G0 F5687 X120.413 Y0.775
G1 F5687 X119.733 Y1.455 E0.0320
G0 F5687 X120.299 Y1.455
G1 F5687 X120.979 Y0.775 E0.0320
G0 F5687 X121.545 Y0.775
G1 F5687 X120.865 Y1.455 E0.0320
G0 F5687 X121.430 Y1.455
G1 F5687 X122.110 Y0.775 E0.0320
G0 F5687 X122.676 Y0.775
G1 F5687 X121.996 Y1.455 E0.0320
G0 F5687 X122.562 Y1.455
G1 F5687 X123.242 Y0.775 E0.0320
G0 F5687 X123.808 Y0.775
G1 F5687 X123.127 Y1.455 E0.0320
G0 F5687 X123.693 Y1.455
G1 F5687 X124.373 Y0.775 E0.0320
G0 F5687 X124.939 Y0.775
G1 F5687 X124.259 Y1.455 E0.0320
G0 F5687 X124.824 Y1.455
G1 F5687 X125.505 Y0.775 E0.0320
G0 F5687 X126.070 Y0.775
G1 F5687 X125.390 Y1.455 E0.0320
G0 F5687 X125.956 Y1.455
G1 F5687 X126.636 Y0.775 E0.0320
G0 F5687 X127.202 Y0.775
G1 F5687 X126.521 Y1.455 E0.0320
G0 F5687 X127.087 Y1.455
G1 F5687 X127.767 Y0.775 E0.0320
G0 F5687 X128.333 Y0.775
G1 F5687 X127.653 Y1.455 E0.0320
G0 F5687 X128.218 Y1.455
G1 F5687 X128.899 Y0.775 E0.0320
G0 F5687 X129.464 Y0.775
G1 F5687 X128.784 Y1.455 E0.0320
G0 F5687 X129.350 Y1.455
G1 F5687 X130.030 Y0.775 E0.0320
G0 F5687 X130.596 Y0.775
G1 F5687 X129.916 Y1.455 E0.0320
G0 F5687 X130.481 Y1.455
G1 F5687 X131.161 Y0.775 E0.0320
G0 F5687 X131.727 Y0.775
G1 F5687 X131.047 Y1.455 E0.0320
G0 F5687 X131.613 Y1.455
G1 F5687 X132.293 Y0.775 E0.0320
G0 F5687 X132.859 Y0.775
G1 F5687 X132.178 Y1.455 E0.0320
G0 F5687 X132.744 Y1.455
G1 F5687 X133.424 Y0.775 E0.0320
G0 F5687 X133.990 Y0.775
G1 F5687 X133.310 Y1.455 E0.0320
G0 F5687 X133.875 Y1.455
G1 F5687 X134.556 Y0.775 E0.0320
G0 F5687 X135.121 Y0.775
G1 F5687 X134.441 Y1.455 E0.0320
G0 F5687 X135.007 Y1.455
G1 F5687 X135.687 Y0.775 E0.0320
G0 F5687 X136.253 Y0.775
G1 F5687 X135.572 Y1.455 E0.0320
G0 F5687 X136.138 Y1.455
G1 F5687 X136.818 Y0.775 E0.0320
G0 F5687 X137.384 Y0.775
G1 F5687 X136.704 Y1.455 E0.0320
G0 F5687 X137.269 Y1.455
G1 F5687 X137.950 Y0.775 E0.0320
G0 F5687 X138.515 Y0.775
G1 F5687 X137.835 Y1.455 E0.0320
G0 F5687 X138.401 Y1.455
G1 F5687 X139.081 Y0.775 E0.0320
G0 F5687 X139.647 Y0.775
G1 F5687 X138.966 Y1.455 E0.0320
G0 F5687 X139.532 Y1.455
G1 F5687 X140.212 Y0.775 E0.0320
G0 F5687 X140.778 Y0.775
G1 F5687 X140.098 Y1.455 E0.0320
G0 F5687 X140.664 Y1.455
G1 F5687 X141.344 Y0.775 E0.0320
G0 F5687 X141.909 Y0.775
G1 F5687 X141.229 Y1.455 E0.0320
G0 F5687 X141.795 Y1.455
G1 F5687 X142.475 Y0.775 E0.0320
G0 F5687 X143.041 Y0.775
G1 F5687 X142.361 Y1.455 E0.0320
G0 F5687 X142.926 Y1.455
G1 F5687 X143.607 Y0.775 E0.0320
G0 F5687 X144.172 Y0.775
G1 F5687 X143.492 Y1.455 E0.0320
G0 F5687 X144.058 Y1.455
G1 F5687 X144.738 Y0.775 E0.0320
G0 F5687 X145.304 Y0.775
G1 F5687 X144.623 Y1.455 E0.0320
G0 F5687 X145.189 Y1.455
G1 F5687 X145.869 Y0.775 E0.0320
G0 F5687 X146.435 Y0.775
G1 F5687 X145.755 Y1.455 E0.0320
G0 F5687 X146.320 Y1.455
G1 F5687 X147.001 Y0.775 E0.0320
G0 F5687 X147.566 Y0.775
G1 F5687 X146.886 Y1.455 E0.0320
G0 F5687 X147.452 Y1.455
G1 F5687 X148.132 Y0.775 E0.0320
G0 F5687 X148.698 Y0.775
G1 F5687 X148.017 Y1.455 E0.0320
G0 F5687 X148.583 Y1.455
G1 F5687 X149.239 Y0.800 E0.0308
G0 F5687 X149.239 Y1.366
G1 F5687 X149.149 Y1.455 E0.0042
;PRINTING_TIME: 29
;REMAINING_TIME: 225
;LAYER:5
;Z:1.815
;HEIGHT:0.283
;HEIGHT-BELT:0.200
;PRINTING: default-box.3mf
;PRINTING_ID: 0
G1 F1800 E-0.4000
G0 F600 Z1.815
G0 F10800 X100.200 Y0.050
;TYPE:WALL-OUTER
;WIDTH:0.400
G1 F1800 E0.4000
G1 F6539 X149.800 Y0.050 E1.6497
G1 X149.800 Y2.416 E0.0787
G1 F1744 X100.200 Y2.416 E1.6497
G1 F6539 X100.200 Y0.050 E0.0787
G0 F10800 X100.600 Y0.450
;TYPE:WALL-INNER
;WIDTH:0.400
G1 F6539 X149.400 Y0.450 E1.6231
G1 X149.400 Y2.016 E0.0521
G1 X100.600 Y2.016 E1.6231
G1 X100.600 Y0.450 E0.0521
G0 F10800 X100.759 Y1.331
;TYPE:SOLID-FILL
;WIDTH:0.400
G1 F6539 X101.283 Y1.856 E0.0247
G0 F6539 X101.849 Y1.856
G1 F6539 X101.170 Y1.176 E0.0320
G0 F6539 X101.735 Y1.176
G1 F6539 X102.415 Y1.856 E0.0320
G0 F6539 X102.980 Y1.856
G1 F6539 X102.301 Y1.176 E0.0320
G0 F6539 X102.867 Y1.176
G1 F6539 X103.546 Y1.856 E0.0320
G0 F6539 X104.112 Y1.856
G1 F6539 X103.432 Y1.176 E0.0320
G0 F6539 X103.998 Y1.176
G1 F6539 X104.677 Y1.856 E0.0320
G0 F6539 X105.243 Y1.856
G1 F6539 X104.564 Y1.176 E0.0320
G0 F6539 X105.129 Y1.176
G1 F6539 X105.809 Y1.856 E0.0320
G0 F6539 X106.375 Y1.856
G1 F6539 X105.695 Y1.176 E0.0320
G0 F6539 X106.261 Y1.176
G1 F6539 X106.940 Y1.856 E0.0320
G0 F6539 X107.506 Y1.856
G1 F6539 X106.826 Y1.176 E0.0320
G0 F6539 X107.392 Y1.176
G1 F6539 X108.072 Y1.856 E0.0320
G0 F6539 X108.637 Y1.856
G1 F6539 X107.958 Y1.176 E0.0320
G0 F6539 X108.523 Y1.176
G1 F6539 X109.203 Y1.856 E0.0320
G0 F6539 X109.769 Y1.856
G1 F6539 X109.089 Y1.176 E0.0320
G0 F6539 X109.655 Y1.176
G1 F6539 X110.334 Y1.856 E0.0320
G0 F6539 X110.900 Y1.856
G1 F6539 X110.220 Y1.176 E0.0320
G0 F6539 X110.786 Y1.176
G1 F6539 X111.466 Y1.856 E0.0320
G0 F6539 X112.031 Y1.856
G1 F6539 X111.352 Y1.176 E0.0320
G0 F6539 X111.918 Y1.176
G1 F6539 X112.597 Y1.856 E0.0320
G0 F6539 X113.163 Y1.856
G1 F6539 X112.483 Y1.176 E0.0320
G0 F6539 X113.049 Y1.176
G1 F6539 X113.728 Y1.856 E0.0320
G0 F6539 X114.294 Y1.856
G1 F6539 X113.615 Y1.176 E0.0320
G0 F6539 X114.180 Y1.176
G1 F6539 X114.860 Y1.856 E0.0320
G0 F6539 X115.425 Y1.856
G1 F6539 X114.746 Y1.176 E0.0320
G0 F6539 X115.312 Y1.176
G1 F6539 X115.991 Y1.856 E0.0320
G0 F6539 X116.557 Y1.856
G1 F6539 X115.877 Y1.176 E0.0320
G0 F6539 X116.443 Y1.176
G1 F6539 X117.123 Y1.856 E0.0320
G0 F6539 X117.688 Y1.856
G1 F6539 X117.009 Y1.176 E0.0320
G0 F6539 X117.574 Y1.176
G1 F6539 X118.254 Y1.856 E0.0320
G0 F6539 X118.820 Y1.856
G1 F6539 X118.140 Y1.176 E0.0320
G0 F6539 X118.706 Y1.176
G1 F6539 X119.385 Y1.856 E0.0320
G0 F6539 X119.951 Y1.856
G1 F6539 X119.271 Y1.176 E0.0320
G0 F6539 X119.837 Y1.176
G1 F6539 X120.517 Y1.856 E0.0320
G0 F6539 X121.082 Y1.856
G1 F6539 X120.403 Y1.176 E0.0320
G0 F6539 X120.968 Y1.176
G1 F6539 X121.648 Y1.856 E0.0320
G0 F6539 X122.214 Y1.856
G1 F6539 X121.534 Y1.176 E0.0320
G0 F6539 X122.100 Y1.176
G1 F6539 X122.779 Y1.856 E0.0320
G0 F6539 X123.345 Y1.856
G1 F6539 X122.666 Y1.176 E0.0320
G0 F6539 X123.231 Y1.176
G1 F6539 X123.911 Y1.856 E0.0320
G0 F6539 X124.476 Y1.856
G1 F6539 X123.797 Y1.176 E0.0320
G0 F6539 X124.363 Y1.176
G1 F6539 X125.042 Y1.856 E0.0320
G0 F6539 X125.608 Y1.856
G1 F6539 X124.928 Y1.176 E0.0320
G0 F6539 X125.494 Y1.176
G1 F6539 X126.174 Y1.856 E0.0320
G0 F6539 X126.739 Y1.856
G1 F6539 X126.060 Y1.176 E0.0320
G0 F6539 X126.625 Y1.176
G1 F6539 X127.305 Y1.856 E0.0320
G0 F6539 X127.871 Y1.856
G1 F6539 X127.191 Y1.176 E0.0320
G0 F6539 X127.757 Y1.176
G1 F6539 X128.436 Y1.856 E0.0320
G0 F6539 X129.002 Y1.856
G1 F6539 X128.322 Y1.176 E0.0320
G0 F6539 X128.888 Y1.176
G1 F6539 X129.568 Y1.856 E0.0320
G0 F6539 X130.133 Y1.856
G1 F6539 X129.454 Y1.176 E0.0320
G0 F6539 X130.019 Y1.176
G1 F6539 X130.699 Y1.856 E0.0320
G0 F6539 X131.265 Y1.856
G1 F6539 X130.585 Y1.176 E0.0320
G0 F6539 X131.151 Y1.176
G1 F6539 X131.830 Y1.856 E0.0320
G0 F6539 X132.396 Y1.856
G1 F6539 X131.717 Y1.176 E0.0320
G0 F6539 X132.282 Y1.176
G1 F6539 X132.962 Y1.856 E0.0320
G0 F6539 X133.527 Y1.856
G1 F6539 X132.848 Y1.176 E0.0320
G0 F6539 X133.414 Y1.176
G1 F6539 X134.093 Y1.856 E0.0320
G0 F6539 X134.659 Y1.856
G1 F6539 X133.979 Y1.176 E0.0320
G0 F6539 X134.545 Y1.176
G1 F6539 X135.224 Y1.856 E0.0320
G0 F6539 X135.790 Y1.856
G1 F6539 X135.111 Y1.176 E0.0320
G0 F6539 X135.676 Y1.176
G1 F6539 X136.356 Y1.856 E0.0320
G0 F6539 X136.922 Y1.856
G1 F6539 X136.242 Y1.176 E0.0320
G0 F6539 X136.808 Y1.176
G1 F6539 X137.487 Y1.856 E0.0320
G0 F6539 X138.053 Y1.856
G1 F6539 X137.373 Y1.176 E0.0320
G0 F6539 X137.939 Y1.176
G1 F6539 X138.619 Y1.856 E0.0320
G0 F6539 X139.184 Y1.856
G1 F6539 X138.505 Y1.176 E0.0320
G0 F6539 X139.070 Y1.176
G1 F6539 X139.750 Y1.856 E0.0320
G0 F6539 X140.316 Y1.856
G1 F6539 X139.636 Y1.176 E0.0320
G0 F6539 X140.202 Y1.176
G1 F6539 X140.881 Y1.856 E0.0320
G0 F6539 X141.447 Y1.856
G1 F6539 X140.767 Y1.176 E0.0320
G0 F6539 X141.333 Y1.176
G1 F6539 X142.013 Y1.856 E0.0320
G0 F6539 X142.578 Y1.856
G1 F6539 X141.899 Y1.176 E0.0320
G0 F6539 X142.465 Y1.176
G1 F6539 X143.144 Y1.856 E0.0320
G0 F6539 X143.710 Y1.856
G1 F6539 X143.030 Y1.176 E0.0320
G0 F6539 X143.596 Y1.176
G1 F6539 X144.275 Y1.856 E0.0320
G0 F6539 X144.841 Y1.856
G1 F6539 X144.162 Y1.176 E0.0320
G0 F6539 X144.727 Y1.176
G1 F6539 X145.407 Y1.856 E0.0320
G0 F6539 X145.973 Y1.856
G1 F6539 X145.293 Y1.176 E0.0320
G0 F6539 X145.859 Y1.176
G1 F6539 X146.538 Y1.856 E0.0320
G0 F6539 X147.104 Y1.856
G1 F6539 X146.424 Y1.176 E0.0320
G0 F6539 X146.990 Y1.176
G1 F6539 X147.670 Y1.856 E0.0320
G0 F6539 X148.235 Y1.856
G1 F6539 X147.556 Y1.176 E0.0320
G0 F6539 X148.121 Y1.176
G1 F6539 X148.801 Y1.856 E0.0320
G0 F6539 X149.239 Y1.728
G1 F6539 X148.687 Y1.176 E0.0260
G0 F10800 X147.586 Y0.810
;TYPE:FILL
;WIDTH:0.400
;FLOW:95.0
G1 F6539 X147.570 Y0.836 E0.0010
G1 X147.427 Y1.016 E0.0073
G1 X136.959 Y1.016 E0.3308
G1 X137.102 Y0.836 E0.0073
G1 X137.118 Y0.810 E0.0010
G0 F10800 X116.183 Y0.810
G1 F6539 X126.650 Y0.810 E0.3307
G1 X126.634 Y0.836 E0.0010
G1 X126.491 Y1.016 E0.0073
G1 X116.024 Y1.016 E0.3307
G1 X116.167 Y0.836 E0.0073
G1 X116.183 Y0.810 E0.0010
G0 F10800 X105.715 Y0.810
G1 F6539 X100.960 Y0.810 E0.1502
G1 X100.960 Y1.016 E0.0065
G1 X105.556 Y1.016 E0.1452
G1 X105.699 Y0.836 E0.0073
G1 X105.715 Y0.810 E0.0010
;PRINTING_TIME: 37
;REMAINING_TIME: 217
;LAYER:6
;Z:2.098
;HEIGHT:0.283
;HEIGHT-BELT:0.200
;FLOW:100.0
;PRINTING: default-box.3mf
;PRINTING_ID: 0
G1 F1800 E-0.4000
G0 F600 Z2.098
G0 F10800 X100.200 Y0.050
;TYPE:WALL-OUTER
;WIDTH:0.400
G1 F1800 E0.4000
G1 F6264 X149.800 Y0.050 E1.6497
G1 X149.800 Y2.816 E0.0920
G1 F1670 X100.200 Y2.816 E1.6497
G1 F6264 X100.200 Y0.050 E0.0920
G0 F10800 X100.600 Y0.450
;TYPE:WALL-INNER
;WIDTH:0.400
G1 F6264 X149.400 Y0.450 E1.6231
G1 X149.400 Y2.416 E0.0654
G1 X100.600 Y2.416 E1.6231
G1 X100.600 Y0.450 E0.0654
G0 F10800 X100.945 Y1.576
;TYPE:SOLID-FILL
;WIDTH:0.400
G1 F6264 X100.759 Y1.762 E0.0087
G0 F6264 X100.831 Y2.256
G1 F6264 X101.511 Y1.576 E0.0320
G0 F6264 X102.077 Y1.576
G1 F6264 X101.396 Y2.256 E0.0320
G0 F6264 X101.962 Y2.256
G1 F6264 X102.642 Y1.576 E0.0320
G0 F6264 X103.208 Y1.576
G1 F6264 X102.528 Y2.256 E0.0320
G0 F6264 X103.094 Y2.256
G1 F6264 X103.774 Y1.576 E0.0320
G0 F6264 X104.339 Y1.576
G1 F6264 X103.659 Y2.256 E0.0320
G0 F6264 X104.225 Y2.256
G1 F6264 X104.905 Y1.576 E0.0320
