;Sliced by ideaMaker 5.3.2.8640, 2026-02-21 07:10:43 UTC+0100
;Slicer Version: 5.3.0.8620
;Dimension: 250.000 9999.000 250.000 0.400
;Plate Shape: 0
;Origin Center: 0
;Belt Printer: 1
;Belt Base Y: 5064.500
;Belt Base Z: 0.010
;Belt Offset Y: 0.000
;Belt Offset Z: 3581.135
;Belt Gantry Angle: 45
;Belt Remove Z: 0.283
;Belt Repetition: 1
;Extruder Offset #1: 25.000 0.000
;Filament Diameter #1: 1.750
;Filament Diameter #2: 1.750
;Filament Compensation #1: 98.000
;Filament Compensation #2: 100.000
;Filament Density #1: 1250.000
;Filament Density #2: 1250.000
;Filament Type #1: PLA
;Filament Type #2: PLA
;Filament Name #1: IdeaFormer PLA 1.75mm
;Filament Name #2: IdeaFormer PLA 1.75mm
;Filament #1: Ideaformer PLA 1.75mm
;Filament #2: Ideaformer PLA 1.75mm
;Printer Type: IdeaFormer IR3 V2
;Firmware: Klipper
;Bounding Box: 122.500 127.500 -0.150 6.921 0.200 38.683
;Model Gap: 0.000
;
;
M221 T0 S98.00
PRINT_START
M140 S90
M104 T0 S240
M109 T0 S240
M190 S90
G92 E0        ; Set axis to 0
G1 Y.1
G1 E15 F1000
G1 Z20 E25 F800
G1 E23
G28 Y
G1 E25
FMS_on
G1 X250 E50 F2000
G92 Z0
G1 Z.4
G1 X0 E75
G1 F1000
G92 E0 Z0
;end of Start GCode
;TOTAL_NUM: 1
;PRINTING_TIME: 0
;REMAINING_TIME: 894
M83
;LAYER:0
;Z:0.400
;HEIGHT:0.400
;HEIGHT-BELT:0.283
;BELT-FIRST-Z:0.400
M106 S0
;PRINTING: default-box.3mf
;PRINTING_ID: 0
G1 F1800 E-0.4000
SET_VELOCITY_LIMIT ACCEL=5000.00
G0 F10800 X122.700 Y0.050
G0 F600 Z0.400
;TYPE:WALL-OUTER
;WIDTH:0.400
;HEIGHT:0.400
;HEIGHT-BELT:0.283
G1 F1800 E0.4000
G1 F600 X127.300 Y0.050 E0.1530
G1 X127.300 Y0.415 E0.0121
G1 X122.700 Y0.415 E0.1530
G1 X122.700 Y0.050 E0.0121
;PRINTING_TIME: 2
;REMAINING_TIME: 893
;LAYER:1
;Z:0.683
;HEIGHT:0.283
;HEIGHT-BELT:0.200
;PRINTING: default-box.3mf
;PRINTING_ID: 0
G1 F1800 E-0.4000
G0 F600 Z0.683
G0 F10800 X122.700 Y0.050
;TYPE:WALL-OUTER
;WIDTH:0.400
G1 F1800 E0.4000
G1 F600 X127.300 Y0.050 E0.1530
G1 X127.300 Y0.815 E0.0254
G1 X122.700 Y0.815 E0.1530
G1 X122.700 Y0.050 E0.0254
G0 F10800 X122.899 Y0.432
;TYPE:GAP-FILL
;WIDTH:0.366
G1 F600 X127.100 Y0.432 E0.1278
;PRINTING_TIME: 3
;REMAINING_TIME: 891
;LAYER:2
;Z:0.966
;HEIGHT:0.283
;HEIGHT-BELT:0.200
;PRINTING: default-box.3mf
;PRINTING_ID: 0
G1 F1800 E-0.4000
G0 F600 Z0.966
G0 F10800 X122.700 Y0.050
;TYPE:WALL-OUTER
;WIDTH:0.400
G1 F1800 E0.4000
G1 F600 X127.300 Y0.050 E0.1530
G1 X127.300 Y1.215 E0.0387
G1 X122.700 Y1.215 E0.1530
G1 X122.700 Y0.050 E0.0387
G0 F10800 X123.100 Y0.450
;TYPE:WALL-INNER
;WIDTH:0.400
G1 F600 X126.900 Y0.450 E0.1264
G1 X126.900 Y0.815 E0.0121
G1 X123.100 Y0.815 E0.1264
G1 X123.100 Y0.450 E0.0121
;PRINTING_TIME: 6
;REMAINING_TIME: 889
;LAYER:3
;Z:1.249
;HEIGHT:0.283
;HEIGHT-BELT:0.200
;PRINTING: default-box.3mf
;PRINTING_ID: 0
G1 F1800 E-0.4000
G0 F600 Z1.249
G0 F10800 X122.700 Y0.050
;TYPE:WALL-OUTER
;WIDTH:0.400
G1 F1800 E0.4000
G1 F600 X127.300 Y0.050 E0.1530
G1 X127.300 Y1.615 E0.0521
G1 X122.700 Y1.615 E0.1530
G1 X122.700 Y0.050 E0.0521
G0 F10800 X123.100 Y0.450
;TYPE:WALL-INNER
;WIDTH:0.400
G1 F600 X126.900 Y0.450 E0.1264
G1 X126.900 Y1.215 E0.0254
G1 X123.100 Y1.215 E0.1264
G1 X123.100 Y0.450 E0.0254
G0 F10800 X123.299 Y0.832
;TYPE:GAP-FILL
;WIDTH:0.366
G1 F600 X126.700 Y0.832 E0.1035
;PRINTING_TIME: 8
;REMAINING_TIME: 886
;LAYER:4
;Z:1.532
;HEIGHT:0.283
;HEIGHT-BELT:0.200
M106 S51
;PRINTING: default-box.3mf
;PRINTING_ID: 0
G1 F1800 E-0.4000
G0 F600 Z1.532
G0 F10800 X122.700 Y0.050
;TYPE:WALL-OUTER
;WIDTH:0.400
G1 F1800 E0.4000
G1 F600 X127.300 Y0.050 E0.1530
G1 X127.300 Y2.015 E0.0654
G1 X122.700 Y2.015 E0.1530
G1 X122.700 Y0.050 E0.0654
G0 F10800 X123.100 Y0.450
;TYPE:WALL-INNER
;WIDTH:0.400
G1 F600 X126.900 Y0.450 E0.1264
G1 X126.900 Y1.615 E0.0387
G1 X123.100 Y1.615 E0.1264
G1 X123.100 Y0.450 E0.0387
G0 F10800 X123.808 Y0.774
;TYPE:SOLID-FILL
;WIDTH:0.400
G1 F600 X123.259 Y1.324 E0.0258
G0 F600 X123.694 Y1.455
G1 F600 X124.374 Y0.774 E0.0320
G0 F600 X124.940 Y0.774
G1 F600 X124.259 Y1.455 E0.0320
G0 F600 X124.825 Y1.455
G1 F600 X125.505 Y0.774 E0.0320
G0 F600 X126.071 Y0.774
G1 F600 X125.391 Y1.455 E0.0320
G0 F600 X125.956 Y1.455
G1 F600 X126.637 Y0.774 E0.0320
G0 F600 X126.738 Y1.238
G1 F600 X126.522 Y1.455 E0.0102
;PRINTING_TIME: 12
;REMAINING_TIME: 883
;LAYER:5
;Z:1.815
;HEIGHT:0.283
;HEIGHT-BELT:0.200
;PRINTING: default-box.3mf
;PRINTING_ID: 0
G1 F1800 E-0.4000
G0 F600 Z1.815
G0 F10800 X122.700 Y0.050
;TYPE:WALL-OUTER
;WIDTH:0.400
G1 F1800 E0.4000
G1 F600 X127.300 Y0.050 E0.1530
G1 X127.300 Y2.415 E0.0787
G1 X122.700 Y2.415 E0.1530
G1 X122.700 Y0.050 E0.0787
G0 F10800 X123.100 Y0.450
;TYPE:WALL-INNER
;WIDTH:0.400
G1 F600 X126.900 Y0.450 E0.1264
G1 X126.900 Y2.015 E0.0521
G1 X123.100 Y2.015 E0.1264
G1 X123.100 Y0.450 E0.0521
G0 F10800 X123.259 Y1.769
;TYPE:SOLID-FILL
;WIDTH:0.400
G1 F600 X123.344 Y1.854 E0.0040
G0 F600 X123.909 Y1.854
G1 F600 X123.259 Y1.204 E0.0306
G0 F600 X123.796 Y1.175
G1 F600 X124.475 Y1.854 E0.0319
G0 F600 X125.041 Y1.854
G1 F600 X124.361 Y1.175 E0.0320
G0 F600 X124.927 Y1.175
G1 F600 X125.606 Y1.854 E0.0319
G0 F600 X126.172 Y1.854
G1 F600 X125.493 Y1.175 E0.0319
G0 F600 X126.058 Y1.175
G1 F600 X126.738 Y1.855 E0.0320
G0 F600 X126.738 Y1.289
G1 F600 X126.624 Y1.175 E0.0054
;PRINTING_TIME: 15
;REMAINING_TIME: 879
;LAYER:6
;Z:2.098
;HEIGHT:0.283
;HEIGHT-BELT:0.200
;PRINTING: default-box.3mf
;PRINTING_ID: 0
G1 F1800 E-0.4000
G0 F600 Z2.098
G0 F10800 X122.700 Y0.050
;TYPE:WALL-OUTER
;WIDTH:0.400
G1 F1800 E0.4000
G1 F600 X127.300 Y0.050 E0.1530
G1 X127.300 Y2.815 E0.0920
G1 X122.700 Y2.815 E0.1530
G1 X122.700 Y0.050 E0.0920
G0 F10800 X123.100 Y0.450
;TYPE:WALL-INNER
;WIDTH:0.400
G1 F600 X126.900 Y0.450 E0.1264
G1 X126.900 Y2.415 E0.0654
G1 X123.100 Y2.415 E0.1264
G1 X123.100 Y0.450 E0.0654
G0 F10800 X123.574 Y1.574
;TYPE:SOLID-FILL
;WIDTH:0.400
G1 F600 X123.259 Y1.890 E0.0148
G0 F600 X123.460 Y2.254
G1 F600 X124.140 Y1.574 E0.0320
G0 F600 X124.706 Y1.574
G1 F600 X124.025 Y2.254 E0.0320
G0 F600 X124.591 Y2.254
G1 F600 X125.271 Y1.574 E0.0320
G0 F600 X125.837 Y1.574
G1 F600 X125.157 Y2.254 E0.0320
G0 F600 X125.722 Y2.254
G1 F600 X126.403 Y1.574 E0.0320
G0 F600 X126.738 Y1.804
G1 F600 X126.288 Y2.254 E0.0212
G0 F10800 X126.224 Y1.415
;TYPE:FILL
;WIDTH:0.400
;FLOW:95.0
G1 F600 X126.308 Y1.347 E0.0034
G1 X126.540 Y1.063 E0.0116
;PRINTING_TIME: 19
;REMAINING_TIME: 875
;LAYER:7
;Z:2.381
;HEIGHT:0.283
;HEIGHT-BELT:0.200
;FLOW:100.0
;PRINTING: default-box.3mf
;PRINTING_ID: 0
G1 F1800 E-0.4000
G0 F600 Z2.381
G0 F10800 X122.700 Y0.050
;TYPE:WALL-OUTER
;WIDTH:0.400
G1 F1800 E0.4000
G1 F600 X127.300 Y0.050 E0.1530
G1 X127.300 Y3.215 E0.1053
G1 X122.700 Y3.215 E0.1530
G1 X122.700 Y0.050 E0.1053
G0 F10800 X123.100 Y0.450
;TYPE:WALL-INNER
;WIDTH:0.400
G1 F600 X126.900 Y0.450 E0.1264
G1 X126.900 Y2.815 E0.0787
G1 X123.100 Y2.815 E0.1264
G1 X123.100 Y0.450 E0.0787
G0 F10800 X123.259 Y2.335
;TYPE:SOLID-FILL
;WIDTH:0.400
G1 F600 X123.578 Y2.655 E0.0150
G0 F600 X124.144 Y2.655
G1 F600 X123.464 Y1.974 E0.0320
G0 F600 X124.030 Y1.974
G1 F600 X124.710 Y2.655 E0.0320
G0 F600 X125.275 Y2.655
G1 F600 X124.595 Y1.974 E0.0320
G0 F600 X125.161 Y1.974
G1 F600 X125.841 Y2.655 E0.0320
G0 F600 X126.407 Y2.655
G1 F600 X125.727 Y1.974 E0.0320
G0 F600 X126.292 Y1.974
G1 F600 X126.739 Y2.421 E0.0210
G0 F10800 X125.752 Y1.815
;TYPE:FILL
;WIDTH:0.400
;FLOW:95.0
G1 F600 X126.308 Y1.430 E0.0214
G1 X126.540 Y1.187 E0.0106
;PRINTING_TIME: 23
;REMAINING_TIME: 871
;LAYER:8
;Z:2.664
;HEIGHT:0.283
;HEIGHT-BELT:0.200
;FLOW:100.0
;PRINTING: default-box.3mf
;PRINTING_ID: 0
G1 F1800 E-0.4000
G0 F600 Z2.664
G0 F10800 X122.700 Y0.050
;TYPE:WALL-OUTER
;WIDTH:0.400
G1 F1800 E0.4000
G1 F626 X127.300 Y0.050 E0.1530
G1 X127.300 Y3.615 E0.1186
G1 F600 X122.700 Y3.615 E0.1530
G1 F626 X122.700 Y0.050 E0.1186
G0 F10800 X123.100 Y0.450
;TYPE:WALL-INNER
;WIDTH:0.400
G1 F626 X126.900 Y0.450 E0.1264
G1 X126.900 Y3.215 E0.0920
G1 X123.100 Y3.215 E0.1264
G1 X123.100 Y0.450 E0.0920
G0 F10800 X123.339 Y2.375
;TYPE:SOLID-FILL
;WIDTH:0.400
G1 F626 X123.259 Y2.455 E0.0038
G0 F626 X123.259 Y3.021
G1 F626 X123.905 Y2.375 E0.0304
G0 F626 X124.471 Y2.375
G1 F626 X123.791 Y3.055 E0.0320
G0 F626 X124.356 Y3.055
G1 F626 X125.036 Y2.375 E0.0320
G0 F626 X125.602 Y2.375
G1 F626 X124.922 Y3.055 E0.0320
G0 F626 X125.488 Y3.055
G1 F626 X126.168 Y2.375 E0.0320
G0 F626 X126.734 Y2.375
G1 F626 X126.053 Y3.055 E0.0320
G0 F626 X126.619 Y3.055
G1 F626 X126.738 Y2.935 E0.0056
G0 F10800 X126.540 Y1.308
;TYPE:FILL
;WIDTH:0.400
;FLOW:95.0
G1 F626 X126.308 Y1.519 E0.0099
G1 X125.654 Y1.902 E0.0239
G1 X124.999 Y2.119 E0.0218
G1 X123.691 Y2.150 E0.0413
G1 X123.460 Y2.005 E0.0086
;PRINTING_TIME: 27
;REMAINING_TIME: 867
;LAYER:9
;Z:2.947
;HEIGHT:0.283
;HEIGHT-BELT:0.200
;FLOW:100.0
M106 S102
;PRINTING: default-box.3mf
;PRINTING_ID: 0
G1 F1800 E-0.4000
G0 F600 Z2.947
G0 F10800 X122.700 Y0.050
;TYPE:WALL-OUTER
;WIDTH:0.400
G1 F1800 E0.4000
G1 F642 X127.300 Y0.050 E0.1530
G1 X127.300 Y4.015 E0.1319
G1 F600 X122.700 Y4.015 E0.1530
G1 F642 X122.700 Y0.050 E0.1319
G0 F10800 X123.100 Y0.450
;TYPE:WALL-INNER
;WIDTH:0.400
G1 F642 X126.900 Y0.450 E0.1264
G1 X126.900 Y3.615 E0.1053
G1 X123.100 Y3.615 E0.1264
G1 X123.100 Y0.450 E0.1053
G0 F10800 X123.259 Y2.901
;TYPE:SOLID-FILL
;WIDTH:0.400
G1 F642 X123.812 Y3.454 E0.0260
G0 F642 X124.378 Y3.454
G1 F642 X123.699 Y2.775 E0.0319
G0 F642 X124.264 Y2.775
G1 F642 X124.944 Y3.454 E0.0320
G0 F642 X125.510 Y3.454
G1 F642 X124.830 Y2.775 E0.0320
G0 F642 X125.396 Y2.775
G1 F642 X126.075 Y3.454 E0.0319
G0 F642 X126.641 Y3.454
G1 F642 X125.961 Y2.775 E0.0320
G0 F642 X126.527 Y2.775
G1 F642 X126.739 Y2.987 E0.0100
G0 F10800 X126.540 Y1.430
;TYPE:FILL
;WIDTH:0.400
;FLOW:95.0
G1 F642 X126.308 Y1.614 E0.0094
G1 X125.654 Y1.932 E0.0230
G1 X124.999 Y2.093 E0.0213
G1 X123.691 Y2.003 E0.0414
G1 X123.460 Y1.845 E0.0088
;PRINTING_TIME: 32
;REMAINING_TIME: 863
;LAYER:10
;Z:3.230
;HEIGHT:0.283
;HEIGHT-BELT:0.200
;FLOW:100.0
;PRINTING: default-box.3mf
;PRINTING_ID: 0
G1 F1800 E-0.4000
G0 F600 Z3.230
G0 F10800 X122.700 Y0.050
;TYPE:WALL-OUTER
;WIDTH:0.400
G1 F1800 E0.4000
G1 F661 X127.300 Y0.050 E0.1530
G1 X127.300 Y4.415 E0.1452
G1 F600 X122.700 Y4.415 E0.1530
G1 F661 X122.700 Y0.050 E0.1452
G0 F10800 X123.100 Y0.450
;TYPE:WALL-INNER
;WIDTH:0.400
G1 F661 X126.900 Y0.450 E0.1264
G1 X126.900 Y4.015 E0.1186
G1 X123.100 Y4.015 E0.1264
G1 X123.100 Y0.450 E0.1186
G0 F10800 X123.671 Y3.174
;TYPE:SOLID-FILL
;WIDTH:0.400
G1 F661 X123.259 Y3.587 E0.0194
G0 F661 X123.557 Y3.855
G1 F661 X124.237 Y3.174 E0.0320
G0 F661 X124.802 Y3.174
G1 F661 X124.122 Y3.855 E0.0320
G0 F661 X124.688 Y3.855
G1 F661 X125.368 Y3.174 E0.0320
G0 F661 X125.934 Y3.174
G1 F661 X125.254 Y3.855 E0.0320
G0 F661 X125.819 Y3.855
G1 F661 X126.499 Y3.174 E0.0320
G0 F661 X126.738 Y3.501
G1 F661 X126.385 Y3.855 E0.0166
G0 F10800 X126.540 Y1.556
;TYPE:FILL
;WIDTH:0.400
;FLOW:95.0
G1 F661 X126.308 Y1.718 E0.0089
G1 X125.654 Y1.975 E0.0222
G1 X124.999 Y2.079 E0.0210
G1 X123.691 Y1.873 E0.0418
G1 X123.460 Y1.702 E0.0091
;PRINTING_TIME: 36
;REMAINING_TIME: 858
;LAYER:11
;Z:3.513
;HEIGHT:0.283
;HEIGHT-BELT:0.200
;FLOW:100.0
;PRINTING: default-box.3mf
;PRINTING_ID: 0
G1 F1800 E-0.4000
G0 F600 Z3.513
G0 F10800 X122.700 Y0.050
;TYPE:WALL-OUTER
;WIDTH:0.400
G1 F1800 E0.4000
G1 F682 X127.300 Y0.050 E0.1530
G1 X127.300 Y4.815 E0.1585
G1 F600 X122.700 Y4.815 E0.1530
G1 F682 X122.700 Y0.050 E0.1585
G0 F10800 X123.100 Y0.450
;TYPE:WALL-INNER
;WIDTH:0.400
G1 F682 X126.900 Y0.450 E0.1264
G1 X126.900 Y4.415 E0.1319
G1 X123.100 Y4.415 E0.1264
G1 X123.100 Y0.450 E0.1319
G0 F10800 X123.259 Y4.032
;TYPE:SOLID-FILL
;WIDTH:0.400
G1 F682 X123.481 Y4.254 E0.0104
G0 F682 X124.047 Y4.254
G1 F682 X123.367 Y3.575 E0.0320
G0 F682 X123.933 Y3.575
G1 F682 X124.612 Y4.254 E0.0319
G0 F682 X125.178 Y4.254
G1 F682 X124.498 Y3.575 E0.0320
G0 F682 X125.064 Y3.575
G1 F682 X125.744 Y4.254 E0.0320
G0 F682 X126.309 Y4.254
G1 F682 X125.630 Y3.575 E0.0319
G0 F682 X126.195 Y3.575
G1 F682 X126.738 Y4.118 E0.0255
G0 F10800 X126.540 Y1.690
;TYPE:FILL
;WIDTH:0.400
;FLOW:95.0
G1 F682 X126.308 Y1.831 E0.0086
G1 X125.654 Y2.029 E0.0216
G1 X124.999 Y2.076 E0.0207
G1 X123.691 Y1.755 E0.0426
G1 X123.460 Y1.569 E0.0094
;PRINTING_TIME: 41
;REMAINING_TIME: 854
;LAYER:12
;Z:3.796
;HEIGHT:0.283
;HEIGHT-BELT:0.200
;FLOW:100.0
;PRINTING: default-box.3mf
;PRINTING_ID: 0
G1 F1800 E-0.4000
G0 F600 Z3.796
G0 F10800 X122.700 Y0.050
;TYPE:WALL-OUTER
;WIDTH:0.400
G1 F1800 E0.4000
G1 F701 X127.300 Y0.050 E0.1530
G1 X127.300 Y5.215 E0.1718
G1 F600 X122.700 Y5.215 E0.1530
G1 F701 X122.700 Y0.050 E0.1718
G0 F10800 X123.100 Y0.450
;TYPE:WALL-INNER
;WIDTH:0.400
G1 F701 X126.900 Y0.450 E0.1264
G1 X126.900 Y4.815 E0.1452
G1 X123.100 Y4.815 E0.1264
G1 X123.100 Y0.450 E0.1452
G0 F10800 X123.437 Y3.974
;TYPE:SOLID-FILL
;WIDTH:0.400
G1 F701 X123.259 Y4.152 E0.0084
G0 F701 X123.322 Y4.654
G1 F701 X124.003 Y3.974 E0.0320
G0 F701 X124.568 Y3.974
G1 F701 X123.888 Y4.654 E0.0320
G0 F701 X124.454 Y4.654
G1 F701 X125.134 Y3.974 E0.0320
G0 F701 X125.700 Y3.974
G1 F701 X125.020 Y4.654 E0.0320
G0 F701 X125.585 Y4.654
G1 F701 X126.265 Y3.974 E0.0320
G0 F701 X126.738 Y4.067
G1 F701 X126.151 Y4.654 E0.0276
G0 F10800 X126.540 Y1.836
;TYPE:FILL
;WIDTH:0.400
;FLOW:95.0
G1 F701 X126.308 Y1.957 E0.0083
G1 X125.654 Y2.096 E0.0211
G1 X124.999 Y2.086 E0.0207
G1 X123.691 Y1.648 E0.0436
G1 X123.460 Y1.445 E0.0097
;PRINTING_TIME: 45
;REMAINING_TIME: 849
;LAYER:13
;Z:4.079
;HEIGHT:0.283
;HEIGHT-BELT:0.200
;FLOW:100.0
;PRINTING: default-box.3mf
;PRINTING_ID: 0
G1 F1800 E-0.4000
G0 F600 Z4.079
G0 F10800 X122.700 Y0.050
;TYPE:WALL-OUTER
;WIDTH:0.400
G1 F1800 E0.4000
G1 F722 X127.300 Y0.050 E0.1530
G1 X127.300 Y5.615 E0.1851
G1 F600 X122.700 Y5.615 E0.1530
G1 F722 X122.700 Y0.050 E0.1851
G0 F10800 X123.100 Y0.450
;TYPE:WALL-INNER
;WIDTH:0.400
G1 F722 X126.900 Y0.450 E0.1264
G1 X126.900 Y5.215 E0.1585
G1 X123.100 Y5.215 E0.1264
G1 X123.100 Y0.450 E0.1585
G0 F10800 X123.259 Y4.598
;TYPE:SOLID-FILL
;WIDTH:0.400
G1 F722 X123.716 Y5.055 E0.0215
G0 F722 X124.281 Y5.055
G1 F722 X123.601 Y4.374 E0.0320
G0 F722 X124.167 Y4.374
G1 F722 X124.847 Y5.055 E0.0320
G0 F722 X125.413 Y5.055
G1 F722 X124.732 Y4.374 E0.0320
G0 F722 X125.298 Y4.374
G1 F722 X125.978 Y5.055 E0.0320
G0 F722 X126.544 Y5.055
G1 F722 X125.864 Y4.374 E0.0320
G0 F722 X126.429 Y4.374
G1 F722 X126.739 Y4.684 E0.0146
G0 F10800 X126.540 Y2.020
;TYPE:FILL
;WIDTH:0.400
;FLOW:95.0
G1 F722 X126.308 Y2.098 E0.0077
G1 X125.654 Y2.175 E0.0208
G1 X124.999 Y2.109 E0.0208
G1 X123.691 Y1.550 E0.0449
G1 X123.460 Y1.326 E0.0102
;PRINTING_TIME: 49
;REMAINING_TIME: 845
;LAYER:14
;Z:4.362
;HEIGHT:0.283
;HEIGHT-BELT:0.200
;FLOW:100.0
;PRINTING: default-box.3mf
;PRINTING_ID: 0
G1 F1800 E-0.4000
G0 F600 Z4.362
G0 F10800 X122.700 Y0.050
;TYPE:WALL-OUTER
;WIDTH:0.400
G1 F1800 E0.4000
G1 F742 X127.300 Y0.050 E0.1530
G1 X127.300 Y6.015 E0.1984
G1 F600 X122.700 Y6.015 E0.1530
G1 F742 X122.700 Y0.050 E0.1984
G0 F10800 X123.100 Y0.450
;TYPE:WALL-INNER
;WIDTH:0.400
G1 F742 X126.900 Y0.450 E0.1264
G1 X126.900 Y5.615 E0.1718
G1 X123.100 Y5.615 E0.1264
G1 X123.100 Y0.450 E0.1718
G0 F10800 X123.768 Y4.774
;TYPE:SOLID-FILL
;WIDTH:0.400
G1 F742 X123.259 Y5.284 E0.0240
G0 F742 X123.653 Y5.455
G1 F742 X124.334 Y4.774 E0.0320
G0 F742 X124.899 Y4.774
G1 F742 X124.219 Y5.455 E0.0320
G0 F742 X124.785 Y5.455
G1 F742 X125.465 Y4.774 E0.0320
G0 F742 X126.031 Y4.774
G1 F742 X125.350 Y5.455 E0.0320
G0 F742 X125.916 Y5.455
G1 F742 X126.596 Y4.774 E0.0320
G0 F742 X126.739 Y5.197
G1 F742 X126.482 Y5.455 E0.0121
G0 F10800 X126.540 Y2.203
;TYPE:FILL
;WIDTH:0.400
;FLOW:95.0
G1 F742 X126.308 Y2.257 E0.0075
G1 X125.981 Y2.282 E0.0104
G1 X125.654 Y2.269 E0.0103
G1 X124.999 Y2.144 E0.0211
G1 X123.691 Y1.459 E0.0467
G1 X123.460 Y1.209 E0.0108
;PRINTING_TIME: 54
;REMAINING_TIME: 840
;LAYER:15
;Z:4.645
;HEIGHT:0.283
;HEIGHT-BELT:0.200
;FLOW:100.0
;PRINTING: default-box.3mf
;PRINTING_ID: 0
G1 F1800 E-0.4000
G0 F600 Z4.645
G0 F10800 X122.700 Y0.050
;TYPE:WALL-OUTER
;WIDTH:0.400
G1 F1800 E0.4000
G1 F765 X127.300 Y0.050 E0.1530
G1 X127.300 Y6.415 E0.2117
G1 F600 X122.700 Y6.415 E0.1530
G1 F765 X122.700 Y0.050 E0.2117
G0 F10800 X123.100 Y0.450
;TYPE:WALL-INNER
;WIDTH:0.400
