;Sliced by ideaMaker 5.3.2.8640, 2026-02-21 07:20:45 UTC+0100
;Slicer Version: 5.3.0.8620
;Dimension: 250.000 9999.000 250.000 0.400
;Plate Shape: 0
;Origin Center: 0
;Belt Printer: 1
;Belt Base Y: 5042.000
;Belt Base Z: 0.010
;Belt Offset Y: 0.000
;Belt Offset Z: 3565.225
;Belt Gantry Angle: 45
;Belt Remove Z: 0.283
;Belt Repetition: 1
;Extruder Offset #1: 25.000 0.000
;Filament Diameter #1: 1.750
;Filament Diameter #2: 1.750
;Filament Compensation #1: 98.000
;Filament Compensation #2: 100.000
;Filament Density #1: 1250.000
;Filament Density #2: 1250.000
;Filament Type #1: PLA
;Filament Type #2: PLA
;Filament Name #1: IdeaFormer PLA 1.75mm
;Filament Name #2: IdeaFormer PLA 1.75mm
;Filament #1: Ideaformer PLA 1.75mm
;Filament #2: Ideaformer PLA 1.75mm
;Printer Type: IdeaFormer IR3 V2
;Firmware: Klipper
;Bounding Box: 122.500 127.500 -0.150 70.561 0.200 38.683
;Model Gap: 0.000
;
;
M221 T0 S98.00
PRINT_START
M140 S90
M104 T0 S240
M109 T0 S240
M190 S90
G92 E0        ; Set axis to 0
G1 Y.1
G1 E15 F1000
G1 Z20 E25 F800
G1 E23
G28 Y
G1 E25
FMS_on
G1 X250 E50 F2000
G92 Z0
G1 Z.4
G1 X0 E75
G1 F1000
G92 E0 Z0
;end of Start GCode
;TOTAL_NUM: 1
;PRINTING_TIME: 0
;REMAINING_TIME: 908
M83
;LAYER:0
;Z:0.400
;HEIGHT:0.400
;HEIGHT-BELT:0.283
;BELT-FIRST-Z:0.400
M106 S0
;PRINTING: default-box.3mf
;PRINTING_ID: 0
G1 F1800 E-0.4000
SET_VELOCITY_LIMIT ACCEL=5000.00
G0 F10800 X122.700 Y0.050
G0 F600 Z0.400
;TYPE:WALL-OUTER
;WIDTH:0.400
;HEIGHT:0.400
;HEIGHT-BELT:0.283
G1 F1800 E0.4000
G1 F600 X127.300 Y0.050 E0.1530
G1 X127.300 Y0.416 E0.0122
G1 X122.700 Y0.416 E0.1530
G1 X122.700 Y0.050 E0.0122
;PRINTING_TIME: 2
;REMAINING_TIME: 906
;LAYER:1
;Z:0.683
;HEIGHT:0.283
;HEIGHT-BELT:0.200
;PRINTING: default-box.3mf
;PRINTING_ID: 0
G1 F1800 E-0.4000
G0 F600 Z0.683
G0 F10800 X122.700 Y0.050
;TYPE:WALL-OUTER
;WIDTH:0.400
G1 F1800 E0.4000
G1 F600 X127.300 Y0.050 E0.1530
G1 X127.300 Y0.816 E0.0255
G1 X122.700 Y0.816 E0.1530
G1 X122.700 Y0.050 E0.0255
G0 F10800 X122.900 Y0.433
;TYPE:GAP-FILL
;WIDTH:0.366
G1 F600 X127.100 Y0.433 E0.1278
;PRINTING_TIME: 3
;REMAINING_TIME: 904
;LAYER:2
;Z:0.966
;HEIGHT:0.283
;HEIGHT-BELT:0.200
;PRINTING: default-box.3mf
;PRINTING_ID: 0
G1 F1800 E-0.4000
G0 F600 Z0.966
G0 F10800 X122.700 Y0.050
;TYPE:WALL-OUTER
;WIDTH:0.400
G1 F1800 E0.4000
G1 F600 X127.300 Y0.050 E0.1530
G1 X127.300 Y1.216 E0.0388
G1 X122.700 Y1.216 E0.1530
G1 X122.700 Y0.050 E0.0388
G0 F10800 X123.100 Y0.450
;TYPE:WALL-INNER
;WIDTH:0.400
G1 F600 X126.900 Y0.450 E0.1264
G1 X126.900 Y0.816 E0.0122
G1 X123.100 Y0.816 E0.1264
G1 X123.100 Y0.450 E0.0122
;PRINTING_TIME: 6
;REMAINING_TIME: 902
;LAYER:3
;Z:1.249
;HEIGHT:0.283
;HEIGHT-BELT:0.200
;PRINTING: default-box.3mf
;PRINTING_ID: 0
G1 F1800 E-0.4000
G0 F600 Z1.249
G0 F10800 X122.700 Y0.050
;TYPE:WALL-OUTER
;WIDTH:0.400
G1 F1800 E0.4000
G1 F600 X127.300 Y0.050 E0.1530
G1 X127.300 Y1.616 E0.0521
G1 X122.700 Y1.616 E0.1530
G1 X122.700 Y0.050 E0.0521
G0 F10800 X123.100 Y0.450
;TYPE:WALL-INNER
;WIDTH:0.400
G1 F600 X126.900 Y0.450 E0.1264
G1 X126.900 Y1.216 E0.0255
G1 X123.100 Y1.216 E0.1264
G1 X123.100 Y0.450 E0.0255
G0 F10800 X123.300 Y0.833
;TYPE:GAP-FILL
;WIDTH:0.366
G1 F600 X126.700 Y0.833 E0.1035
;PRINTING_TIME: 8
;REMAINING_TIME: 900
;LAYER:4
;Z:1.532
;HEIGHT:0.283
;HEIGHT-BELT:0.200
M106 S51
;PRINTING: default-box.3mf
;PRINTING_ID: 0
G1 F1800 E-0.4000
G0 F600 Z1.532
G0 F10800 X122.700 Y0.050
;TYPE:WALL-OUTER
;WIDTH:0.400
G1 F1800 E0.4000
G1 F600 X127.300 Y0.050 E0.1530
G1 X127.300 Y2.016 E0.0654
G1 X122.700 Y2.016 E0.1530
G1 X122.700 Y0.050 E0.0654
G0 F10800 X123.100 Y0.450
;TYPE:WALL-INNER
;WIDTH:0.400
G1 F600 X126.900 Y0.450 E0.1264
G1 X126.900 Y1.616 E0.0388
G1 X123.100 Y1.616 E0.1264
G1 X123.100 Y0.450 E0.0388
G0 F10800 X123.808 Y0.775
;TYPE:SOLID-FILL
;WIDTH:0.400
G1 F600 X123.259 Y1.324 E0.0258
G0 F600 X123.693 Y1.455
G1 F600 X124.373 Y0.775 E0.0320
G0 F600 X124.939 Y0.775
G1 F600 X124.259 Y1.455 E0.0320
G0 F600 X124.824 Y1.455
G1 F600 X125.505 Y0.775 E0.0320
G0 F600 X126.070 Y0.775
G1 F600 X125.390 Y1.455 E0.0320
G0 F600 X125.956 Y1.455
G1 F600 X126.636 Y0.775 E0.0320
G0 F600 X126.738 Y1.238
G1 F600 X126.521 Y1.455 E0.0102
;PRINTING_TIME: 12
;REMAINING_TIME: 896
;LAYER:5
;Z:1.815
;HEIGHT:0.283
;HEIGHT-BELT:0.200
;PRINTING: default-box.3mf
;PRINTING_ID: 0
G1 F1800 E-0.4000
G0 F600 Z1.815
G0 F10800 X122.700 Y0.050
;TYPE:WALL-OUTER
;WIDTH:0.400
G1 F1800 E0.4000
G1 F600 X127.300 Y0.050 E0.1530
G1 X127.300 Y2.416 E0.0787
G1 X122.700 Y2.416 E0.1530
G1 X122.700 Y0.050 E0.0787
G0 F10800 X123.100 Y0.450
;TYPE:WALL-INNER
;WIDTH:0.400
G1 F600 X126.900 Y0.450 E0.1264
G1 X126.900 Y2.016 E0.0521
G1 X123.100 Y2.016 E0.1264
G1 X123.100 Y0.450 E0.0521
G0 F10800 X123.259 Y1.769
;TYPE:SOLID-FILL
;WIDTH:0.400
G1 F600 X123.345 Y1.856 E0.0041
G0 F600 X123.911 Y1.856
G1 F600 X123.259 Y1.204 E0.0307
G0 F600 X123.796 Y1.175
G1 F600 X124.476 Y1.856 E0.0320
G0 F600 X125.042 Y1.856
G1 F600 X124.362 Y1.175 E0.0320
G0 F600 X124.928 Y1.175
G1 F600 X125.608 Y1.856 E0.0320
G0 F600 X126.174 Y1.856
G1 F600 X125.493 Y1.175 E0.0320
G0 F600 X126.059 Y1.175
G1 F600 X126.739 Y1.856 E0.0320
G0 F600 X126.739 Y1.290
G1 F600 X126.625 Y1.175 E0.0054
;PRINTING_TIME: 15
;REMAINING_TIME: 892
;LAYER:6
;Z:2.098
;HEIGHT:0.283
;HEIGHT-BELT:0.200
;PRINTING: default-box.3mf
;PRINTING_ID: 0
G1 F1800 E-0.4000
G0 F600 Z2.098
G0 F10800 X122.700 Y0.050
;TYPE:WALL-OUTER
;WIDTH:0.400
G1 F1800 E0.4000
G1 F600 X127.300 Y0.050 E0.1530
G1 X127.300 Y2.816 E0.0920
G1 X122.700 Y2.816 E0.1530
G1 X122.700 Y0.050 E0.0920
G0 F10800 X123.100 Y0.450
;TYPE:WALL-INNER
;WIDTH:0.400
G1 F600 X126.900 Y0.450 E0.1264
G1 X126.900 Y2.416 E0.0654
G1 X123.100 Y2.416 E0.1264
G1 X123.100 Y0.450 E0.0654
G0 F10800 X123.573 Y1.576
;TYPE:SOLID-FILL
;WIDTH:0.400
G1 F600 X123.259 Y1.890 E0.0148
G0 F600 X123.458 Y2.256
G1 F600 X124.138 Y1.576 E0.0320
G0 F600 X124.704 Y1.576
G1 F600 X124.024 Y2.256 E0.0320
G0 F600 X124.590 Y2.256
G1 F600 X125.270 Y1.576 E0.0320
G0 F600 X125.836 Y1.576
G1 F600 X125.155 Y2.256 E0.0320
G0 F600 X125.721 Y2.256
G1 F600 X126.401 Y1.576 E0.0320
G0 F600 X126.739 Y1.803
G1 F600 X126.287 Y2.256 E0.0213
;PRINTING_TIME: 19
;REMAINING_TIME: 889
;LAYER:7
;Z:2.381
;HEIGHT:0.283
;HEIGHT-BELT:0.200
;PRINTING: default-box.3mf
;PRINTING_ID: 0
G1 F1800 E-0.4000
G0 F600 Z2.381
G0 F10800 X122.700 Y0.050
;TYPE:WALL-OUTER
;WIDTH:0.400
G1 F1800 E0.4000
G1 F600 X127.300 Y0.050 E0.1530
G1 X127.300 Y3.216 E0.1053
G1 X122.700 Y3.216 E0.1530
G1 X122.700 Y0.050 E0.1053
G0 F10800 X123.100 Y0.450
;TYPE:WALL-INNER
;WIDTH:0.400
G1 F600 X126.900 Y0.450 E0.1264
G1 X126.900 Y2.816 E0.0787
G1 X123.100 Y2.816 E0.1264
G1 X123.100 Y0.450 E0.0787
G0 F10800 X123.259 Y2.335
;TYPE:SOLID-FILL
;WIDTH:0.400
G1 F600 X123.579 Y2.655 E0.0151
G0 F600 X124.145 Y2.655
G1 F600 X123.465 Y1.976 E0.0320
G0 F600 X124.031 Y1.976
G1 F600 X124.711 Y2.655 E0.0320
G0 F600 X125.276 Y2.655
G1 F600 X124.597 Y1.976 E0.0319
G0 F600 X125.162 Y1.976
G1 F600 X125.842 Y2.655 E0.0320
G0 F600 X126.408 Y2.655
G1 F600 X125.728 Y1.976 E0.0320
G0 F600 X126.294 Y1.976
G1 F600 X126.739 Y2.421 E0.0209
;PRINTING_TIME: 23
;REMAINING_TIME: 885
;LAYER:8
;Z:2.664
;HEIGHT:0.283
;HEIGHT-BELT:0.200
;PRINTING: default-box.3mf
;PRINTING_ID: 0
G1 F1800 E-0.4000
G0 F600 Z2.664
G0 F10800 X122.700 Y0.050
;TYPE:WALL-OUTER
;WIDTH:0.400
G1 F1800 E0.4000
G1 F600 X127.300 Y0.050 E0.1530
G1 X127.300 Y3.616 E0.1186
G1 X122.700 Y3.616 E0.1530
G1 X122.700 Y0.050 E0.1186
G0 F10800 X123.100 Y0.450
;TYPE:WALL-INNER
;WIDTH:0.400
G1 F600 X126.900 Y0.450 E0.1264
G1 X126.900 Y3.216 E0.0920
G1 X123.100 Y3.216 E0.1264
G1 X123.100 Y0.450 E0.0920
G0 F10800 X123.339 Y2.375
;TYPE:SOLID-FILL
;WIDTH:0.400
G1 F600 X123.259 Y2.455 E0.0038
G0 F600 X123.259 Y3.021
G1 F600 X123.904 Y2.375 E0.0304
G0 F600 X124.470 Y2.375
G1 F600 X123.790 Y3.056 E0.0320
G0 F600 X124.356 Y3.056
G1 F600 X125.036 Y2.375 E0.0320
G0 F600 X125.601 Y2.375
G1 F600 X124.921 Y3.056 E0.0320
G0 F600 X125.487 Y3.056
G1 F600 X126.167 Y2.375 E0.0320
G0 F600 X126.733 Y2.375
G1 F600 X126.053 Y3.056 E0.0320
G0 F600 X126.618 Y3.056
G1 F600 X126.738 Y2.935 E0.0057
G0 F10800 X125.828 Y2.216
;TYPE:FILL
;WIDTH:0.400
;FLOW:95.0
G1 F600 X126.308 Y1.935 E0.0176
G1 X126.540 Y1.724 E0.0099
;PRINTING_TIME: 27
;REMAINING_TIME: 881
;LAYER:9
;Z:2.947
;HEIGHT:0.283
;HEIGHT-BELT:0.200
;FLOW:100.0
M106 S102
;PRINTING: default-box.3mf
;PRINTING_ID: 0
G1 F1800 E-0.4000
G0 F600 Z2.947
G0 F10800 X122.700 Y0.050
;TYPE:WALL-OUTER
;WIDTH:0.400
G1 F1800 E0.4000
G1 F643 X127.300 Y0.050 E0.1530
G1 X127.300 Y4.016 E0.1319
G1 F600 X122.700 Y4.016 E0.1530
G1 F643 X122.700 Y0.050 E0.1319
G0 F10800 X123.100 Y0.450
;TYPE:WALL-INNER
;WIDTH:0.400
G1 F643 X126.900 Y0.450 E0.1264
G1 X126.900 Y3.616 E0.1053
G1 X123.100 Y3.616 E0.1264
G1 X123.100 Y0.450 E0.1053
G0 F10800 X123.258 Y2.900
;TYPE:SOLID-FILL
;WIDTH:0.400
G1 F643 X123.813 Y3.455 E0.0261
G0 F643 X124.379 Y3.455
G1 F643 X123.699 Y2.776 E0.0320
G0 F643 X124.265 Y2.776
G1 F643 X124.945 Y3.455 E0.0320
G0 F643 X125.510 Y3.455
G1 F643 X124.831 Y2.776 E0.0319
G0 F643 X125.396 Y2.776
G1 F643 X126.076 Y3.455 E0.0320
G0 F643 X126.642 Y3.455
G1 F643 X125.962 Y2.776 E0.0320
G0 F643 X126.528 Y2.776
G1 F643 X126.738 Y2.986 E0.0099
G0 F10800 X126.540 Y1.846
;TYPE:FILL
;WIDTH:0.400
;FLOW:95.0
G1 F643 X126.308 Y2.030 E0.0094
G1 X125.654 Y2.348 E0.0230
G1 X124.999 Y2.509 E0.0213
G1 X123.691 Y2.419 E0.0414
G1 X123.460 Y2.261 E0.0088
;PRINTING_TIME: 31
;REMAINING_TIME: 876
;LAYER:10
;Z:3.230
;HEIGHT:0.283
;HEIGHT-BELT:0.200
;FLOW:100.0
;PRINTING: default-box.3mf
;PRINTING_ID: 0
G1 F1800 E-0.4000
G0 F600 Z3.230
G0 F10800 X122.700 Y0.050
;TYPE:WALL-OUTER
;WIDTH:0.400
G1 F1800 E0.4000
G1 F661 X127.300 Y0.050 E0.1530
G1 X127.300 Y4.416 E0.1452
G1 F600 X122.700 Y4.416 E0.1530
G1 F661 X122.700 Y0.050 E0.1452
G0 F10800 X123.100 Y0.450
;TYPE:WALL-INNER
;WIDTH:0.400
G1 F661 X126.900 Y0.450 E0.1264
G1 X126.900 Y4.016 E0.1186
G1 X123.100 Y4.016 E0.1264
G1 X123.100 Y0.450 E0.1186
G0 F10800 X123.670 Y3.175
;TYPE:SOLID-FILL
;WIDTH:0.400
G1 F661 X123.259 Y3.587 E0.0194
G0 F661 X123.556 Y3.855
G1 F661 X124.236 Y3.175 E0.0320
G0 F661 X124.802 Y3.175
G1 F661 X124.121 Y3.855 E0.0320
G0 F661 X124.687 Y3.855
G1 F661 X125.367 Y3.175 E0.0320
G0 F661 X125.933 Y3.175
G1 F661 X125.253 Y3.855 E0.0320
G0 F661 X125.819 Y3.855
G1 F661 X126.499 Y3.175 E0.0320
G0 F661 X126.738 Y3.501
G1 F661 X126.384 Y3.855 E0.0167
G0 F10800 X126.540 Y1.972
;TYPE:FILL
;WIDTH:0.400
;FLOW:95.0
G1 F661 X126.308 Y2.134 E0.0089
G1 X125.654 Y2.391 E0.0222
G1 X124.999 Y2.495 E0.0210
G1 X123.691 Y2.289 E0.0418
G1 X123.460 Y2.118 E0.0091
;PRINTING_TIME: 36
;REMAINING_TIME: 872
;LAYER:11
;Z:3.513
;HEIGHT:0.283
;HEIGHT-BELT:0.200
;FLOW:100.0
;PRINTING: default-box.3mf
;PRINTING_ID: 0
G1 F1800 E-0.4000
G0 F600 Z3.513
G0 F10800 X122.700 Y0.050
;TYPE:WALL-OUTER
;WIDTH:0.400
G1 F1800 E0.4000
G1 F682 X127.300 Y0.050 E0.1530
G1 X127.300 Y4.816 E0.1585
G1 F600 X122.700 Y4.816 E0.1530
G1 F682 X122.700 Y0.050 E0.1585
G0 F10800 X123.100 Y0.450
;TYPE:WALL-INNER
;WIDTH:0.400
G1 F682 X126.900 Y0.450 E0.1264
G1 X126.900 Y4.416 E0.1319
G1 X123.100 Y4.416 E0.1264
G1 X123.100 Y0.450 E0.1319
G0 F10800 X123.259 Y4.032
;TYPE:SOLID-FILL
;WIDTH:0.400
G1 F682 X123.482 Y4.255 E0.0105
G0 F682 X124.048 Y4.255
G1 F682 X123.368 Y3.575 E0.0320
G0 F682 X123.933 Y3.575
G1 F682 X124.614 Y4.255 E0.0320
G0 F682 X125.179 Y4.255
G1 F682 X124.499 Y3.575 E0.0320
G0 F682 X125.065 Y3.575
G1 F682 X125.745 Y4.255 E0.0320
G0 F682 X126.311 Y4.255
G1 F682 X125.630 Y3.575 E0.0320
G0 F682 X126.196 Y3.575
G1 F682 X126.739 Y4.118 E0.0255
G0 F10800 X126.540 Y2.106
;TYPE:FILL
;WIDTH:0.400
;FLOW:95.0
G1 F682 X126.308 Y2.247 E0.0086
G1 X125.654 Y2.445 E0.0216
G1 X124.999 Y2.492 E0.0207
G1 X123.691 Y2.171 E0.0426
G1 X123.460 Y1.985 E0.0094
;PRINTING_TIME: 40
;REMAINING_TIME: 867
;LAYER:12
;Z:3.796
;HEIGHT:0.283
;HEIGHT-BELT:0.200
;FLOW:100.0
;PRINTING: default-box.3mf
;PRINTING_ID: 0
G1 F1800 E-0.4000
G0 F600 Z3.796
G0 F10800 X122.700 Y0.050
;TYPE:WALL-OUTER
;WIDTH:0.400
G1 F1800 E0.4000
G1 F701 X127.300 Y0.050 E0.1530
G1 X127.300 Y5.216 E0.1718
G1 F600 X122.700 Y5.216 E0.1530
G1 F701 X122.700 Y0.050 E0.1718
G0 F10800 X123.100 Y0.450
;TYPE:WALL-INNER
;WIDTH:0.400
G1 F701 X126.900 Y0.450 E0.1264
G1 X126.900 Y4.816 E0.1452
G1 X123.100 Y4.816 E0.1264
G1 X123.100 Y0.450 E0.1452
G0 F10800 X123.436 Y3.975
;TYPE:SOLID-FILL
;WIDTH:0.400
G1 F701 X123.259 Y4.152 E0.0083
G0 F701 X123.321 Y4.656
G1 F701 X124.001 Y3.975 E0.0320
G0 F701 X124.567 Y3.975
G1 F701 X123.887 Y4.656 E0.0320
G0 F701 X124.452 Y4.656
G1 F701 X125.133 Y3.975 E0.0320
G0 F701 X125.698 Y3.975
G1 F701 X125.018 Y4.656 E0.0320
G0 F701 X125.584 Y4.656
G1 F701 X126.264 Y3.975 E0.0320
G0 F701 X126.739 Y4.066
G1 F701 X126.149 Y4.656 E0.0278
G0 F10800 X126.540 Y2.252
;TYPE:FILL
;WIDTH:0.400
;FLOW:95.0
G1 F701 X126.308 Y2.373 E0.0083
G1 X125.654 Y2.512 E0.0211
G1 X124.999 Y2.502 E0.0207
G1 X123.691 Y2.064 E0.0436
G1 X123.460 Y1.861 E0.0097
;PRINTING_TIME: 45
;REMAINING_TIME: 863
;LAYER:13
;Z:4.079
;HEIGHT:0.283
;HEIGHT-BELT:0.200
;FLOW:100.0
;PRINTING: default-box.3mf
;PRINTING_ID: 0
G1 F1800 E-0.4000
G0 F600 Z4.079
G0 F10800 X122.700 Y0.050
;TYPE:WALL-OUTER
;WIDTH:0.400
G1 F1800 E0.4000
G1 F722 X127.300 Y0.050 E0.1530
G1 X127.300 Y5.616 E0.1851
G1 F600 X122.700 Y5.616 E0.1530
G1 F722 X122.700 Y0.050 E0.1851
G0 F10800 X123.100 Y0.450
;TYPE:WALL-INNER
;WIDTH:0.400
G1 F722 X126.900 Y0.450 E0.1264
G1 X126.900 Y5.216 E0.1585
G1 X123.100 Y5.216 E0.1264
G1 X123.100 Y0.450 E0.1585
G0 F10800 X123.259 Y4.598
;TYPE:SOLID-FILL
;WIDTH:0.400
G1 F722 X123.716 Y5.055 E0.0215
G0 F722 X124.282 Y5.055
G1 F722 X123.602 Y4.376 E0.0320
G0 F722 X124.168 Y4.376
G1 F722 X124.848 Y5.055 E0.0320
G0 F722 X125.413 Y5.055
G1 F722 X124.734 Y4.376 E0.0319
G0 F722 X125.300 Y4.376
G1 F722 X125.979 Y5.055 E0.0319
G0 F722 X126.545 Y5.055
G1 F722 X125.865 Y4.376 E0.0320
G0 F722 X126.431 Y4.376
G1 F722 X126.739 Y4.684 E0.0145
G0 F10800 X126.540 Y2.436
;TYPE:FILL
;WIDTH:0.400
;FLOW:95.0
G1 F722 X126.308 Y2.514 E0.0077
G1 X125.654 Y2.591 E0.0208
G1 X124.999 Y2.525 E0.0208
G1 X123.691 Y1.966 E0.0449
G1 X123.460 Y1.742 E0.0102
;PRINTING_TIME: 49
;REMAINING_TIME: 858
;LAYER:14
;Z:4.362
;HEIGHT:0.283
;HEIGHT-BELT:0.200
;FLOW:100.0
;PRINTING: default-box.3mf
;PRINTING_ID: 0
G1 F1800 E-0.4000
G0 F600 Z4.362
G0 F10800 X122.700 Y0.050
;TYPE:WALL-OUTER
;WIDTH:0.400
G1 F1800 E0.4000
G1 F742 X127.300 Y0.050 E0.1530
G1 X127.300 Y6.016 E0.1984
G1 F600 X122.700 Y6.016 E0.1530
G1 F742 X122.700 Y0.050 E0.1984
G0 F10800 X123.100 Y0.450
;TYPE:WALL-INNER
;WIDTH:0.400
G1 F742 X126.900 Y0.450 E0.1264
G1 X126.900 Y5.616 E0.1718
G1 X123.100 Y5.616 E0.1264
G1 X123.100 Y0.450 E0.1718
G0 F10800 X123.767 Y4.775
;TYPE:SOLID-FILL
;WIDTH:0.400
G1 F742 X123.259 Y5.284 E0.0239
G0 F742 X123.652 Y5.456
G1 F742 X124.333 Y4.775 E0.0320
G0 F742 X124.899 Y4.775
G1 F742 X124.218 Y5.456 E0.0320
G0 F742 X124.783 Y5.456
G1 F742 X125.464 Y4.775 E0.0320
G0 F742 X126.030 Y4.775
G1 F742 X125.349 Y5.456 E0.0320
G0 F742 X125.915 Y5.456
G1 F742 X126.596 Y4.775 E0.0320
G0 F742 X126.738 Y5.198
G1 F742 X126.480 Y5.456 E0.0121
G0 F10800 X126.540 Y2.619
;TYPE:FILL
;WIDTH:0.400
;FLOW:95.0
G1 F742 X126.308 Y2.673 E0.0075
G1 X125.981 Y2.698 E0.0104
G1 X125.654 Y2.685 E0.0103
G1 X124.999 Y2.560 E0.0211
G1 X123.691 Y1.875 E0.0467
G1 X123.460 Y1.625 E0.0108
;PRINTING_TIME: 54
;REMAINING_TIME: 854
;LAYER:15
;Z:4.645
;HEIGHT:0.283
;HEIGHT-BELT:0.200
;FLOW:100.0
;PRINTING: default-box.3mf
;PRINTING_ID: 0
G1 F1800 E-0.4000
G0 F600 Z4.645
G0 F10800 X122.700 Y0.050
;TYPE:WALL-OUTER
;WIDTH:0.400
G1 F1800 E0.4000
G1 F809 X127.300 Y0.050 E0.1530
G1 X127.300 Y6.416 E0.2117
G1 F600 X122.700 Y6.416 E0.1530
G1 F809 X122.700 Y0.050 E0.2117
G0 F10800 X123.100 Y0.450
;TYPE:WALL-INNER
;WIDTH:0.400
G1 F809 X126.900 Y0.450 E0.1264
G1 X126.900 Y6.016 E0.1851
G1 X123.100 Y6.016 E0.1264
G1 X123.100 Y0.450 E0.1851
G0 F10800 X123.259 Y0.638
;TYPE:SOLID-FILL
;WIDTH:0.400
;WIDTH:0.417
G1 F809 X123.700 Y0.797 E0.0163
;WIDTH:0.374
G1 X124.266 Y0.797 E0.0176
G1 X124.832 Y0.797 E0.0176
G1 X125.397 Y0.797 E0.0176
G1 X125.963 Y0.797 E0.0176
;WIDTH:0.338
