;Sliced by ideaMaker 5.3.2.8640, 2026-01-07 17:20:03 UTC+0100
;Slicer Version: 5.3.0.8620
;Dimension: 250.000 9999.000 250.000 0.400
;Plate Shape: 0
;Origin Center: 0
;Belt Printer: 1
;Belt Base Y: 5039.500
;Belt Base Z: 0.010
;Belt Offset Y: 0.000
;Belt Offset Z: 3563.457
;Belt Gantry Angle: 45
;Belt Remove Z: 0.283
;Belt Repetition: 1
;Extruder Offset #1: 25.000 0.000
;Filament Diameter #1: 1.750
;Filament Diameter #2: 1.750
;Filament Compensation #1: 98.000
;Filament Compensation #2: 100.000
;Filament Density #1: 1250.000
;Filament Density #2: 1250.000
;Filament Type #1: PLA
;Filament Type #2: PLA
;Filament Name #1: IdeaFormer PLA 1.75mm
;Filament Name #2: IdeaFormer PLA 1.75mm
;Filament #1: Ideaformer PLA 1.75mm
;Filament #2: Ideaformer PLA 1.75mm
;Printer Type: IdeaFormer IR3 V2
;Firmware: Klipper
;Bounding Box: 120.000 130.000 -0.150 13.992 0.200 13.883
;Model Gap: 0.000
;
;
M221 T0 S98.00
PRINT_START
M140 S90
M104 T0 S240
M109 T0 S240
M190 S90
G92 E0        ; Set axis to 0
G1 Y.1
G1 E15 F1000
G1 Z20 E25 F800
G1 E23
G28 Y
G1 E25
FMS_on
G1 X250 E50 F2000
G92 Z0
G1 Z.4
G1 X0 E75
G1 F1000
G92 E0 Z0
;end of Start GCode
;TOTAL_NUM: 1
;PRINTING_TIME: 0
;REMAINING_TIME: 349
M83
;LAYER:0
;Z:0.400
;HEIGHT:0.400
;HEIGHT-BELT:0.283
;BELT-FIRST-Z:0.400
M106 S0
;PRINTING: default-box.3mf
;PRINTING_ID: 0
G1 F1800 E-0.4000
SET_VELOCITY_LIMIT ACCEL=5000.00
G0 F10800 X120.200 Y0.050
G0 F600 Z0.400
;TYPE:WALL-OUTER
;WIDTH:0.400
;HEIGHT:0.400
;HEIGHT-BELT:0.283
G1 F1800 E0.4000
G1 F600 X129.800 Y0.050 E0.3193
G1 X129.800 Y0.416 E0.0122
G1 X120.200 Y0.416 E0.3193
G1 X120.200 Y0.050 E0.0122
;PRINTING_TIME: 3
;REMAINING_TIME: 346
;LAYER:1
;Z:0.683
;HEIGHT:0.283
;HEIGHT-BELT:0.200
;PRINTING: default-box.3mf
;PRINTING_ID: 0
G1 F1800 E-0.4000
G0 F600 Z0.683
G0 F10800 X120.200 Y0.050
;TYPE:WALL-OUTER
;WIDTH:0.400
G1 F1800 E0.4000
G1 F629 X129.800 Y0.050 E0.3193
G1 X129.800 Y0.816 E0.0255
G1 F600 X120.200 Y0.816 E0.3193
G1 F629 X120.200 Y0.050 E0.0255
G0 F10800 X120.400 Y0.433
;TYPE:GAP-FILL
;WIDTH:0.366
G1 F600 X129.600 Y0.433 E0.2800
;PRINTING_TIME: 6
;REMAINING_TIME: 343
;LAYER:2
;Z:0.966
;HEIGHT:0.283
;HEIGHT-BELT:0.200
;PRINTING: default-box.3mf
;PRINTING_ID: 0
G1 F1800 E-0.4000
G0 F600 Z0.966
G0 F10800 X120.200 Y0.050
;TYPE:WALL-OUTER
;WIDTH:0.400
G1 F1800 E0.4000
G1 F739 X129.800 Y0.050 E0.3193
G1 X129.800 Y1.216 E0.0388
G1 F600 X120.200 Y1.216 E0.3193
G1 F739 X120.200 Y0.050 E0.0388
G0 F10800 X120.600 Y0.450
;TYPE:WALL-INNER
;WIDTH:0.400
G1 F739 X129.400 Y0.450 E0.2927
G1 X129.400 Y0.816 E0.0122
G1 X120.600 Y0.816 E0.2927
G1 X120.600 Y0.450 E0.0122
;PRINTING_TIME: 9
;REMAINING_TIME: 339
;LAYER:3
;Z:1.249
;HEIGHT:0.283
;HEIGHT-BELT:0.200
;PRINTING: default-box.3mf
;PRINTING_ID: 0
G1 F1800 E-0.4000
G0 F600 Z1.249
G0 F10800 X120.200 Y0.050
;TYPE:WALL-OUTER
;WIDTH:0.400
G1 F1800 E0.4000
G1 F1068 X129.800 Y0.050 E0.3193
G1 X129.800 Y1.616 E0.0521
G1 F600 X120.200 Y1.616 E0.3193
G1 F1068 X120.200 Y0.050 E0.0521
G0 F10800 X120.600 Y0.450
;TYPE:WALL-INNER
;WIDTH:0.400
G1 F1068 X129.400 Y0.450 E0.2927
G1 X129.400 Y1.216 E0.0255
G1 X120.600 Y1.216 E0.2927
G1 X120.600 Y0.450 E0.0255
G0 F10800 X120.800 Y0.833
;TYPE:GAP-FILL
;WIDTH:0.366
G1 F600 X129.200 Y0.833 E0.2556
;PRINTING_TIME: 13
;REMAINING_TIME: 335
;LAYER:4
;Z:1.532
;HEIGHT:0.283
;HEIGHT-BELT:0.200
M106 S51
;PRINTING: default-box.3mf
;PRINTING_ID: 0
G1 F1800 E-0.4000
G0 F600 Z1.532
G0 F10800 X120.200 Y0.050
;TYPE:WALL-OUTER
;WIDTH:0.400
G1 F1800 E0.4000
G1 F1028 X129.800 Y0.050 E0.3193
G1 X129.800 Y2.016 E0.0654
G1 F600 X120.200 Y2.016 E0.3193
G1 F1028 X120.200 Y0.050 E0.0654
G0 F10800 X120.600 Y0.450
;TYPE:WALL-INNER
;WIDTH:0.400
G1 F1028 X129.400 Y0.450 E0.2927
G1 X129.400 Y1.616 E0.0388
G1 X120.600 Y1.616 E0.2927
G1 X120.600 Y0.450 E0.0388
G0 F10800 X120.979 Y0.775
;TYPE:SOLID-FILL
;WIDTH:0.400
G1 F1028 X120.758 Y0.996 E0.0104
G0 F1028 X120.864 Y1.456
G1 F1028 X121.545 Y0.775 E0.0320
G0 F1028 X122.110 Y0.775
G1 F1028 X121.430 Y1.456 E0.0320
G0 F1028 X121.995 Y1.456
G1 F1028 X122.676 Y0.775 E0.0320
G0 F1028 X123.242 Y0.775
G1 F1028 X122.561 Y1.456 E0.0320
G0 F1028 X123.127 Y1.456
G1 F1028 X123.808 Y0.775 E0.0320
G0 F1028 X124.373 Y0.775
G1 F1028 X123.692 Y1.456 E0.0320
G0 F1028 X124.258 Y1.456
G1 F1028 X124.939 Y0.775 E0.0320
G0 F1028 X125.505 Y0.775
G1 F1028 X124.824 Y1.456 E0.0320
G0 F1028 X125.389 Y1.456
G1 F1028 X126.070 Y0.775 E0.0320
G0 F1028 X126.636 Y0.775
G1 F1028 X125.955 Y1.456 E0.0320
G0 F1028 X126.521 Y1.456
G1 F1028 X127.202 Y0.775 E0.0320
G0 F1028 X127.767 Y0.775
G1 F1028 X127.086 Y1.456 E0.0320
G0 F1028 X127.652 Y1.456
G1 F1028 X128.333 Y0.775 E0.0320
G0 F1028 X128.899 Y0.775
G1 F1028 X128.218 Y1.456 E0.0320
G0 F1028 X128.783 Y1.456
G1 F1028 X129.239 Y1.001 E0.0214
;PRINTING_TIME: 18
;REMAINING_TIME: 331
;LAYER:5
;Z:1.815
;HEIGHT:0.283
;HEIGHT-BELT:0.200
;PRINTING: default-box.3mf
;PRINTING_ID: 0
G1 F1800 E-0.4000
G0 F600 Z1.815
G0 F10800 X120.200 Y0.050
;TYPE:WALL-OUTER
;WIDTH:0.400
G1 F1800 E0.4000
G1 F1074 X129.800 Y0.050 E0.3193
G1 X129.800 Y2.416 E0.0787
G1 F600 X120.200 Y2.416 E0.3193
G1 F1074 X120.200 Y0.050 E0.0787
G0 F10800 X120.600 Y0.450
;TYPE:WALL-INNER
;WIDTH:0.400
G1 F1074 X129.400 Y0.450 E0.2927
G1 X129.400 Y2.016 E0.0521
G1 X120.600 Y2.016 E0.2927
G1 X120.600 Y0.450 E0.0521
G0 F10800 X120.758 Y1.532
;TYPE:SOLID-FILL
;WIDTH:0.400
G1 F1074 X121.082 Y1.855 E0.0152
G0 F1074 X121.647 Y1.855
G1 F1074 X120.968 Y1.176 E0.0319
G0 F1074 X121.534 Y1.176
G1 F1074 X122.213 Y1.855 E0.0319
G0 F1074 X122.779 Y1.855
G1 F1074 X122.100 Y1.176 E0.0319
G0 F1074 X122.666 Y1.176
G1 F1074 X123.344 Y1.855 E0.0319
G0 F1074 X123.910 Y1.855
G1 F1074 X123.231 Y1.176 E0.0319
G0 F1074 X123.797 Y1.176
G1 F1074 X124.476 Y1.855 E0.0319
G0 F1074 X125.041 Y1.855
G1 F1074 X124.363 Y1.176 E0.0319
G0 F1074 X124.928 Y1.176
G1 F1074 X125.607 Y1.855 E0.0319
G0 F1074 X126.173 Y1.855
G1 F1074 X125.494 Y1.176 E0.0319
G0 F1074 X126.060 Y1.176
G1 F1074 X126.738 Y1.855 E0.0319
G0 F1074 X127.304 Y1.855
G1 F1074 X126.625 Y1.176 E0.0319
G0 F1074 X127.191 Y1.176
G1 F1074 X127.870 Y1.855 E0.0319
G0 F1074 X128.436 Y1.855
G1 F1074 X127.757 Y1.176 E0.0319
G0 F1074 X128.322 Y1.176
G1 F1074 X129.001 Y1.855 E0.0319
G0 F1074 X129.239 Y1.527
G1 F1074 X128.888 Y1.176 E0.0165
G0 F10800 X127.434 Y0.810
;TYPE:FILL
;WIDTH:0.400
;FLOW:95.0
G1 F1074 X127.289 Y0.944 E0.0062
G1 X127.081 Y1.016 E0.0070
G1 X126.262 Y1.016 E0.0259
G1 X125.654 Y0.856 E0.0199
G1 X125.542 Y0.810 E0.0038
;PRINTING_TIME: 22
;REMAINING_TIME: 326
;LAYER:6
;Z:2.098
;HEIGHT:0.283
;HEIGHT-BELT:0.200
;FLOW:100.0
;PRINTING: default-box.3mf
;PRINTING_ID: 0
G1 F1800 E-0.4000
G0 F600 Z2.098
G0 F10800 X120.200 Y0.050
;TYPE:WALL-OUTER
;WIDTH:0.400
G1 F1800 E0.4000
G1 F1064 X129.800 Y0.050 E0.3193
G1 X129.800 Y2.816 E0.0920
G1 F600 X120.200 Y2.816 E0.3193
G1 F1064 X120.200 Y0.050 E0.0920
G0 F10800 X120.600 Y0.450
;TYPE:WALL-INNER
;WIDTH:0.400
G1 F1064 X129.400 Y0.450 E0.2927
G1 X129.400 Y2.416 E0.0654
G1 X120.600 Y2.416 E0.2927
G1 X120.600 Y0.450 E0.0654
G0 F10800 X121.311 Y1.575
;TYPE:SOLID-FILL
;WIDTH:0.400
G1 F1064 X120.758 Y2.127 E0.0260
G0 F1064 X121.195 Y2.256
G1 F1064 X121.876 Y1.575 E0.0320
G0 F1064 X122.442 Y1.575
G1 F1064 X121.761 Y2.256 E0.0320
G0 F1064 X122.327 Y2.256
G1 F1064 X123.008 Y1.575 E0.0320
G0 F1064 X123.573 Y1.575
G1 F1064 X122.893 Y2.256 E0.0320
G0 F1064 X123.458 Y2.256
G1 F1064 X124.139 Y1.575 E0.0320
G0 F1064 X124.705 Y1.575
G1 F1064 X124.024 Y2.256 E0.0320
G0 F1064 X124.590 Y2.256
G1 F1064 X125.271 Y1.575 E0.0320
G0 F1064 X125.836 Y1.575
G1 F1064 X125.155 Y2.256 E0.0320
G0 F1064 X125.721 Y2.256
G1 F1064 X126.402 Y1.575 E0.0320
G0 F1064 X126.968 Y1.575
G1 F1064 X126.287 Y2.256 E0.0320
G0 F1064 X126.852 Y2.256
G1 F1064 X127.533 Y1.575 E0.0320
G0 F1064 X128.099 Y1.575
G1 F1064 X127.418 Y2.256 E0.0320
G0 F1064 X127.984 Y2.256
G1 F1064 X128.665 Y1.575 E0.0320
G0 F1064 X129.230 Y1.575
G1 F1064 X128.549 Y2.256 E0.0320
G0 F1064 X129.115 Y2.256
G1 F1064 X129.239 Y2.132 E0.0058
;PRINTING_TIME: 27
;REMAINING_TIME: 322
;LAYER:7
;Z:2.381
;HEIGHT:0.283
;HEIGHT-BELT:0.200
;PRINTING: default-box.3mf
;PRINTING_ID: 0
G1 F1800 E-0.4000
G0 F600 Z2.381
G0 F10800 X120.200 Y0.050
;TYPE:WALL-OUTER
;WIDTH:0.400
G1 F1800 E0.4000
G1 F1088 X129.800 Y0.050 E0.3193
G1 X129.800 Y3.216 E0.1053
G1 F600 X120.200 Y3.216 E0.3193
G1 F1088 X120.200 Y0.050 E0.1053
G0 F10800 X120.600 Y0.450
;TYPE:WALL-INNER
;WIDTH:0.400
G1 F1088 X129.400 Y0.450 E0.2927
G1 X129.400 Y2.816 E0.0787
G1 X120.600 Y2.816 E0.2927
G1 X120.600 Y0.450 E0.0787
G0 F10800 X120.758 Y2.097
;TYPE:SOLID-FILL
;WIDTH:0.400
G1 F1088 X121.316 Y2.655 E0.0262
G0 F1088 X121.882 Y2.655
G1 F1088 X121.203 Y1.976 E0.0319
G0 F1088 X121.768 Y1.976
G1 F1088 X122.448 Y2.655 E0.0320
G0 F1088 X123.013 Y2.655
G1 F1088 X122.334 Y1.976 E0.0319
G0 F1088 X122.900 Y1.976
G1 F1088 X123.579 Y2.655 E0.0319
G0 F1088 X124.145 Y2.655
G1 F1088 X123.465 Y1.976 E0.0320
G0 F1088 X124.031 Y1.976
G1 F1088 X124.711 Y2.655 E0.0320
G0 F1088 X125.276 Y2.655
G1 F1088 X124.597 Y1.976 E0.0319
G0 F1088 X125.162 Y1.976
G1 F1088 X125.842 Y2.655 E0.0320
G0 F1088 X126.408 Y2.655
G1 F1088 X125.728 Y1.976 E0.0320
G0 F1088 X126.294 Y1.976
G1 F1088 X126.973 Y2.655 E0.0319
G0 F1088 X127.539 Y2.655
G1 F1088 X126.859 Y1.976 E0.0320
G0 F1088 X127.425 Y1.976
G1 F1088 X128.105 Y2.655 E0.0320
G0 F1088 X128.670 Y2.655
G1 F1088 X127.991 Y1.976 E0.0319
G0 F1088 X128.556 Y1.976
G1 F1088 X129.236 Y2.655 E0.0320
G0 F1088 X129.239 Y2.092
G1 F1088 X129.122 Y1.976 E0.0055
;PRINTING_TIME: 32
;REMAINING_TIME: 317
;LAYER:8
;Z:2.664
;HEIGHT:0.283
;HEIGHT-BELT:0.200
;PRINTING: default-box.3mf
;PRINTING_ID: 0
G1 F1800 E-0.4000
G0 F600 Z2.664
G0 F10800 X120.200 Y0.050
;TYPE:WALL-OUTER
;WIDTH:0.400
G1 F1800 E0.4000
G1 F1108 X129.800 Y0.050 E0.3193
G1 X129.800 Y3.616 E0.1186
G1 F600 X120.200 Y3.616 E0.3193
G1 F1108 X120.200 Y0.050 E0.1186
G0 F10800 X120.600 Y0.450
;TYPE:WALL-INNER
;WIDTH:0.400
G1 F1108 X129.400 Y0.450 E0.2927
G1 X129.400 Y3.216 E0.0920
G1 X120.600 Y3.216 E0.2927
G1 X120.600 Y0.450 E0.0920
G0 F10800 X121.076 Y2.375
;TYPE:SOLID-FILL
;WIDTH:0.400
G1 F1108 X120.759 Y2.692 E0.0149
G0 F1108 X120.961 Y3.056
G1 F1108 X121.642 Y2.375 E0.0320
G0 F1108 X122.207 Y2.375
G1 F1108 X121.527 Y3.056 E0.0320
G0 F1108 X122.093 Y3.056
G1 F1108 X122.773 Y2.375 E0.0320
G0 F1108 X123.339 Y2.375
G1 F1108 X122.658 Y3.056 E0.0320
G0 F1108 X123.224 Y3.056
G1 F1108 X123.904 Y2.375 E0.0320
G0 F1108 X124.470 Y2.375
G1 F1108 X123.790 Y3.056 E0.0320
G0 F1108 X124.356 Y3.056
G1 F1108 X125.036 Y2.375 E0.0320
G0 F1108 X125.601 Y2.375
G1 F1108 X124.921 Y3.056 E0.0320
G0 F1108 X125.487 Y3.056
G1 F1108 X126.167 Y2.375 E0.0320
G0 F1108 X126.733 Y2.375
G1 F1108 X126.053 Y3.056 E0.0320
G0 F1108 X126.618 Y3.056
G1 F1108 X127.299 Y2.375 E0.0320
G0 F1108 X127.864 Y2.375
G1 F1108 X127.184 Y3.056 E0.0320
G0 F1108 X127.750 Y3.056
G1 F1108 X128.430 Y2.375 E0.0320
G0 F1108 X128.996 Y2.375
G1 F1108 X128.315 Y3.056 E0.0320
G0 F1108 X128.881 Y3.056
G1 F1108 X129.239 Y2.698 E0.0168
;PRINTING_TIME: 36
;REMAINING_TIME: 312
;LAYER:9
;Z:2.947
;HEIGHT:0.283
;HEIGHT-BELT:0.200
M106 S102
;PRINTING: default-box.3mf
;PRINTING_ID: 0
G1 F1800 E-0.4000
G0 F600 Z2.947
G0 F10800 X120.200 Y0.050
;TYPE:WALL-OUTER
;WIDTH:0.400
G1 F1800 E0.4000
G1 F1129 X129.800 Y0.050 E0.3193
G1 X129.800 Y4.016 E0.1319
G1 F600 X120.200 Y4.016 E0.3193
G1 F1129 X120.200 Y0.050 E0.1319
G0 F10800 X120.600 Y0.450
;TYPE:WALL-INNER
;WIDTH:0.400
G1 F1129 X129.400 Y0.450 E0.2927
G1 X129.400 Y3.616 E0.1053
G1 X120.600 Y3.616 E0.2927
G1 X120.600 Y0.450 E0.1053
G0 F10800 X120.759 Y3.229
;TYPE:SOLID-FILL
;WIDTH:0.400
G1 F1129 X120.985 Y3.456 E0.0107
G0 F1129 X121.551 Y3.456
G1 F1129 X120.871 Y2.776 E0.0320
G0 F1129 X121.437 Y2.776
G1 F1129 X122.117 Y3.456 E0.0320
G0 F1129 X122.683 Y3.456
G1 F1129 X122.002 Y2.776 E0.0320
G0 F1129 X122.568 Y2.776
G1 F1129 X123.248 Y3.456 E0.0320
G0 F1129 X123.814 Y3.456
G1 F1129 X123.134 Y2.776 E0.0320
G0 F1129 X123.699 Y2.776
G1 F1129 X124.380 Y3.456 E0.0320
G0 F1129 X124.945 Y3.456
G1 F1129 X124.265 Y2.776 E0.0320
G0 F1129 X124.831 Y2.776
G1 F1129 X125.511 Y3.456 E0.0320
G0 F1129 X126.077 Y3.456
G1 F1129 X125.396 Y2.776 E0.0320
G0 F1129 X125.962 Y2.776
G1 F1129 X126.642 Y3.456 E0.0320
G0 F1129 X127.208 Y3.456
G1 F1129 X126.528 Y2.776 E0.0320
G0 F1129 X127.093 Y2.776
G1 F1129 X127.774 Y3.456 E0.0320
G0 F1129 X128.339 Y3.456
G1 F1129 X127.659 Y2.776 E0.0320
G0 F1129 X128.225 Y2.776
G1 F1129 X128.905 Y3.456 E0.0320
G0 F1129 X129.239 Y3.224
G1 F1129 X128.791 Y2.776 E0.0211
;PRINTING_TIME: 41
;REMAINING_TIME: 308
;LAYER:10
;Z:3.230
;HEIGHT:0.283
;HEIGHT-BELT:0.200
;PRINTING: default-box.3mf
;PRINTING_ID: 0
G1 F1800 E-0.4000
G0 F600 Z3.230
G0 F10800 X120.200 Y0.050
;TYPE:WALL-OUTER
;WIDTH:0.400
G1 F1800 E0.4000
G1 F1148 X129.800 Y0.050 E0.3193
G1 X129.800 Y4.416 E0.1452
G1 F600 X120.200 Y4.416 E0.3193
G1 F1148 X120.200 Y0.050 E0.1452
G0 F10800 X120.600 Y0.450
;TYPE:WALL-INNER
;WIDTH:0.400
G1 F1148 X129.400 Y0.450 E0.2927
G1 X129.400 Y4.016 E0.1186
G1 X120.600 Y4.016 E0.2927
G1 X120.600 Y0.450 E0.1186
G0 F10800 X120.841 Y3.176
;TYPE:SOLID-FILL
;WIDTH:0.400
G1 F1148 X120.759 Y3.258 E0.0039
G0 F1148 X120.759 Y3.823
G1 F1148 X121.407 Y3.176 E0.0305
G0 F1148 X121.973 Y3.176
G1 F1148 X121.292 Y3.856 E0.0320
G0 F1148 X121.858 Y3.856
G1 F1148 X122.538 Y3.176 E0.0320
G0 F1148 X123.104 Y3.176
G1 F1148 X122.424 Y3.856 E0.0320
G0 F1148 X122.989 Y3.856
G1 F1148 X123.670 Y3.176 E0.0320
G0 F1148 X124.235 Y3.176
G1 F1148 X123.555 Y3.856 E0.0320
G0 F1148 X124.121 Y3.856
G1 F1148 X124.801 Y3.176 E0.0320
G0 F1148 X125.367 Y3.176
G1 F1148 X124.686 Y3.856 E0.0320
G0 F1148 X125.252 Y3.856
G1 F1148 X125.932 Y3.176 E0.0320
G0 F1148 X126.498 Y3.176
G1 F1148 X125.818 Y3.856 E0.0320
G0 F1148 X126.384 Y3.856
G1 F1148 X127.064 Y3.176 E0.0320
G0 F1148 X127.629 Y3.176
G1 F1148 X126.949 Y3.856 E0.0320
G0 F1148 X127.515 Y3.856
G1 F1148 X128.195 Y3.176 E0.0320
G0 F1148 X128.761 Y3.176
G1 F1148 X128.081 Y3.856 E0.0320
G0 F1148 X128.646 Y3.856
G1 F1148 X129.239 Y3.263 E0.0279
;PRINTING_TIME: 46
;REMAINING_TIME: 303
;LAYER:11
;Z:3.513
;HEIGHT:0.283
;HEIGHT-BELT:0.200
;PRINTING: default-box.3mf
;PRINTING_ID: 0
G1 F1800 E-0.4000
G0 F600 Z3.513
G0 F10800 X120.200 Y0.050
;TYPE:WALL-OUTER
;WIDTH:0.400
G1 F1800 E0.4000
G1 F1270 X129.800 Y0.050 E0.3193
G1 X129.800 Y4.816 E0.1585
G1 F600 X120.200 Y4.816 E0.3193
G1 F1270 X120.200 Y0.050 E0.1585
G0 F10800 X120.600 Y0.450
;TYPE:WALL-INNER
;WIDTH:0.400
G1 F1270 X129.400 Y0.450 E0.2927
G1 X129.400 Y4.416 E0.1319
G1 X120.600 Y4.416 E0.2927
G1 X120.600 Y0.450 E0.1319
G0 F10800 X120.758 Y3.794
;TYPE:SOLID-FILL
;WIDTH:0.400
G1 F1270 X121.220 Y4.255 E0.0217
G0 F1270 X121.785 Y4.255
G1 F1270 X121.106 Y3.576 E0.0319
G0 F1270 X121.671 Y3.576
G1 F1270 X122.351 Y4.255 E0.0320
G0 F1270 X122.917 Y4.255
G1 F1270 X122.237 Y3.576 E0.0320
G0 F1270 X122.803 Y3.576
G1 F1270 X123.482 Y4.255 E0.0319
G0 F1270 X124.048 Y4.255
G1 F1270 X123.368 Y3.576 E0.0320
G0 F1270 X123.934 Y3.576
G1 F1270 X124.614 Y4.255 E0.0320
G0 F1270 X125.179 Y4.255
G1 F1270 X124.500 Y3.576 E0.0319
G0 F1270 X125.065 Y3.576
G1 F1270 X125.745 Y4.255 E0.0320
G0 F1270 X126.311 Y4.255
G1 F1270 X125.631 Y3.576 E0.0320
G0 F1270 X126.197 Y3.576
G1 F1270 X126.876 Y4.255 E0.0319
G0 F1270 X127.442 Y4.255
G1 F1270 X126.763 Y3.576 E0.0319
G0 F1270 X127.328 Y3.576
G1 F1270 X128.008 Y4.255 E0.0320
G0 F1270 X128.573 Y4.255
G1 F1270 X127.894 Y3.576 E0.0319
G0 F1270 X128.460 Y3.576
G1 F1270 X129.139 Y4.255 E0.0319
G0 F1270 X129.239 Y3.789
G1 F1270 X129.025 Y3.576 E0.0100
G0 F10800 X129.040 Y3.270
;TYPE:FILL
;WIDTH:0.400
;FLOW:95.0
G1 F1270 X128.925 Y3.315 E0.0039
G1 X128.773 Y3.416 E0.0058
G1 X121.306 Y3.416 E0.2359
G1 X121.074 Y3.239 E0.0092
G1 X120.960 Y3.218 E0.0037
;PRINTING_TIME: 50
;REMAINING_TIME: 298
;LAYER:12
;Z:3.796
;HEIGHT:0.283
;HEIGHT-BELT:0.200
;FLOW:100.0
;PRINTING: default-box.3mf
;PRINTING_ID: 0
G1 F1800 E-0.4000
G0 F600 Z3.796
G0 F10800 X120.200 Y0.050
;TYPE:WALL-OUTER
;WIDTH:0.400
G1 F1800 E0.4000
G1 F1286 X129.800 Y0.050 E0.3193
G1 X129.800 Y5.216 E0.1718
G1 F600 X120.200 Y5.216 E0.3193
G1 F1286 X120.200 Y0.050 E0.1718
G0 F10800 X120.600 Y0.450
